ep_main/data/luts/00_aces.cube
TITLE "00_aces"
LUT_3D_SIZE 5
0.002913 0.002913 0.002913
0.087741 0.002913 0.002913
0.690990 0.002913 0.002913
0.994260 0.002913 0.002913
1.000000 0.002913 0.002913
0.002913 0.087741 0.002913
0.087741 0.087741 0.002913
0.690990 0.087741 0.002913
0.994260 0.087741 0.002913
1.000000 0.087741 0.002913
0.002913 0.690990 0.002913
0.087741 0.690990 0.002913
0.690990 0.690990 0.002913
0.994260 0.690990 0.002913
1.000000 0.690990 0.002913
0.002913 0.994260 0.002913
0.087741 0.994260 0.002913
0.690990 0.994260 0.002913
0.994260 0.994260 0.002913
1.000000 0.994260 0.002913
0.002913 1.000000 0.002913
0.087741 1.000000 0.002913
0.690990 1.000000 0.002913
0.994260 1.000000 0.002913
1.000000 1.000000 0.002913
0.002913 0.002913 0.087741
0.087741 0.002913 0.087741
0.690990 0.002913 0.087741
0.994260 0.002913 0.087741
1.000000 0.002913 0.087741
0.002913 0.087741 0.087741
0.087741 0.087741 0.087741
0.690990 0.087741 0.087741
0.994260 0.087741 0.087741
1.000000 0.087741 0.087741
0.002913 0.690990 0.087741
0.087741 0.690990 0.087741
0.690990 0.690990 0.087741
0.994260 0.690990 0.087741
1.000000 0.690990 0.087741
0.002913 0.994260 0.087741
0.087741 0.994260 0.087741
0.690990 0.994260 0.087741
0.994260 0.994260 0.087741
1.000000 0.994260 0.087741
0.002913 1.000000 0.087741
0.087741 1.000000 0.087741
0.690990 1.000000 0.087741
0.994260 1.000000 0.087741
1.000000 1.000000 0.087741
0.002913 0.002913 0.690990
0.087741 0.002913 0.690990
0.690990 0.002913 0.690990
0.994260 0.002913 0.690990
1.000000 0.002913 0.690990
0.002913 0.087741 0.690990
0.087741 0.087741 0.690990
0.690990 0.087741 0.690990
0.994260 0.087741 0.690990
1.000000 0.087741 0.690990
0.002913 0.690990 0.690990
0.087741 0.690990 0.690990
0.690990 0.690990 0.690990
0.994260 0.690990 0.690990
1.000000 0.690990 0.690990
0.002913 0.994260 0.690990
0.087741 0.994260 0.690990
0.690990 0.994260 0.690990
0.994260 0.994260 0.690990
1.000000 0.994260 0.690990
0.002913 1.000000 0.690990
0.087741 1.000000 0.690990
0.690990 1.000000 0.690990
0.994260 1.000000 0.690990
1.000000 1.000000 0.690990
0.002913 0.002913 0.994260
0.087741 0.002913 0.994260
0.690990 0.002913 0.994260
0.994260 0.002913 0.994260
1.000000 0.002913 0.994260
0.002913 0.087741 0.994260
0.087741 0.087741 0.994260
0.690990 0.087741 0.994260
0.994260 0.087741 0.994260
1.000000 0.087741 0.994260
0.002913 0.690990 0.994260
0.087741 0.690990 0.994260
0.690990 0.690990 0.994260
0.994260 0.690990 0.994260
1.000000 0.690990 0.994260
0.002913 0.994260 0.994260
0.087741 0.994260 0.994260
0.690990 0.994260 0.994260
0.994260 0.994260 0.994260
1.000000 0.994260 0.994260
0.002913 1.000000 0.994260
0.087741 1.000000 0.994260
0.690990 1.000000 0.994260
0.994260 1.000000 0.994260
1.000000 1.000000 0.994260
0.002913 0.002913 1.000000
0.087741 0.002913 1.000000
0.690990 0.002913 1.000000
0.994260 0.002913 1.000000
1.000000 0.002913 1.000000
0.002913 0.087741 1.000000
0.087741 0.087741 1.000000
0.690990 0.087741 1.000000
0.994260 0.087741 1.000000
1.000000 0.087741 1.000000
0.002913 0.690990 1.000000
0.087741 0.690990 1.000000
0.690990 0.690990 1.000000
0.994260 0.690990 1.000000
1.000000 0.690990 1.000000
0.002913 0.994260 1.000000
0.087741 0.994260 1.000000
0.690990 0.994260 1.000000
0.994260 0.994260 1.000000
1.000000 0.994260 1.000000
0.002913 1.000000 1.000000
0.087741 1.000000 1.000000
0.690990 1.000000 1.000000
0.994260 1.000000 1.000000
1.000000 1.000000 1.000000
