ep_main/data/luts/00_aces.cube
TITLE "00_aces"
LUT_3D_SIZE 33
0.002913 0.002913 0.002913
0.004291 0.002913 0.002913
0.006394 0.002913 0.002913
0.009668 0.002913 0.002913
0.014888 0.002913 0.002913
0.023433 0.002913 0.002913
0.037808 0.002913 0.002913
0.059502 0.002913 0.002913
0.087741 0.002913 0.002913
0.124471 0.002913 0.002913
0.171877 0.002913 0.002913
0.232055 0.002913 0.002913
0.306362 0.002913 0.002913
0.394367 0.002913 0.002913
0.492663 0.002913 0.002913
0.594451 0.002913 0.002913
0.690990 0.002913 0.002913
0.774703 0.002913 0.002913
0.841763 0.002913 0.002913
0.892322 0.002913 0.002913
0.928932 0.002913 0.002913
0.954826 0.002913 0.002913
0.972924 0.002913 0.002913
0.985513 0.002913 0.002913
0.994260 0.002913 0.002913
1.000000 0.002913 0.002913
1.000000 0.002913 0.002913
1.000000 0.002913 0.002913
1.000000 0.002913 0.002913
1.000000 0.002913 0.002913
1.000000 0.002913 0.002913
1.000000 0.002913 0.002913
1.000000 0.002913 0.002913
0.002913 0.004291 0.002913
0.004291 0.004291 0.002913
0.006394 0.004291 0.002913
0.009668 0.004291 0.002913
0.014888 0.004291 0.002913
0.023433 0.004291 0.002913
0.037808 0.004291 0.002913
0.059502 0.004291 0.002913
0.087741 0.004291 0.002913
0.124471 0.004291 0.002913
0.171877 0.004291 0.002913
0.232055 0.004291 0.002913
0.306362 0.004291 0.002913
0.394367 0.004291 0.002913
0.492663 0.004291 0.002913
0.594451 0.004291 0.002913
0.690990 0.004291 0.002913
0.774703 0.004291 0.002913
0.841763 0.004291 0.002913
0.892322 0.004291 0.002913
0.928932 0.004291 0.002913
0.954826 0.004291 0.002913
0.972924 0.004291 0.002913
0.985513 0.004291 0.002913
0.994260 0.004291 0.002913
1.000000 0.004291 0.002913
1.000000 0.004291 0.002913
1.000000 0.004291 0.002913
1.000000 0.004291 0.002913
1.000000 0.004291 0.002913
1.000000 0.004291 0.002913
1.000000 0.004291 0.002913
1.000000 0.004291 0.002913
0.002913 0.006394 0.002913
0.004291 0.006394 0.002913
0.006394 0.006394 0.002913
0.009668 0.006394 0.002913
0.014888 0.006394 0.002913
0.023433 0.006394 0.002913
0.037808 0.006394 0.002913
0.059502 0.006394 0.002913
0.087741 0.006394 0.002913
0.124471 0.006394 0.002913
0.171877 0.006394 0.002913
0.232055 0.006394 0.002913
0.306362 0.006394 0.002913
0.394367 0.006394 0.002913
0.492663 0.006394 0.002913
0.594451 0.006394 0.002913
0.690990 0.006394 0.002913
0.774703 0.006394 0.002913
0.841763 0.006394 0.002913
0.892322 0.006394 0.002913
0.928932 0.006394 0.002913
0.954826 0.006394 0.002913
0.972924 0.006394 0.002913
0.985513 0.006394 0.002913
0.994260 0.006394 0.002913
1.000000 0.006394 0.002913
1.000000 0.006394 0.002913
1.000000 0.006394 0.002913
1.000000 0.006394 0.002913
1.000000 0.006394 0.002913
1.000000 0.006394 0.002913
1.000000 0.006394 0.002913
1.000000 0.006394 0.002913
0.002913 0.009668 0.002913
0.004291 0.009668 0.002913
0.006394 0.009668 0.002913
0.009668 0.009668 0.002913
0.014888 0.009668 0.002913
0.023433 0.009668 0.002913
0.037808 0.009668 0.002913
0.059502 0.009668 0.002913
0.087741 0.009668 0.002913
0.124471 0.009668 0.002913
0.171877 0.009668 0.002913
0.232055 0.009668 0.002913
0.306362 0.009668 0.002913
0.394367 0.009668 0.002913
0.492663 0.009668 0.002913
0.594451 0.009668 0.002913
0.690990 0.009668 0.002913
0.774703 0.009668 0.002913
0.841763 0.009668 0.002913
0.892322 0.009668 0.002913
0.928932 0.009668 0.002913
0.954826 0.009668 0.002913
0.972924 0.009668 0.002913
0.985513 0.009668 0.002913
0.994260 0.009668 0.002913
1.000000 0.009668 0.002913
1.000000 0.009668 0.002913
1.000000 0.009668 0.002913
1.000000 0.009668 0.002913
1.000000 0.009668 0.002913
1.000000 0.009668 0.002913
1.000000 0.009668 0.002913
1.000000 0.009668 0.002913
0.002913 0.014888 0.002913
0.004291 0.014888 0.002913
0.006394 0.014888 0.002913
0.009668 0.014888 0.002913
0.014888 0.014888 0.002913
0.023433 0.014888 0.002913
0.037808 0.014888 0.002913
0.059502 0.014888 0.002913
0.087741 0.014888 0.002913
0.124471 0.014888 0.002913
0.171877 0.014888 0.002913
0.232055 0.014888 0.002913
0.306362 0.014888 0.002913
0.394367 0.014888 0.002913
0.492663 0.014888 0.002913
0.594451 0.014888 0.002913
0.690990 0.014888 0.002913
0.774703 0.014888 0.002913
0.841763 0.014888 0.002913
0.892322 0.014888 0.002913
0.928932 0.014888 0.002913
0.954826 0.014888 0.002913
0.972924 0.014888 0.002913
0.985513 0.014888 0.002913
0.994260 0.014888 0.002913
1.000000 0.014888 0.002913
1.000000 0.014888 0.002913
1.000000 0.014888 0.002913
1.000000 0.014888 0.002913
1.000000 0.014888 0.002913
1.000000 0.014888 0.002913
1.000000 0.014888 0.002913
1.000000 0.014888 0.002913
0.002913 0.023433 0.002913
0.004291 0.023433 0.002913
0.006394 0.023433 0.002913
0.009668 0.023433 0.002913
0.014888 0.023433 0.002913
0.023433 0.023433 0.002913
0.037808 0.023433 0.002913
0.059502 0.023433 0.002913
0.087741 0.023433 0.002913
0.124471 0.023433 0.002913
0.171877 0.023433 0.002913
0.232055 0.023433 0.002913
0.306362 0.023433 0.002913
0.394367 0.023433 0.002913
0.492663 0.023433 0.002913
0.594451 0.023433 0.002913
0.690990 0.023433 0.002913
0.774703 0.023433 0.002913
0.841763 0.023433 0.002913
0.892322 0.023433 0.002913
0.928932 0.023433 0.002913
0.954826 0.023433 0.002913
0.972924 0.023433 0.002913
0.985513 0.023433 0.002913
0.994260 0.023433 0.002913
1.000000 0.023433 0.002913
1.000000 0.023433 0.002913
1.000000 0.023433 0.002913
1.000000 0.023433 0.002913
1.000000 0.023433 0.002913
1.000000 0.023433 0.002913
1.000000 0.023433 0.002913
1.000000 0.023433 0.002913
0.002913 0.037808 0.002913
0.004291 0.037808 0.002913
0.006394 0.037808 0.002913
0.009668 0.037808 0.002913
0.014888 0.037808 0.002913
0.023433 0.037808 0.002913
0.037808 0.037808 0.002913
0.059502 0.037808 0.002913
0.087741 0.037808 0.002913
0.124471 0.037808 0.002913
0.171877 0.037808 0.002913
0.232055 0.037808 0.002913
0.306362 0.037808 0.002913
0.394367 0.037808 0.002913
0.492663 0.037808 0.002913
0.594451 0.037808 0.002913
0.690990 0.037808 0.002913
0.774703 0.037808 0.002913
0.841763 0.037808 0.002913
0.892322 0.037808 0.002913
0.928932 0.037808 0.002913
0.954826 0.037808 0.002913
0.972924 0.037808 0.002913
0.985513 0.037808 0.002913
0.994260 0.037808 0.002913
1.000000 0.037808 0.002913
1.000000 0.037808 0.002913
1.000000 0.037808 0.002913
1.000000 0.037808 0.002913
1.000000 0.037808 0.002913
1.000000 0.037808 0.002913
1.000000 0.037808 0.002913
1.000000 0.037808 0.002913
0.002913 0.059502 0.002913
0.004291 0.059502 0.002913
0.006394 0.059502 0.002913
0.009668 0.059502 0.002913
0.014888 0.059502 0.002913
0.023433 0.059502 0.002913
0.037808 0.059502 0.002913
0.059502 0.059502 0.002913
0.087741 0.059502 0.002913
0.124471 0.059502 0.002913
0.171877 0.059502 0.002913
0.232055 0.059502 0.002913
0.306362 0.059502 0.002913
0.394367 0.059502 0.002913
0.492663 0.059502 0.002913
0.594451 0.059502 0.002913
0.690990 0.059502 0.002913
0.774703 0.059502 0.002913
0.841763 0.059502 0.002913
0.892322 0.059502 0.002913
0.928932 0.059502 0.002913
0.954826 0.059502 0.002913
0.972924 0.059502 0.002913
0.985513 0.059502 0.002913
0.994260 0.059502 0.002913
1.000000 0.059502 0.002913
1.000000 0.059502 0.002913
1.000000 0.059502 0.002913
1.000000 0.059502 0.002913
1.000000 0.059502 0.002913
1.000000 0.059502 0.002913
1.000000 0.059502 0.002913
1.000000 0.059502 0.002913
0.002913 0.087741 0.002913
0.004291 0.087741 0.002913
0.006394 0.087741 0.002913
0.009668 0.087741 0.002913
0.014888 0.087741 0.002913
0.023433 0.087741 0.002913
0.037808 0.087741 0.002913
0.059502 0.087741 0.002913
0.087741 0.087741 0.002913
0.124471 0.087741 0.002913
0.171877 0.087741 0.002913
0.232055 0.087741 0.002913
0.306362 0.087741 0.002913
0.394367 0.087741 0.002913
0.492663 0.087741 0.002913
0.594451 0.087741 0.002913
0.690990 0.087741 0.002913
0.774703 0.087741 0.002913
0.841763 0.087741 0.002913
0.892322 0.087741 0.002913
0.928932 0.087741 0.002913
0.954826 0.087741 0.002913
0.972924 0.087741 0.002913
0.985513 0.087741 0.002913
0.994260 0.087741 0.002913
1.000000 0.087741 0.002913
1.000000 0.087741 0.002913
1.000000 0.087741 0.002913
1.000000 0.087741 0.002913
1.000000 0.087741 0.002913
1.000000 0.087741 0.002913
1.000000 0.087741 0.002913
1.000000 0.087741 0.002913
0.002913 0.124471 0.002913
0.004291 0.124471 0.002913
0.006394 0.124471 0.002913
0.009668 0.124471 0.002913
0.014888 0.124471 0.002913
0.023433 0.124471 0.002913
0.037808 0.124471 0.002913
0.059502 0.124471 0.002913
0.087741 0.124471 0.002913
0.124471 0.124471 0.002913
0.171877 0.124471 0.002913
0.232055 0.124471 0.002913
0.306362 0.124471 0.002913
0.394367 0.124471 0.002913
0.492663 0.124471 0.002913
0.594451 0.124471 0.002913
0.690990 0.124471 0.002913
0.774703 0.124471 0.002913
0.841763 0.124471 0.002913
0.892322 0.124471 0.002913
0.928932 0.124471 0.002913
0.954826 0.124471 0.002913
0.972924 0.124471 0.002913
0.985513 0.124471 0.002913
0.994260 0.124471 0.002913
1.000000 0.124471 0.002913
1.000000 0.124471 0.002913
1.000000 0.124471 0.002913
1.000000 0.124471 0.002913
1.000000 0.124471 0.002913
1.000000 0.124471 0.002913
1.000000 0.124471 0.002913
1.000000 0.124471 0.002913
0.002913 0.171877 0.002913
0.004291 0.171877 0.002913
0.006394 0.171877 0.002913
0.009668 0.171877 0.002913
0.014888 0.171877 0.002913
0.023433 0.171877 0.002913
0.037808 0.171877 0.002913
0.059502 0.171877 0.002913
0.087741 0.171877 0.002913
0.124471 0.171877 0.002913
0.171877 0.171877 0.002913
0.232055 0.171877 0.002913
0.306362 0.171877 0.002913
0.394367 0.171877 0.002913
0.492663 0.171877 0.002913
0.594451 0.171877 0.002913
0.690990 0.171877 0.002913
0.774703 0.171877 0.002913
0.841763 0.171877 0.002913
0.892322 0.171877 0.002913
0.928932 0.171877 0.002913
0.954826 0.171877 0.002913
0.972924 0.171877 0.002913
0.985513 0.171877 0.002913
0.994260 0.171877 0.002913
1.000000 0.171877 0.002913
1.000000 0.171877 0.002913
1.000000 0.171877 0.002913
1.000000 0.171877 0.002913
1.000000 0.171877 0.002913
1.000000 0.171877 0.002913
1.000000 0.171877 0.002913
1.000000 0.171877 0.002913
0.002913 0.232055 0.002913
0.004291 0.232055 0.002913
0.006394 0.232055 0.002913
0.009668 0.232055 0.002913
0.014888 0.232055 0.002913
0.023433 0.232055 0.002913
0.037808 0.232055 0.002913
0.059502 0.232055 0.002913
0.087741 0.232055 0.002913
0.124471 0.232055 0.002913
0.171877 0.232055 0.002913
0.232055 0.232055 0.002913
0.306362 0.232055 0.002913
0.394367 0.232055 0.002913
0.492663 0.232055 0.002913
0.594451 0.232055 0.002913
0.690990 0.232055 0.002913
0.774703 0.232055 0.002913
0.841763 0.232055 0.002913
0.892322 0.232055 0.002913
0.928932 0.232055 0.002913
0.954826 0.232055 0.002913
0.972924 0.232055 0.002913
0.985513 0.232055 0.002913
0.994260 0.232055 0.002913
1.000000 0.232055 0.002913
1.000000 0.232055 0.002913
1.000000 0.232055 0.002913
1.000000 0.232055 0.002913
1.000000 0.232055 0.002913
1.000000 0.232055 0.002913
1.000000 0.232055 0.002913
1.000000 0.232055 0.002913
0.002913 0.306362 0.002913
0.004291 0.306362 0.002913
0.006394 0.306362 0.002913
0.009668 0.306362 0.002913
0.014888 0.306362 0.002913
0.023433 0.306362 0.002913
0.037808 0.306362 0.002913
0.059502 0.306362 0.002913
0.087741 0.306362 0.002913
0.124471 0.306362 0.002913
0.171877 0.306362 0.002913
0.232055 0.306362 0.002913
0.306362 0.306362 0.002913
0.394367 0.306362 0.002913
0.492663 0.306362 0.002913
0.594451 0.306362 0.002913
0.690990 0.306362 0.002913
0.774703 0.306362 0.002913
0.841763 0.306362 0.002913
0.892322 0.306362 0.002913
0.928932 0.306362 0.002913
0.954826 0.306362 0.002913
0.972924 0.306362 0.002913
0.985513 0.306362 0.002913
0.994260 0.306362 0.002913
1.000000 0.306362 0.002913
1.000000 0.306362 0.002913
1.000000 0.306362 0.002913
1.000000 0.306362 0.002913
1.000000 0.306362 0.002913
1.000000 0.306362 0.002913
1.000000 0.306362 0.002913
1.000000 0.306362 0.002913
0.002913 0.394367 0.002913
0.004291 0.394367 0.002913
0.006394 0.394367 0.002913
0.009668 0.394367 0.002913
0.014888 0.394367 0.002913
0.023433 0.394367 0.002913
0.037808 0.394367 0.002913
0.059502 0.394367 0.002913
0.087741 0.394367 0.002913
0.124471 0.394367 0.002913
0.171877 0.394367 0.002913
0.232055 0.394367 0.002913
0.306362 0.394367 0.002913
0.394367 0.394367 0.002913
0.492663 0.394367 0.002913
0.594451 0.394367 0.002913
0.690990 0.394367 0.002913
0.774703 0.394367 0.002913
0.841763 0.394367 0.002913
0.892322 0.394367 0.002913
0.928932 0.394367 0.002913
0.954826 0.394367 0.002913
0.972924 0.394367 0.002913
0.985513 0.394367 0.002913
0.994260 0.394367 0.002913
1.000000 0.394367 0.002913
1.000000 0.394367 0.002913
1.000000 0.394367 0.002913
1.000000 0.394367 0.002913
1.000000 0.394367 0.002913
1.000000 0.394367 0.002913
1.000000 0.394367 0.002913
1.000000 0.394367 0.002913
0.002913 0.492663 0.002913
0.004291 0.492663 0.002913
0.006394 0.492663 0.002913
0.009668 0.492663 0.002913
0.014888 0.492663 0.002913
0.023433 0.492663 0.002913
0.037808 0.492663 0.002913
0.059502 0.492663 0.002913
0.087741 0.492663 0.002913
0.124471 0.492663 0.002913
0.171877 0.492663 0.002913
0.232055 0.492663 0.002913
0.306362 0.492663 0.002913
0.394367 0.492663 0.002913
0.492663 0.492663 0.002913
0.594451 0.492663 0.002913
0.690990 0.492663 0.002913
0.774703 0.492663 0.002913
0.841763 0.492663 0.002913
0.892322 0.492663 0.002913
0.928932 0.492663 0.002913
0.954826 0.492663 0.002913
0.972924 0.492663 0.002913
0.985513 0.492663 0.002913
0.994260 0.492663 0.002913
1.000000 0.492663 0.002913
1.000000 0.492663 0.002913
1.000000 0.492663 0.002913
1.000000 0.492663 0.002913
1.000000 0.492663 0.002913
1.000000 0.492663 0.002913
1.000000 0.492663 0.002913
1.000000 0.492663 0.002913
0.002913 0.594451 0.002913
0.004291 0.594451 0.002913
0.006394 0.594451 0.002913
0.009668 0.594451 0.002913
0.014888 0.594451 0.002913
0.023433 0.594451 0.002913
0.037808 0.594451 0.002913
0.059502 0.594451 0.002913
0.087741 0.594451 0.002913
0.124471 0.594451 0.002913
0.171877 0.594451 0.002913
0.232055 0.594451 0.002913
0.306362 0.594451 0.002913
0.394367 0.594451 0.002913
0.492663 0.594451 0.002913
0.594451 0.594451 0.002913
0.690990 0.594451 0.002913
0.774703 0.594451 0.002913
0.841763 0.594451 0.002913
0.892322 0.594451 0.002913
0.928932 0.594451 0.002913
0.954826 0.594451 0.002913
0.972924 0.594451 0.002913
0.985513 0.594451 0.002913
0.994260 0.594451 0.002913
1.000000 0.594451 0.002913
1.000000 0.594451 0.002913
1.000000 0.594451 0.002913
1.000000 0.594451 0.002913
1.000000 0.594451 0.002913
1.000000 0.594451 0.002913
1.000000 0.594451 0.002913
1.000000 0.594451 0.002913
0.002913 0.690990 0.002913
0.004291 0.690990 0.002913
0.006394 0.690990 0.002913
0.009668 0.690990 0.002913
0.014888 0.690990 0.002913
0.023433 0.690990 0.002913
0.037808 0.690990 0.002913
0.059502 0.690990 0.002913
0.087741 0.690990 0.002913
0.124471 0.690990 0.002913
0.171877 0.690990 0.002913
0.232055 0.690990 0.002913
0.306362 0.690990 0.002913
0.394367 0.690990 0.002913
0.492663 0.690990 0.002913
0.594451 0.690990 0.002913
0.690990 0.690990 0.002913
0.774703 0.690990 0.002913
0.841763 0.690990 0.002913
0.892322 0.690990 0.002913
0.928932 0.690990 0.002913
0.954826 0.690990 0.002913
0.972924 0.690990 0.002913
0.985513 0.690990 0.002913
0.994260 0.690990 0.002913
1.000000 0.690990 0.002913
1.000000 0.690990 0.002913
1.000000 0.690990 0.002913
1.000000 0.690990 0.002913
1.000000 0.690990 0.002913
1.000000 0.690990 0.002913
1.000000 0.690990 0.002913
1.000000 0.690990 0.002913
0.002913 0.774703 0.002913
0.004291 0.774703 0.002913
0.006394 0.774703 0.002913
0.009668 0.774703 0.002913
0.014888 0.774703 0.002913
0.023433 0.774703 0.002913
0.037808 0.774703 0.002913
0.059502 0.774703 0.002913
0.087741 0.774703 0.002913
0.124471 0.774703 0.002913
0.171877 0.774703 0.002913
0.232055 0.774703 0.002913
0.306362 0.774703 0.002913
0.394367 0.774703 0.002913
0.492663 0.774703 0.002913
0.594451 0.774703 0.002913
0.690990 0.774703 0.002913
0.774703 0.774703 0.002913
0.841763 0.774703 0.002913
0.892322 0.774703 0.002913
0.928932 0.774703 0.002913
0.954826 0.774703 0.002913
0.972924 0.774703 0.002913
0.985513 0.774703 0.002913
0.994260 0.774703 0.002913
1.000000 0.774703 0.002913
1.000000 0.774703 0.002913
1.000000 0.774703 0.002913
1.000000 0.774703 0.002913
1.000000 0.774703 0.002913
1.000000 0.774703 0.002913
1.000000 0.774703 0.002913
1.000000 0.774703 0.002913
0.002913 0.841763 0.002913
0.004291 0.841763 0.002913
0.006394 0.841763 0.002913
0.009668 0.841763 0.002913
0.014888 0.841763 0.002913
0.023433 0.841763 0.002913
0.037808 0.841763 0.002913
0.059502 0.841763 0.002913
0.087741 0.841763 0.002913
0.124471 0.841763 0.002913
0.171877 0.841763 0.002913
0.232055 0.841763 0.002913
0.306362 0.841763 0.002913
0.394367 0.841763 0.002913
0.492663 0.841763 0.002913
0.594451 0.841763 0.002913
0.690990 0.841763 0.002913
0.774703 0.841763 0.002913
0.841763 0.841763 0.002913
0.892322 0.841763 0.002913
0.928932 0.841763 0.002913
0.954826 0.841763 0.002913
0.972924 0.841763 0.002913
0.985513 0.841763 0.002913
0.994260 0.841763 0.002913
1.000000 0.841763 0.002913
1.000000 0.841763 0.002913
1.000000 0.841763 0.002913
1.000000 0.841763 0.002913
1.000000 0.841763 0.002913
1.000000 0.841763 0.002913
1.000000 0.841763 0.002913
1.000000 0.841763 0.002913
0.002913 0.892322 0.002913
0.004291 0.892322 0.002913
0.006394 0.892322 0.002913
0.009668 0.892322 0.002913
0.014888 0.892322 0.002913
0.023433 0.892322 0.002913
0.037808 0.892322 0.002913
0.059502 0.892322 0.002913
0.087741 0.892322 0.002913
0.124471 0.892322 0.002913
0.171877 0.892322 0.002913
0.232055 0.892322 0.002913
0.306362 0.892322 0.002913
0.394367 0.892322 0.002913
0.492663 0.892322 0.002913
0.594451 0.892322 0.002913
0.690990 0.892322 0.002913
0.774703 0.892322 0.002913
0.841763 0.892322 0.002913
0.892322 0.892322 0.002913
0.928932 0.892322 0.002913
0.954826 0.892322 0.002913
0.972924 0.892322 0.002913
0.985513 0.892322 0.002913
0.994260 0.892322 0.002913
1.000000 0.892322 0.002913
1.000000 0.892322 0.002913
1.000000 0.892322 0.002913
1.000000 0.892322 0.002913
1.000000 0.892322 0.002913
1.000000 0.892322 0.002913
1.000000 0.892322 0.002913
1.000000 0.892322 0.002913
0.002913 0.928932 0.002913
0.004291 0.928932 0.002913
0.006394 0.928932 0.002913
0.009668 0.928932 0.002913
0.014888 0.928932 0.002913
0.023433 0.928932 0.002913
0.037808 0.928932 0.002913
0.059502 0.928932 0.002913
0.087741 0.928932 0.002913
0.124471 0.928932 0.002913
0.171877 0.928932 0.002913
0.232055 0.928932 0.002913
0.306362 0.928932 0.002913
0.394367 0.928932 0.002913
0.492663 0.928932 0.002913
0.594451 0.928932 0.002913
0.690990 0.928932 0.002913
0.774703 0.928932 0.002913
0.841763 0.928932 0.002913
0.892322 0.928932 0.002913
0.928932 0.928932 0.002913
0.954826 0.928932 0.002913
0.972924 0.928932 0.002913
0.985513 0.928932 0.002913
0.994260 0.928932 0.002913
1.000000 0.928932 0.002913
1.000000 0.928932 0.002913
1.000000 0.928932 0.002913
1.000000 0.928932 0.002913
1.000000 0.928932 0.002913
1.000000 0.928932 0.002913
1.000000 0.928932 0.002913
1.000000 0.928932 0.002913
0.002913 0.954826 0.002913
0.004291 0.954826 0.002913
0.006394 0.954826 0.002913
0.009668 0.954826 0.002913
0.014888 0.954826 0.002913
0.023433 0.954826 0.002913
0.037808 0.954826 0.002913
0.059502 0.954826 0.002913
0.087741 0.954826 0.002913
0.124471 0.954826 0.002913
0.171877 0.954826 0.002913
0.232055 0.954826 0.002913
0.306362 0.954826 0.002913
0.394367 0.954826 0.002913
0.492663 0.954826 0.002913
0.594451 0.954826 0.002913
0.690990 0.954826 0.002913
0.774703 0.954826 0.002913
0.841763 0.954826 0.002913
0.892322 0.954826 0.002913
0.928932 0.954826 0.002913
0.954826 0.954826 0.002913
0.972924 0.954826 0.002913
0.985513 0.954826 0.002913
0.994260 0.954826 0.002913
1.000000 0.954826 0.002913
1.000000 0.954826 0.002913
1.000000 0.954826 0.002913
1.000000 0.954826 0.002913
1.000000 0.954826 0.002913
1.000000 0.954826 0.002913
1.000000 0.954826 0.002913
1.000000 0.954826 0.002913
0.002913 0.972924 0.002913
0.004291 0.972924 0.002913
0.006394 0.972924 0.002913
0.009668 0.972924 0.002913
0.014888 0.972924 0.002913
0.023433 0.972924 0.002913
0.037808 0.972924 0.002913
0.059502 0.972924 0.002913
0.087741 0.972924 0.002913
0.124471 0.972924 0.002913
0.171877 0.972924 0.002913
0.232055 0.972924 0.002913
0.306362 0.972924 0.002913
0.394367 0.972924 0.002913
0.492663 0.972924 0.002913
0.594451 0.972924 0.002913
0.690990 0.972924 0.002913
0.774703 0.972924 0.002913
0.841763 0.972924 0.002913
0.892322 0.972924 0.002913
0.928932 0.972924 0.002913
0.954826 0.972924 0.002913
0.972924 0.972924 0.002913
0.985513 0.972924 0.002913
0.994260 0.972924 0.002913
1.000000 0.972924 0.002913
1.000000 0.972924 0.002913
1.000000 0.972924 0.002913
1.000000 0.972924 0.002913
1.000000 0.972924 0.002913
1.000000 0.972924 0.002913
1.000000 0.972924 0.002913
1.000000 0.972924 0.002913
0.002913 0.985513 0.002913
0.004291 0.985513 0.002913
0.006394 0.985513 0.002913
0.009668 0.985513 0.002913
0.014888 0.985513 0.002913
0.023433 0.985513 0.002913
0.037808 0.985513 0.002913
0.059502 0.985513 0.002913
0.087741 0.985513 0.002913
0.124471 0.985513 0.002913
0.171877 0.985513 0.002913
0.232055 0.985513 0.002913
0.306362 0.985513 0.002913
0.394367 0.985513 0.002913
0.492663 0.985513 0.002913
0.594451 0.985513 0.002913
0.690990 0.985513 0.002913
0.774703 0.985513 0.002913
0.841763 0.985513 0.002913
0.892322 0.985513 0.002913
0.928932 0.985513 0.002913
0.954826 0.985513 0.002913
0.972924 0.985513 0.002913
0.985513 0.985513 0.002913
0.994260 0.985513 0.002913
1.000000 0.985513 0.002913
1.000000 0.985513 0.002913
1.000000 0.985513 0.002913
1.000000 0.985513 0.002913
1.000000 0.985513 0.002913
1.000000 0.985513 0.002913
1.000000 0.985513 0.002913
1.000000 0.985513 0.002913
0.002913 0.994260 0.002913
0.004291 0.994260 0.002913
0.006394 0.994260 0.002913
0.009668 0.994260 0.002913
0.014888 0.994260 0.002913
0.023433 0.994260 0.002913
0.037808 0.994260 0.002913
0.059502 0.994260 0.002913
0.087741 0.994260 0.002913
0.124471 0.994260 0.002913
0.171877 0.994260 0.002913
0.232055 0.994260 0.002913
0.306362 0.994260 0.002913
0.394367 0.994260 0.002913
0.492663 0.994260 0.002913
0.594451 0.994260 0.002913
0.690990 0.994260 0.002913
0.774703 0.994260 0.002913
0.841763 0.994260 0.002913
0.892322 0.994260 0.002913
0.928932 0.994260 0.002913
0.954826 0.994260 0.002913
0.972924 0.994260 0.002913
0.985513 0.994260 0.002913
0.994260 0.994260 0.002913
1.000000 0.994260 0.002913
1.000000 0.994260 0.002913
1.000000 0.994260 0.002913
1.000000 0.994260 0.002913
1.000000 0.994260 0.002913
1.000000 0.994260 0.002913
1.000000 0.994260 0.002913
1.000000 0.994260 0.002913
0.002913 1.000000 0.002913
0.004291 1.000000 0.002913
0.006394 1.000000 0.002913
0.009668 1.000000 0.002913
0.014888 1.000000 0.002913
0.023433 1.000000 0.002913
0.037808 1.000000 0.002913
0.059502 1.000000 0.002913
0.087741 1.000000 0.002913
0.124471 1.000000 0.002913
0.171877 1.000000 0.002913
0.232055 1.000000 0.002913
0.306362 1.000000 0.002913
0.394367 1.000000 0.002913
0.492663 1.000000 0.002913
0.594451 1.000000 0.002913
0.690990 1.000000 0.002913
0.774703 1.000000 0.002913
0.841763 1.000000 0.002913
0.892322 1.000000 0.002913
0.928932 1.000000 0.002913
0.954826 1.000000 0.002913
0.972924 1.000000 0.002913
0.985513 1.000000 0.002913
0.994260 1.000000 0.002913
1.000000 1.000000 0.002913
1.000000 1.000000 0.002913
1.000000 1.000000 0.002913
1.000000 1.000000 0.002913
1.000000 1.000000 0.002913
1.000000 1.000000 0.002913
1.000000 1.000000 0.002913
1.000000 1.000000 0.002913
0.002913 1.000000 0.002913
0.004291 1.000000 0.002913
0.006394 1.000000 0.002913
0.009668 1.000000 0.002913
0.014888 1.000000 0.002913
0.023433 1.000000 0.002913
0.037808 1.000000 0.002913
0.059502 1.000000 0.002913
0.087741 1.000000 0.002913
0.124471 1.000000 0.002913
0.171877 1.000000 0.002913
0.232055 1.000000 0.002913
0.306362 1.000000 0.002913
0.394367 1.000000 0.002913
0.492663 1.000000 0.002913
0.594451 1.000000 0.002913
0.690990 1.000000 0.002913
0.774703 1.000000 0.002913
0.841763 1.000000 0.002913
0.892322 1.000000 0.002913
0.928932 1.000000 0.002913
0.954826 1.000000 0.002913
0.972924 1.000000 0.002913
0.985513 1.000000 0.002913
0.994260 1.000000 0.002913
1.000000 1.000000 0.002913
1.000000 1.000000 0.002913
1.000000 1.000000 0.002913
1.000000 1.000000 0.002913
