ep_main/data/luts/00_aces.cube
TITLE "00_aces"
LUT_3D_SIZE 9
0.002913 0.002913 0.002913
0.014888 0.002913 0.002913
0.087741 0.002913 0.002913
0.306362 0.002913 0.002913
0.690990 0.002913 0.002913
0.928932 0.002913 0.002913
0.994260 0.002913 0.002913
1.000000 0.002913 0.002913
1.000000 0.002913 0.002913
0.002913 0.014888 0.002913
0.014888 0.014888 0.002913
0.087741 0.014888 0.002913
0.306362 0.014888 0.002913
0.690990 0.014888 0.002913
0.928932 0.014888 0.002913
0.994260 0.014888 0.002913
1.000000 0.014888 0.002913
1.000000 0.014888 0.002913
0.002913 0.087741 0.002913
0.014888 0.087741 0.002913
0.087741 0.087741 0.002913
0.306362 0.087741 0.002913
0.690990 0.087741 0.002913
0.928932 0.087741 0.002913
0.994260 0.087741 0.002913
1.000000 0.087741 0.002913
1.000000 0.087741 0.002913
0.002913 0.306362 0.002913
0.014888 0.306362 0.002913
0.087741 0.306362 0.002913
0.306362 0.306362 0.002913
0.690990 0.306362 0.002913
0.928932 0.306362 0.002913
0.994260 0.306362 0.002913
1.000000 0.306362 0.002913
1.000000 0.306362 0.002913
0.002913 0.690990 0.002913
0.014888 0.690990 0.002913
0.087741 0.690990 0.002913
0.306362 0.690990 0.002913
0.690990 0.690990 0.002913
0.928932 0.690990 0.002913
0.994260 0.690990 0.002913
1.000000 0.690990 0.002913
1.000000 0.690990 0.002913
0.002913 0.928932 0.002913
0.014888 0.928932 0.002913
0.087741 0.928932 0.002913
0.306362 0.928932 0.002913
0.690990 0.928932 0.002913
0.928932 0.928932 0.002913
0.994260 0.928932 0.002913
1.000000 0.928932 0.002913
1.000000 0.928932 0.002913
0.002913 0.994260 0.002913
0.014888 0.994260 0.002913
0.087741 0.994260 0.002913
0.306362 0.994260 0.002913
0.690990 0.994260 0.002913
0.928932 0.994260 0.002913
0.994260 0.994260 0.002913
1.000000 0.994260 0.002913
1.000000 0.994260 0.002913
0.002913 1.000000 0.002913
0.014888 1.000000 0.002913
0.087741 1.000000 0.002913
0.306362 1.000000 0.002913
0.690990 1.000000 0.002913
0.928932 1.000000 0.002913
0.994260 1.000000 0.002913
1.000000 1.000000 0.002913
1.000000 1.000000 0.002913
0.002913 1.000000 0.002913
0.014888 1.000000 0.002913
0.087741 1.000000 0.002913
0.306362 1.000000 0.002913
0.690990 1.000000 0.002913
0.928932 1.000000 0.002913
0.994260 1.000000 0.002913
1.000000 1.000000 0.002913
1.000000 1.000000 0.002913
0.002913 0.002913 0.014888
0.014888 0.002913 0.014888
0.087741 0.002913 0.014888
0.306362 0.002913 0.014888
0.690990 0.002913 0.014888
0.928932 0.002913 0.014888
0.994260 0.002913 0.014888
1.000000 0.002913 0.014888
1.000000 0.002913 0.014888
0.002913 0.014888 0.014888
0.014888 0.014888 0.014888
0.087741 0.014888 0.014888
0.306362 0.014888 0.014888
0.690990 0.014888 0.014888
0.928932 0.014888 0.014888
0.994260 0.014888 0.014888
1.000000 0.014888 0.014888
1.000000 0.014888 0.014888
0.002913 0.087741 0.014888
0.014888 0.087741 0.014888
0.087741 0.087741 0.014888
0.306362 0.087741 0.014888
0.690990 0.087741 0.014888
0.928932 0.087741 0.014888
0.994260 0.087741 0.014888
1.000000 0.087741 0.014888
1.000000 0.087741 0.014888
0.002913 0.306362 0.014888
0.014888 0.306362 0.014888
0.087741 0.306362 0.014888
0.306362 0.306362 0.014888
0.690990 0.306362 0.014888
0.928932 0.306362 0.014888
0.994260 0.306362 0.014888
1.000000 0.306362 0.014888
1.000000 0.306362 0.014888
0.002913 0.690990 0.014888
0.014888 0.690990 0.014888
0.087741 0.690990 0.014888
0.306362 0.690990 0.014888
0.690990 0.690990 0.014888
0.928932 0.690990 0.014888
0.994260 0.690990 0.014888
1.000000 0.690990 0.014888
1.000000 0.690990 0.014888
0.002913 0.928932 0.014888
0.014888 0.928932 0.014888
0.087741 0.928932 0.014888
0.306362 0.928932 0.014888
0.690990 0.928932 0.014888
0.928932 0.928932 0.014888
0.994260 0.928932 0.014888
1.000000 0.928932 0.014888
1.000000 0.928932 0.014888
0.002913 0.994260 0.014888
0.014888 0.994260 0.014888
0.087741 0.994260 0.014888
0.306362 0.994260 0.014888
0.690990 0.994260 0.014888
0.928932 0.994260 0.014888
0.994260 0.994260 0.014888
1.000000 0.994260 0.014888
1.000000 0.994260 0.014888
0.002913 1.000000 0.014888
0.014888 1.000000 0.014888
0.087741 1.000000 0.014888
0.306362 1.000000 0.014888
0.690990 1.000000 0.014888
0.928932 1.000000 0.014888
0.994260 1.000000 0.014888
1.000000 1.000000 0.014888
1.000000 1.000000 0.014888
0.002913 1.000000 0.014888
0.014888 1.000000 0.014888
0.087741 1.000000 0.014888
0.306362 1.000000 0.014888
0.690990 1.000000 0.014888
0.928932 1.000000 0.014888
0.994260 1.000000 0.014888
1.000000 1.000000 0.014888
1.000000 1.000000 0.014888
0.002913 0.002913 0.087741
0.014888 0.002913 0.087741
0.087741 0.002913 0.087741
0.306362 0.002913 0.087741
0.690990 0.002913 0.087741
0.928932 0.002913 0.087741
0.994260 0.002913 0.087741
1.000000 0.002913 0.087741
1.000000 0.002913 0.087741
0.002913 0.014888 0.087741
0.014888 0.014888 0.087741
0.087741 0.014888 0.087741
0.306362 0.014888 0.087741
0.690990 0.014888 0.087741
0.928932 0.014888 0.087741
0.994260 0.014888 0.087741
1.000000 0.014888 0.087741
1.000000 0.014888 0.087741
0.002913 0.087741 0.087741
0.014888 0.087741 0.087741
0.087741 0.087741 0.087741
0.306362 0.087741 0.087741
0.690990 0.087741 0.087741
0.928932 0.087741 0.087741
0.994260 0.087741 0.087741
1.000000 0.087741 0.087741
1.000000 0.087741 0.087741
0.002913 0.306362 0.087741
0.014888 0.306362 0.087741
0.087741 0.306362 0.087741
0.306362 0.306362 0.087741
0.690990 0.306362 0.087741
0.928932 0.306362 0.087741
0.994260 0.306362 0.087741
1.000000 0.306362 0.087741
1.000000 0.306362 0.087741
0.002913 0.690990 0.087741
0.014888 0.690990 0.087741
0.087741 0.690990 0.087741
0.306362 0.690990 0.087741
0.690990 0.690990 0.087741
0.928932 0.690990 0.087741
0.994260 0.690990 0.087741
1.000000 0.690990 0.087741
1.000000 0.690990 0.087741
0.002913 0.928932 0.087741
0.014888 0.928932 0.087741
0.087741 0.928932 0.087741
0.306362 0.928932 0.087741
0.690990 0.928932 0.087741
0.928932 0.928932 0.087741
0.994260 0.928932 0.087741
1.000000 0.928932 0.087741
1.000000 0.928932 0.087741
0.002913 0.994260 0.087741
0.014888 0.994260 0.087741
0.087741 0.994260 0.087741
0.306362 0.994260 0.087741
0.690990 0.994260 0.087741
0.928932 0.994260 0.087741
0.994260 0.994260 0.087741
1.000000 0.994260 0.087741
1.000000 0.994260 0.087741
0.002913 1.000000 0.087741
0.014888 1.000000 0.087741
0.087741 1.000000 0.087741
0.306362 1.000000 0.087741
0.690990 1.000000 0.087741
0.928932 1.000000 0.087741
0.994260 1.000000 0.087741
1.000000 1.000000 0.087741
1.000000 1.000000 0.087741
0.002913 1.000000 0.087741
0.014888 1.000000 0.087741
0.087741 1.000000 0.087741
0.306362 1.000000 0.087741
0.690990 1.000000 0.087741
0.928932 1.000000 0.087741
0.994260 1.000000 0.087741
1.000000 1.000000 0.087741
1.000000 1.000000 0.087741
0.002913 0.002913 0.306362
0.014888 0.002913 0.306362
0.087741 0.002913 0.306362
0.306362 0.002913 0.306362
0.690990 0.002913 0.306362
0.928932 0.002913 0.306362
0.994260 0.002913 0.306362
1.000000 0.002913 0.306362
1.000000 0.002913 0.306362
0.002913 0.014888 0.306362
0.014888 0.014888 0.306362
0.087741 0.014888 0.306362
0.306362 0.014888 0.306362
0.690990 0.014888 0.306362
0.928932 0.014888 0.306362
0.994260 0.014888 0.306362
1.000000 0.014888 0.306362
1.000000 0.014888 0.306362
0.002913 0.087741 0.306362
0.014888 0.087741 0.306362
0.087741 0.087741 0.306362
0.306362 0.087741 0.306362
0.690990 0.087741 0.306362
0.928932 0.087741 0.306362
0.994260 0.087741 0.306362
1.000000 0.087741 0.306362
1.000000 0.087741 0.306362
0.002913 0.306362 0.306362
0.014888 0.306362 0.306362
0.087741 0.306362 0.306362
0.306362 0.306362 0.306362
0.690990 0.306362 0.306362
0.928932 0.306362 0.306362
0.994260 0.306362 0.306362
1.000000 0.306362 0.306362
1.000000 0.306362 0.306362
0.002913 0.690990 0.306362
0.014888 0.690990 0.306362
0.087741 0.690990 0.306362
0.306362 0.690990 0.306362
0.690990 0.690990 0.306362
0.928932 0.690990 0.306362
0.994260 0.690990 0.306362
1.000000 0.690990 0.306362
1.000000 0.690990 0.306362
0.002913 0.928932 0.306362
0.014888 0.928932 0.306362
0.087741 0.928932 0.306362
0.306362 0.928932 0.306362
0.690990 0.928932 0.306362
0.928932 0.928932 0.306362
0.994260 0.928932 0.306362
1.000000 0.928932 0.306362
1.000000 0.928932 0.306362
0.002913 0.994260 0.306362
0.014888 0.994260 0.306362
0.087741 0.994260 0.306362
0.306362 0.994260 0.306362
0.690990 0.994260 0.306362
0.928932 0.994260 0.306362
0.994260 0.994260 0.306362
1.000000 0.994260 0.306362
1.000000 0.994260 0.306362
0.002913 1.000000 0.306362
0.014888 1.000000 0.306362
0.087741 1.000000 0.306362
0.306362 1.000000 0.306362
0.690990 1.000000 0.306362
0.928932 1.000000 0.306362
0.994260 1.000000 0.306362
1.000000 1.000000 0.306362
1.000000 1.000000 0.306362
0.002913 1.000000 0.306362
0.014888 1.000000 0.306362
0.087741 1.000000 0.306362
0.306362 1.000000 0.306362
0.690990 1.000000 0.306362
0.928932 1.000000 0.306362
0.994260 1.000000 0.306362
1.000000 1.000000 0.306362
1.000000 1.000000 0.306362
0.002913 0.002913 0.690990
0.014888 0.002913 0.690990
0.087741 0.002913 0.690990
0.306362 0.002913 0.690990
0.690990 0.002913 0.690990
0.928932 0.002913 0.690990
0.994260 0.002913 0.690990
1.000000 0.002913 0.690990
1.000000 0.002913 0.690990
0.002913 0.014888 0.690990
0.014888 0.014888 0.690990
0.087741 0.014888 0.690990
0.306362 0.014888 0.690990
0.690990 0.014888 0.690990
0.928932 0.014888 0.690990
0.994260 0.014888 0.690990
1.000000 0.014888 0.690990
1.000000 0.014888 0.690990
0.002913 0.087741 0.690990
0.014888 0.087741 0.690990
0.087741 0.087741 0.690990
0.306362 0.087741 0.690990
0.690990 0.087741 0.690990
0.928932 0.087741 0.690990
0.994260 0.087741 0.690990
1.000000 0.087741 0.690990
1.000000 0.087741 0.690990
0.002913 0.306362 0.690990
0.014888 0.306362 0.690990
0.087741 0.306362 0.690990
0.306362 0.306362 0.690990
0.690990 0.306362 0.690990
0.928932 0.306362 0.690990
0.994260 0.306362 0.690990
1.000000 0.306362 0.690990
1.000000 0.306362 0.690990
0.002913 0.690990 0.690990
0.014888 0.690990 0.690990
0.087741 0.690990 0.690990
0.306362 0.690990 0.690990
0.690990 0.690990 0.690990
0.928932 0.690990 0.690990
0.994260 0.690990 0.690990
1.000000 0.690990 0.690990
1.000000 0.690990 0.690990
0.002913 0.928932 0.690990
0.014888 0.928932 0.690990
0.087741 0.928932 0.690990
0.306362 0.928932 0.690990
0.690990 0.928932 0.690990
0.928932 0.928932 0.690990
0.994260 0.928932 0.690990
1.000000 0.928932 0.690990
1.000000 0.928932 0.690990
0.002913 0.994260 0.690990
0.014888 0.994260 0.690990
0.087741 0.994260 0.690990
0.306362 0.994260 0.690990
0.690990 0.994260 0.690990
0.928932 0.994260 0.690990
0.994260 0.994260 0.690990
1.000000 0.994260 0.690990
1.000000 0.994260 0.690990
0.002913 1.000000 0.690990
0.014888 1.000000 0.690990
0.087741 1.000000 0.690990
0.306362 1.000000 0.690990
0.690990 1.000000 0.690990
0.928932 1.000000 0.690990
0.994260 1.000000 0.690990
1.000000 1.000000 0.690990
1.000000 1.000000 0.690990
0.002913 1.000000 0.690990
0.014888 1.000000 0.690990
0.087741 1.000000 0.690990
0.306362 1.000000 0.690990
0.690990 1.000000 0.690990
0.928932 1.000000 0.690990
0.994260 1.000000 0.690990
1.000000 1.000000 0.690990
1.000000 1.000000 0.690990
0.002913 0.002913 0.928932
0.014888 0.002913 0.928932
0.087741 0.002913 0.928932
0.306362 0.002913 0.928932
0.690990 0.002913 0.928932
0.928932 0.002913 0.928932
0.994260 0.002913 0.928932
1.000000 0.002913 0.928932
1.000000 0.002913 0.928932
0.002913 0.014888 0.928932
0.014888 0.014888 0.928932
0.087741 0.014888 0.928932
0.306362 0.014888 0.928932
0.690990 0.014888 0.928932
0.928932 0.014888 0.928932
0.994260 0.014888 0.928932
1.000000 0.014888 0.928932
1.000000 0.014888 0.928932
0.002913 0.087741 0.928932
0.014888 0.087741 0.928932
0.087741 0.087741 0.928932
0.306362 0.087741 0.928932
0.690990 0.087741 0.928932
0.928932 0.087741 0.928932
0.994260 0.087741 0.928932
1.000000 0.087741 0.928932
1.000000 0.087741 0.928932
0.002913 0.306362 0.928932
0.014888 0.306362 0.928932
0.087741 0.306362 0.928932
0.306362 0.306362 0.928932
0.690990 0.306362 0.928932
0.928932 0.306362 0.928932
0.994260 0.306362 0.928932
1.000000 0.306362 0.928932
1.000000 0.306362 0.928932
0.002913 0.690990 0.928932
0.014888 0.690990 0.928932
0.087741 0.690990 0.928932
0.306362 0.690990 0.928932
0.690990 0.690990 0.928932
0.928932 0.690990 0.928932
0.994260 0.690990 0.928932
1.000000 0.690990 0.928932
1.000000 0.690990 0.928932
0.002913 0.928932 0.928932
0.014888 0.928932 0.928932
0.087741 0.928932 0.928932
0.306362 0.928932 0.928932
0.690990 0.928932 0.928932
0.928932 0.928932 0.928932
0.994260 0.928932 0.928932
1.000000 0.928932 0.928932
1.000000 0.928932 0.928932
0.002913 0.994260 0.928932
0.014888 0.994260 0.928932
0.087741 0.994260 0.928932
0.306362 0.994260 0.928932
0.690990 0.994260 0.928932
0.928932 0.994260 0.928932
0.994260 0.994260 0.928932
1.000000 0.994260 0.928932
1.000000 0.994260 0.928932
0.002913 1.000000 0.928932
0.014888 1.000000 0.928932
0.087741 1.000000 0.928932
0.306362 1.000000 0.928932
0.690990 1.000000 0.928932
0.928932 1.000000 0.928932
0.994260 1.000000 0.928932
1.000000 1.000000 0.928932
1.000000 1.000000 0.928932
0.002913 1.000000 0.928932
0.014888 1.000000 0.928932
0.087741 1.000000 0.928932
0.306362 1.000000 0.928932
0.690990 1.000000 0.928932
0.928932 1.000000 0.928932
0.994260 1.000000 0.928932
1.000000 1.000000 0.928932
1.000000 1.000000 0.928932
0.002913 0.002913 0.994260
0.014888 0.002913 0.994260
0.087741 0.002913 0.994260
0.306362 0.002913 0.994260
0.690990 0.002913 0.994260
0.928932 0.002913 0.994260
0.994260 0.002913 0.994260
1.000000 0.002913 0.994260
1.000000 0.002913 0.994260
0.002913 0.014888 0.994260
0.014888 0.014888 0.994260
0.087741 0.014888 0.994260
0.306362 0.014888 0.994260
0.690990 0.014888 0.994260
0.928932 0.014888 0.994260
0.994260 0.014888 0.994260
1.000000 0.014888 0.994260
1.000000 0.014888 0.994260
0.002913 0.087741 0.994260
0.014888 0.087741 0.994260
0.087741 0.087741 0.994260
0.306362 0.087741 0.994260
0.690990 0.087741 0.994260
0.928932 0.087741 0.994260
0.994260 0.087741 0.994260
1.000000 0.087741 0.994260
1.000000 0.087741 0.994260
0.002913 0.306362 0.994260
0.014888 0.306362 0.994260
0.087741 0.306362 0.994260
0.306362 0.306362 0.994260
0.690990 0.306362 0.994260
0.928932 0.306362 0.994260
0.994260 0.306362 0.994260
1.000000 0.306362 0.994260
1.000000 0.306362 0.994260
0.002913 0.690990 0.994260
0.014888 0.690990 0.994260
0.087741 0.690990 0.994260
0.306362 0.690990 0.994260
0.690990 0.690990 0.994260
0.928932 0.690990 0.994260
0.994260 0.690990 0.994260
1.000000 0.690990 0.994260
1.000000 0.690990 0.994260
0.002913 0.928932 0.994260
0.014888 0.928932 0.994260
0.087741 0.928932 0.994260
0.306362 0.928932 0.994260
0.690990 0.928932 0.994260
0.928932 0.928932 0.994260
0.994260 0.928932 0.994260
1.000000 0.928932 0.994260
1.000000 0.928932 0.994260
0.002913 0.994260 0.994260
0.014888 0.994260 0.994260
0.087741 0.994260 0.994260
0.306362 0.994260 0.994260
0.690990 0.994260 0.994260
0.928932 0.994260 0.994260
0.994260 0.994260 0.994260
1.000000 0.994260 0.994260
1.000000 0.994260 0.994260
0.002913 1.000000 0.994260
0.014888 1.000000 0.994260
0.087741 1.000000 0.994260
0.306362 1.000000 0.994260
0.690990 1.000000 0.994260
0.928932 1.000000 0.994260
0.994260 1.000000 0.994260
1.000000 1.000000 0.994260
1.000000 1.000000 0.994260
0.002913 1.000000 0.994260
0.014888 1.000000 0.994260
0.087741 1.000000 0.994260
0.306362 1.000000 0.994260
0.690990 1.000000 0.994260
0.928932 1.000000 0.994260
0.994260 1.000000 0.994260
1.000000 1.000000 0.994260
1.000000 1.000000 0.994260
0.002913 0.002913 1.000000
0.014888 0.002913 1.000000
0.087741 0.002913 1.000000
0.306362 0.002913 1.000000
0.690990 0.002913 1.000000
0.928932 0.002913 1.000000
0.994260 0.002913 1.000000
1.000000 0.002913 1.000000
1.000000 0.002913 1.000000
0.002913 0.014888 1.000000
0.014888 0.014888 1.000000
0.087741 0.014888 1.000000
0.306362 0.014888 1.000000
0.690990 0.014888 1.000000
0.928932 0.014888 1.000000
0.994260 0.014888 1.000000
1.000000 0.014888 1.000000
1.000000 0.014888 1.000000
0.002913 0.087741 1.000000
0.014888 0.087741 1.000000
0.087741 0.087741 1.000000
0.306362 0.087741 1.000000
0.690990 0.087741 1.000000
0.928932 0.087741 1.000000
0.994260 0.087741 1.000000
1.000000 0.087741 1.000000
1.000000 0.087741 1.000000
0.002913 0.306362 1.000000
0.014888 0.306362 1.000000
0.087741 0.306362 1.000000
0.306362 0.306362 1.000000
0.690990 0.306362 1.000000
0.928932 0.306362 1.000000
0.994260 0.306362 1.000000
1.000000 0.306362 1.000000
1.000000 0.306362 1.000000
0.002913 0.690990 1.000000
0.014888 0.690990 1.000000
0.087741 0.690990 1.000000
0.306362 0.690990 1.000000
0.690990 0.690990 1.000000
0.928932 0.690990 1.000000
0.994260 0.690990 1.000000
1.000000 0.690990 1.000000
1.000000 0.690990 1.000000
0.002913 0.928932 1.000000
0.014888 0.928932 1.000000
0.087741 0.928932 1.000000
0.306362 0.928932 1.000000
0.690990 0.928932 1.000000
0.928932 0.928932 1.000000
0.994260 0.928932 1.000000
1.000000 0.928932 1.000000
1.000000 0.928932 1.000000
0.002913 0.994260 1.000000
0.014888 0.994260 1.000000
0.087741 0.994260 1.000000
0.306362 0.994260 1.000000
0.690990 0.994260 1.000000
0.928932 0.994260 1.000000
0.994260 0.994260 1.000000
1.000000 0.994260 1.000000
1.000000 0.994260 1.000000
0.002913 1.000000 1.000000
0.014888 1.000000 1.000000
0.087741 1.000000 1.000000
0.306362 1.000000 1.000000
0.690990 1.000000 1.000000
0.928932 1.000000 1.000000
0.994260 1.000000 1.000000
1.000000 1.000000 1.000000
1.000000 1.000000 1.000000
0.002913 1.000000 1.000000
0.014888 1.000000 1.000000
0.087741 1.000000 1.000000
0.306362 1.000000 1.000000
0.690990 1.000000 1.000000
0.928932 1.000000 1.000000
0.994260 1.000000 1.000000
1.000000 1.000000 1.000000
1.000000 1.000000 1.000000
0.002913 0.002913 1.000000
0.014888 0.002913 1.000000
0.087741 0.002913 1.000000
0.306362 0.002913 1.000000
0.690990 0.002913 1.000000
0.928932 0.002913 1.000000
0.994260 0.002913 1.000000
1.000000 0.002913 1.000000
1.000000 0.002913 1.000000
0.002913 0.014888 1.000000
0.014888 0.014888 1.000000
0.087741 0.014888 1.000000
0.306362 0.014888 1.000000
0.690990 0.014888 1.000000
0.928932 0.014888 1.000000
0.994260 0.014888 1.000000
1.000000 0.014888 1.000000
1.000000 0.014888 1.000000
0.002913 0.087741 1.000000
0.014888 0.087741 1.000000
0.087741 0.087741 1.000000
0.306362 0.087741 1.000000
0.690990 0.087741 1.000000
0.928932 0.087741 1.000000
0.994260 0.087741 1.000000
1.000000 0.087741 1.000000
1.000000 0.087741 1.000000
0.002913 0.306362 1.000000
0.014888 0.306362 1.000000
0.087741 0.306362 1.000000
0.306362 0.306362 1.000000
0.690990 0.306362 1.000000
0.928932 0.306362 1.000000
0.994260 0.306362 1.000000
1.000000 0.306362 1.000000
1.000000 0.306362 1.000000
0.002913 0.690990 1.000000
0.014888 0.690990 1.000000
0.087741 0.690990 1.000000
0.306362 0.690990 1.000000
0.690990 0.690990 1.000000
0.928932 0.690990 1.000000
0.994260 0.690990 1.000000
1.000000 0.690990 1.000000
1.000000 0.690990 1.000000
0.002913 0.928932 1.000000
0.014888 0.928932 1.000000
0.087741 0.928932 1.000000
0.306362 0.928932 1.000000
0.690990 0.928932 1.000000
0.928932 0.928932 1.000000
0.994260 0.928932 1.000000
1.000000 0.928932 1.000000
1.000000 0.928932 1.000000
0.002913 0.994260 1.000000
0.014888 0.994260 1.000000
0.087741 0.994260 1.000000
0.306362 0.994260 1.000000
0.690990 0.994260 1.000000
0.928932 0.994260 1.000000
0.994260 0.994260 1.000000
1.000000 0.994260 1.000000
1.000000 0.994260 1.000000
0.002913 1.000000 1.000000
0.014888 1.000000 1.000000
0.087741 1.000000 1.000000
0.306362 1.000000 1.000000
0.690990 1.000000 1.000000
0.928932 1.000000 1.000000
0.994260 1.000000 1.000000
1.000000 1.000000 1.000000
1.000000 1.000000 1.000000
0.002913 1.000000 1.000000
0.014888 1.000000 1.000000
0.087741 1.000000 1.000000
0.306362 1.000000 1.000000
0.690990 1.000000 1.000000
0.928932 1.000000 1.000000
0.994260 1.000000 1.000000
1.000000 1.000000 1.000000
1.000000 1.000000 1.000000
