ep_main/data/luts/01_reinhard.cube
TITLE "01_reinhard"
LUT_3D_SIZE 9
0.012606 0.012606 0.012606
0.051406 0.012606 0.012606
0.137084 0.012606 0.012606
0.286519 0.012606 0.012606
0.520417 0.012606 0.012606
0.795921 0.012606 0.012606
1.000000 0.012606 0.012606
1.000000 0.012606 0.012606
1.000000 0.012606 0.012606
0.012606 0.051406 0.012606
0.051406 0.051406 0.012606
0.137084 0.051406 0.012606
0.286519 0.051406 0.012606
0.520417 0.051406 0.012606
0.795921 0.051406 0.012606
1.000000 0.051406 0.012606
1.000000 0.051406 0.012606
1.000000 0.051406 0.012606
0.012606 0.137084 0.012606
0.051406 0.137084 0.012606
0.137084 0.137084 0.012606
0.286519 0.137084 0.012606
0.520417 0.137084 0.012606
0.795921 0.137084 0.012606
1.000000 0.137084 0.012606
1.000000 0.137084 0.012606
1.000000 0.137084 0.012606
0.012606 0.286519 0.012606
0.051406 0.286519 0.012606
0.137084 0.286519 0.012606
0.286519 0.286519 0.012606
0.520417 0.286519 0.012606
0.795921 0.286519 0.012606
1.000000 0.286519 0.012606
1.000000 0.286519 0.012606
1.000000 0.286519 0.012606
0.012606 0.520417 0.012606
0.051406 0.520417 0.012606
0.137084 0.520417 0.012606
0.286519 0.520417 0.012606
0.520417 0.520417 0.012606
0.795921 0.520417 0.012606
1.000000 0.520417 0.012606
1.000000 0.520417 0.012606
1.000000 0.520417 0.012606
0.012606 0.795921 0.012606
0.051406 0.795921 0.012606
0.137084 0.795921 0.012606
0.286519 0.795921 0.012606
0.520417 0.795921 0.012606
0.795921 0.795921 0.012606
1.000000 0.795921 0.012606
1.000000 0.795921 0.012606
1.000000 0.795921 0.012606
0.012606 1.000000 0.012606
0.051406 1.000000 0.012606
0.137084 1.000000 0.012606
0.286519 1.000000 0.012606
0.520417 1.000000 0.012606
0.795921 1.000000 0.012606
1.000000 1.000000 0.012606
1.000000 1.000000 0.012606
1.000000 1.000000 0.012606
0.012606 1.000000 0.012606
0.051406 1.000000 0.012606
0.137084 1.000000 0.012606
0.286519 1.000000 0.012606
0.520417 1.000000 0.012606
0.795921 1.000000 0.012606
1.000000 1.000000 0.012606
1.000000 1.000000 0.012606
1.000000 1.000000 0.012606
0.012606 1.000000 0.012606
0.051406 1.000000 0.012606
0.137084 1.000000 0.012606
0.286519 1.000000 0.012606
0.520417 1.000000 0.012606
0.795921 1.000000 0.012606
1.000000 1.000000 0.012606
1.000000 1.000000 0.012606
1.000000 1.000000 0.012606
0.012606 0.012606 0.051406
0.051406 0.012606 0.051406
0.137084 0.012606 0.051406
0.286519 0.012606 0.051406
0.520417 0.012606 0.051406
0.795921 0.012606 0.051406
1.000000 0.012606 0.051406
1.000000 0.012606 0.051406
1.000000 0.012606 0.051406
0.012606 0.051406 0.051406
0.051406 0.051406 0.051406
0.137084 0.051406 0.051406
0.286519 0.051406 0.051406
0.520417 0.051406 0.051406
0.795921 0.051406 0.051406
1.000000 0.051406 0.051406
1.000000 0.051406 0.051406
1.000000 0.051406 0.051406
0.012606 0.137084 0.051406
0.051406 0.137084 0.051406
0.137084 0.137084 0.051406
0.286519 0.137084 0.051406
0.520417 0.137084 0.051406
0.795921 0.137084 0.051406
1.000000 0.137084 0.051406
1.000000 0.137084 0.051406
1.000000 0.137084 0.051406
0.012606 0.286519 0.051406
0.051406 0.286519 0.051406
0.137084 0.286519 0.051406
0.286519 0.286519 0.051406
0.520417 0.286519 0.051406
0.795921 0.286519 0.051406
1.000000 0.286519 0.051406
1.000000 0.286519 0.051406
1.000000 0.286519 0.051406
0.012606 0.520417 0.051406
0.051406 0.520417 0.051406
0.137084 0.520417 0.051406
0.286519 0.520417 0.051406
0.520417 0.520417 0.051406
0.795921 0.520417 0.051406
1.000000 0.520417 0.051406
1.000000 0.520417 0.051406
1.000000 0.520417 0.051406
0.012606 0.795921 0.051406
0.051406 0.795921 0.051406
0.137084 0.795921 0.051406
0.286519 0.795921 0.051406
0.520417 0.795921 0.051406
0.795921 0.795921 0.051406
1.000000 0.795921 0.051406
1.000000 0.795921 0.051406
1.000000 0.795921 0.051406
0.012606 1.000000 0.051406
0.051406 1.000000 0.051406
0.137084 1.000000 0.051406
0.286519 1.000000 0.051406
0.520417 1.000000 0.051406
0.795921 1.000000 0.051406
1.000000 1.000000 0.051406
1.000000 1.000000 0.051406
1.000000 1.000000 0.051406
0.012606 1.000000 0.051406
0.051406 1.000000 0.051406
0.137084 1.000000 0.051406
0.286519 1.000000 0.051406
0.520417 1.000000 0.051406
0.795921 1.000000 0.051406
1.000000 1.000000 0.051406
1.000000 1.000000 0.051406
1.000000 1.000000 0.051406
0.012606 1.000000 0.051406
0.051406 1.000000 0.051406
0.137084 1.000000 0.051406
0.286519 1.000000 0.051406
0.520417 1.000000 0.051406
0.795921 1.000000 0.051406
1.000000 1.000000 0.051406
1.000000 1.000000 0.051406
1.000000 1.000000 0.051406
0.012606 0.012606 0.137084
0.051406 0.012606 0.137084
0.137084 0.012606 0.137084
0.286519 0.012606 0.137084
0.520417 0.012606 0.137084
0.795921 0.012606 0.137084
1.000000 0.012606 0.137084
1.000000 0.012606 0.137084
1.000000 0.012606 0.137084
0.012606 0.051406 0.137084
0.051406 0.051406 0.137084
0.137084 0.051406 0.137084
0.286519 0.051406 0.137084
0.520417 0.051406 0.137084
0.795921 0.051406 0.137084
1.000000 0.051406 0.137084
1.000000 0.051406 0.137084
1.000000 0.051406 0.137084
0.012606 0.137084 0.137084
0.051406 0.137084 0.137084
0.137084 0.137084 0.137084
0.286519 0.137084 0.137084
0.520417 0.137084 0.137084
0.795921 0.137084 0.137084
1.000000 0.137084 0.137084
1.000000 0.137084 0.137084
1.000000 0.137084 0.137084
0.012606 0.286519 0.137084
0.051406 0.286519 0.137084
0.137084 0.286519 0.137084
0.286519 0.286519 0.137084
0.520417 0.286519 0.137084
0.795921 0.286519 0.137084
1.000000 0.286519 0.137084
1.000000 0.286519 0.137084
1.000000 0.286519 0.137084
0.012606 0.520417 0.137084
0.051406 0.520417 0.137084
0.137084 0.520417 0.137084
0.286519 0.520417 0.137084
0.520417 0.520417 0.137084
0.795921 0.520417 0.137084
1.000000 0.520417 0.137084
1.000000 0.520417 0.137084
1.000000 0.520417 0.137084
0.012606 0.795921 0.137084
0.051406 0.795921 0.137084
0.137084 0.795921 0.137084
0.286519 0.795921 0.137084
0.520417 0.795921 0.137084
0.795921 0.795921 0.137084
1.000000 0.795921 0.137084
1.000000 0.795921 0.137084
1.000000 0.795921 0.137084
0.012606 1.000000 0.137084
0.051406 1.000000 0.137084
0.137084 1.000000 0.137084
0.286519 1.000000 0.137084
0.520417 1.000000 0.137084
0.795921 1.000000 0.137084
1.000000 1.000000 0.137084
1.000000 1.000000 0.137084
1.000000 1.000000 0.137084
0.012606 1.000000 0.137084
0.051406 1.000000 0.137084
0.137084 1.000000 0.137084
0.286519 1.000000 0.137084
0.520417 1.000000 0.137084
0.795921 1.000000 0.137084
1.000000 1.000000 0.137084
1.000000 1.000000 0.137084
1.000000 1.000000 0.137084
0.012606 1.000000 0.137084
0.051406 1.000000 0.137084
0.137084 1.000000 0.137084
0.286519 1.000000 0.137084
0.520417 1.000000 0.137084
0.795921 1.000000 0.137084
1.000000 1.000000 0.137084
1.000000 1.000000 0.137084
1.000000 1.000000 0.137084
0.012606 0.012606 0.286519
0.051406 0.012606 0.286519
0.137084 0.012606 0.286519
0.286519 0.012606 0.286519
0.520417 0.012606 0.286519
0.795921 0.012606 0.286519
1.000000 0.012606 0.286519
1.000000 0.012606 0.286519
1.000000 0.012606 0.286519
0.012606 0.051406 0.286519
0.051406 0.051406 0.286519
0.137084 0.051406 0.286519
0.286519 0.051406 0.286519
0.520417 0.051406 0.286519
0.795921 0.051406 0.286519
1.000000 0.051406 0.286519
1.000000 0.051406 0.286519
1.000000 0.051406 0.286519
0.012606 0.137084 0.286519
0.051406 0.137084 0.286519
0.137084 0.137084 0.286519
0.286519 0.137084 0.286519
0.520417 0.137084 0.286519
0.795921 0.137084 0.286519
1.000000 0.137084 0.286519
1.000000 0.137084 0.286519
1.000000 0.137084 0.286519
0.012606 0.286519 0.286519
0.051406 0.286519 0.286519
0.137084 0.286519 0.286519
0.286519 0.286519 0.286519
0.520417 0.286519 0.286519
0.795921 0.286519 0.286519
1.000000 0.286519 0.286519
1.000000 0.286519 0.286519
1.000000 0.286519 0.286519
0.012606 0.520417 0.286519
0.051406 0.520417 0.286519
0.137084 0.520417 0.286519
0.286519 0.520417 0.286519
0.520417 0.520417 0.286519
0.795921 0.520417 0.286519
1.000000 0.520417 0.286519
1.000000 0.520417 0.286519
1.000000 0.520417 0.286519
0.012606 0.795921 0.286519
0.051406 0.795921 0.286519
0.137084 0.795921 0.286519
0.286519 0.795921 0.286519
0.520417 0.795921 0.286519
0.795921 0.795921 0.286519
1.000000 0.795921 0.286519
1.000000 0.795921 0.286519
1.000000 0.795921 0.286519
0.012606 1.000000 0.286519
0.051406 1.000000 0.286519
0.137084 1.000000 0.286519
0.286519 1.000000 0.286519
0.520417 1.000000 0.286519
0.795921 1.000000 0.286519
1.000000 1.000000 0.286519
1.000000 1.000000 0.286519
1.000000 1.000000 0.286519
0.012606 1.000000 0.286519
0.051406 1.000000 0.286519
0.137084 1.000000 0.286519
0.286519 1.000000 0.286519
0.520417 1.000000 0.286519
0.795921 1.000000 0.286519
1.000000 1.000000 0.286519
1.000000 1.000000 0.286519
1.000000 1.000000 0.286519
0.012606 1.000000 0.286519
0.051406 1.000000 0.286519
0.137084 1.000000 0.286519
0.286519 1.000000 0.286519
0.520417 1.000000 0.286519
0.795921 1.000000 0.286519
1.000000 1.000000 0.286519
1.000000 1.000000 0.286519
1.000000 1.000000 0.286519
0.012606 0.012606 0.520417
0.051406 0.012606 0.520417
0.137084 0.012606 0.520417
0.286519 0.012606 0.520417
0.520417 0.012606 0.520417
0.795921 0.012606 0.520417
1.000000 0.012606 0.520417
1.000000 0.012606 0.520417
1.000000 0.012606 0.520417
0.012606 0.051406 0.520417
0.051406 0.051406 0.520417
0.137084 0.051406 0.520417
0.286519 0.051406 0.520417
0.520417 0.051406 0.520417
0.795921 0.051406 0.520417
1.000000 0.051406 0.520417
1.000000 0.051406 0.520417
1.000000 0.051406 0.520417
0.012606 0.137084 0.520417
0.051406 0.137084 0.520417
0.137084 0.137084 0.520417
0.286519 0.137084 0.520417
0.520417 0.137084 0.520417
0.795921 0.137084 0.520417
1.000000 0.137084 0.520417
1.000000 0.137084 0.520417
1.000000 0.137084 0.520417
0.012606 0.286519 0.520417
0.051406 0.286519 0.520417
0.137084 0.286519 0.520417
0.286519 0.286519 0.520417
0.520417 0.286519 0.520417
0.795921 0.286519 0.520417
1.000000 0.286519 0.520417
1.000000 0.286519 0.520417
1.000000 0.286519 0.520417
0.012606 0.520417 0.520417
0.051406 0.520417 0.520417
0.137084 0.520417 0.520417
0.286519 0.520417 0.520417
0.520417 0.520417 0.520417
0.795921 0.520417 0.520417
1.000000 0.520417 0.520417
1.000000 0.520417 0.520417
1.000000 0.520417 0.520417
0.012606 0.795921 0.520417
0.051406 0.795921 0.520417
0.137084 0.795921 0.520417
0.286519 0.795921 0.520417
0.520417 0.795921 0.520417
0.795921 0.795921 0.520417
1.000000 0.795921 0.520417
1.000000 0.795921 0.520417
1.000000 0.795921 0.520417
0.012606 1.000000 0.520417
0.051406 1.000000 0.520417
0.137084 1.000000 0.520417
0.286519 1.000000 0.520417
0.520417 1.000000 0.520417
0.795921 1.000000 0.520417
1.000000 1.000000 0.520417
1.000000 1.000000 0.520417
1.000000 1.000000 0.520417
0.012606 1.000000 0.520417
0.051406 1.000000 0.520417
0.137084 1.000000 0.520417
0.286519 1.000000 0.520417
0.520417 1.000000 0.520417
0.795921 1.000000 0.520417
1.000000 1.000000 0.520417
1.000000 1.000000 0.520417
1.000000 1.000000 0.520417
0.012606 1.000000 0.520417
0.051406 1.000000 0.520417
0.137084 1.000000 0.520417
0.286519 1.000000 0.520417
0.520417 1.000000 0.520417
0.795921 1.000000 0.520417
1.000000 1.000000 0.520417
1.000000 1.000000 0.520417
1.000000 1.000000 0.520417
0.012606 0.012606 0.795921
0.051406 0.012606 0.795921
0.137084 0.012606 0.795921
0.286519 0.012606 0.795921
0.520417 0.012606 0.795921
0.795921 0.012606 0.795921
1.000000 0.012606 0.795921
1.000000 0.012606 0.795921
1.000000 0.012606 0.795921
0.012606 0.051406 0.795921
0.051406 0.051406 0.795921
0.137084 0.051406 0.795921
0.286519 0.051406 0.795921
0.520417 0.051406 0.795921
0.795921 0.051406 0.795921
1.000000 0.051406 0.795921
1.000000 0.051406 0.795921
1.000000 0.051406 0.795921
0.012606 0.137084 0.795921
0.051406 0.137084 0.795921
0.137084 0.137084 0.795921
0.286519 0.137084 0.795921
0.520417 0.137084 0.795921
0.795921 0.137084 0.795921
1.000000 0.137084 0.795921
1.000000 0.137084 0.795921
1.000000 0.137084 0.795921
0.012606 0.286519 0.795921
0.051406 0.286519 0.795921
0.137084 0.286519 0.795921
0.286519 0.286519 0.795921
0.520417 0.286519 0.795921
0.795921 0.286519 0.795921
1.000000 0.286519 0.795921
1.000000 0.286519 0.795921
1.000000 0.286519 0.795921
0.012606 0.520417 0.795921
0.051406 0.520417 0.795921
0.137084 0.520417 0.795921
0.286519 0.520417 0.795921
0.520417 0.520417 0.795921
0.795921 0.520417 0.795921
1.000000 0.520417 0.795921
1.000000 0.520417 0.795921
1.000000 0.520417 0.795921
0.012606 0.795921 0.795921
0.051406 0.795921 0.795921
0.137084 0.795921 0.795921
0.286519 0.795921 0.795921
0.520417 0.795921 0.795921
0.795921 0.795921 0.795921
1.000000 0.795921 0.795921
1.000000 0.795921 0.795921
1.000000 0.795921 0.795921
0.012606 1.000000 0.795921
0.051406 1.000000 0.795921
0.137084 1.000000 0.795921
0.286519 1.000000 0.795921
0.520417 1.000000 0.795921
0.795921 1.000000 0.795921
1.000000 1.000000 0.795921
1.000000 1.000000 0.795921
1.000000 1.000000 0.795921
0.012606 1.000000 0.795921
0.051406 1.000000 0.795921
0.137084 1.000000 0.795921
0.286519 1.000000 0.795921
0.520417 1.000000 0.795921
0.795921 1.000000 0.795921
1.000000 1.000000 0.795921
1.000000 1.000000 0.795921
1.000000 1.000000 0.795921
0.012606 1.000000 0.795921
0.051406 1.000000 0.795921
0.137084 1.000000 0.795921
0.286519 1.000000 0.795921
0.520417 1.000000 0.795921
0.795921 1.000000 0.795921
1.000000 1.000000 0.795921
1.000000 1.000000 0.795921
1.000000 1.000000 0.795921
0.012606 0.012606 1.000000
0.051406 0.012606 1.000000
0.137084 0.012606 1.000000
0.286519 0.012606 1.000000
0.520417 0.012606 1.000000
0.795921 0.012606 1.000000
1.000000 0.012606 1.000000
1.000000 0.012606 1.000000
1.000000 0.012606 1.000000
0.012606 0.051406 1.000000
0.051406 0.051406 1.000000
0.137084 0.051406 1.000000
0.286519 0.051406 1.000000
0.520417 0.051406 1.000000
0.795921 0.051406 1.000000
1.000000 0.051406 1.000000
1.000000 0.051406 1.000000
1.000000 0.051406 1.000000
0.012606 0.137084 1.000000
0.051406 0.137084 1.000000
0.137084 0.137084 1.000000
0.286519 0.137084 1.000000
0.520417 0.137084 1.000000
0.795921 0.137084 1.000000
1.000000 0.137084 1.000000
1.000000 0.137084 1.000000
1.000000 0.137084 1.000000
0.012606 0.286519 1.000000
0.051406 0.286519 1.000000
0.137084 0.286519 1.000000
0.286519 0.286519 1.000000
0.520417 0.286519 1.000000
0.795921 0.286519 1.000000
1.000000 0.286519 1.000000
1.000000 0.286519 1.000000
1.000000 0.286519 1.000000
0.012606 0.520417 1.000000
0.051406 0.520417 1.000000
0.137084 0.520417 1.000000
0.286519 0.520417 1.000000
0.520417 0.520417 1.000000
0.795921 0.520417 1.000000
1.000000 0.520417 1.000000
1.000000 0.520417 1.000000
1.000000 0.520417 1.000000
0.012606 0.795921 1.000000
0.051406 0.795921 1.000000
0.137084 0.795921 1.000000
0.286519 0.795921 1.000000
0.520417 0.795921 1.000000
0.795921 0.795921 1.000000
1.000000 0.795921 1.000000
1.000000 0.795921 1.000000
1.000000 0.795921 1.000000
0.012606 1.000000 1.000000
0.051406 1.000000 1.000000
0.137084 1.000000 1.000000
0.286519 1.000000 1.000000
0.520417 1.000000 1.000000
0.795921 1.000000 1.000000
1.000000 1.000000 1.000000
1.000000 1.000000 1.000000
1.000000 1.000000 1.000000
0.012606 1.000000 1.000000
0.051406 1.000000 1.000000
0.137084 1.000000 1.000000
0.286519 1.000000 1.000000
0.520417 1.000000 1.000000
0.795921 1.000000 1.000000
1.000000 1.000000 1.000000
1.000000 1.000000 1.000000
1.000000 1.000000 1.000000
0.012606 1.000000 1.000000
0.051406 1.000000 1.000000
0.137084 1.000000 1.000000
0.286519 1.000000 1.000000
0.520417 1.000000 1.000000
0.795921 1.000000 1.000000
1.000000 1.000000 1.000000
1.000000 1.000000 1.000000
1.000000 1.000000 1.000000
0.012606 0.012606 1.000000
0.051406 0.012606 1.000000
0.137084 0.012606 1.000000
0.286519 0.012606 1.000000
0.520417 0.012606 1.000000
0.795921 0.012606 1.000000
1.000000 0.012606 1.000000
1.000000 0.012606 1.000000
1.000000 0.012606 1.000000
0.012606 0.051406 1.000000
0.051406 0.051406 1.000000
0.137084 0.051406 1.000000
0.286519 0.051406 1.000000
0.520417 0.051406 1.000000
0.795921 0.051406 1.000000
1.000000 0.051406 1.000000
1.000000 0.051406 1.000000
1.000000 0.051406 1.000000
0.012606 0.137084 1.000000
0.051406 0.137084 1.000000
0.137084 0.137084 1.000000
0.286519 0.137084 1.000000
0.520417 0.137084 1.000000
0.795921 0.137084 1.000000
1.000000 0.137084 1.000000
1.000000 0.137084 1.000000
1.000000 0.137084 1.000000
0.012606 0.286519 1.000000
0.051406 0.286519 1.000000
0.137084 0.286519 1.000000
0.286519 0.286519 1.000000
0.520417 0.286519 1.000000
0.795921 0.286519 1.000000
1.000000 0.286519 1.000000
1.000000 0.286519 1.000000
1.000000 0.286519 1.000000
0.012606 0.520417 1.000000
0.051406 0.520417 1.000000
0.137084 0.520417 1.000000
0.286519 0.520417 1.000000
0.520417 0.520417 1.000000
0.795921 0.520417 1.000000
1.000000 0.520417 1.000000
1.000000 0.520417 1.000000
1.000000 0.520417 1.000000
0.012606 0.795921 1.000000
0.051406 0.795921 1.000000
0.137084 0.795921 1.000000
0.286519 0.795921 1.000000
0.520417 0.795921 1.000000
0.795921 0.795921 1.000000
1.000000 0.795921 1.000000
1.000000 0.795921 1.000000
1.000000 0.795921 1.000000
0.012606 1.000000 1.000000
0.051406 1.000000 1.000000
0.137084 1.000000 1.000000
0.286519 1.000000 1.000000
0.520417 1.000000 1.000000
0.795921 1.000000 1.000000
1.000000 1.000000 1.000000
1.000000 1.000000 1.000000
1.000000 1.000000 1.000000
0.012606 1.000000 1.000000
0.051406 1.000000 1.000000
0.137084 1.000000 1.000000
0.286519 1.000000 1.000000
0.520417 1.000000 1.000000
0.795921 1.000000 1.000000
1.000000 1.000000 1.000000
1.000000 1.000000 1.000000
1.000000 1.000000 1.000000
0.012606 1.000000 1.000000
0.051406 1.000000 1.000000
0.137084 1.000000 1.000000
0.286519 1.000000 1.000000
0.520417 1.000000 1.000000
0.795921 1.000000 1.000000
1.000000 1.000000 1.000000
1.000000 1.000000 1.000000
1.000000 1.000000 1.000000
0.012606 0.012606 1.000000
0.051406 0.012606 1.000000
0.137084 0.012606 1.000000
0.286519 0.012606 1.000000
0.520417 0.012606 1.000000
0.795921 0.012606 1.000000
1.000000 0.012606 1.000000
1.000000 0.012606 1.000000
1.000000 0.012606 1.000000
0.012606 0.051406 1.000000
0.051406 0.051406 1.000000
0.137084 0.051406 1.000000
0.286519 0.051406 1.000000
0.520417 0.051406 1.000000
0.795921 0.051406 1.000000
1.000000 0.051406 1.000000
1.000000 0.051406 1.000000
1.000000 0.051406 1.000000
0.012606 0.137084 1.000000
0.051406 0.137084 1.000000
0.137084 0.137084 1.000000
0.286519 0.137084 1.000000
0.520417 0.137084 1.000000
0.795921 0.137084 1.000000
1.000000 0.137084 1.000000
1.000000 0.137084 1.000000
1.000000 0.137084 1.000000
0.012606 0.286519 1.000000
0.051406 0.286519 1.000000
0.137084 0.286519 1.000000
0.286519 0.286519 1.000000
0.520417 0.286519 1.000000
0.795921 0.286519 1.000000
1.000000 0.286519 1.000000
1.000000 0.286519 1.000000
1.000000 0.286519 1.000000
0.012606 0.520417 1.000000
0.051406 0.520417 1.000000
0.137084 0.520417 1.000000
0.286519 0.520417 1.000000
0.520417 0.520417 1.000000
0.795921 0.520417 1.000000
1.000000 0.520417 1.000000
1.000000 0.520417 1.000000
1.000000 0.520417 1.000000
0.012606 0.795921 1.000000
0.051406 0.795921 1.000000
0.137084 0.795921 1.000000
0.286519 0.795921 1.000000
0.520417 0.795921 1.000000
0.795921 0.795921 1.000000
1.000000 0.795921 1.000000
1.000000 0.795921 1.000000
1.000000 0.795921 1.000000
0.012606 1.000000 1.000000
0.051406 1.000000 1.000000
0.137084 1.000000 1.000000
0.286519 1.000000 1.000000
0.520417 1.000000 1.000000
0.795921 1.000000 1.000000
1.000000 1.000000 1.000000
1.000000 1.000000 1.000000
1.000000 1.000000 1.000000
0.012606 1.000000 1.000000
0.051406 1.000000 1.000000
0.137084 1.000000 1.000000
0.286519 1.000000 1.000000
0.520417 1.000000 1.000000
0.795921 1.000000 1.000000
1.000000 1.000000 1.000000
1.000000 1.000000 1.000000
1.000000 1.000000 1.000000
0.012606 1.000000 1.000000
0.051406 1.000000 1.000000
0.137084 1.000000 1.000000
0.286519 1.000000 1.000000
0.520417 1.000000 1.000000
0.795921 1.000000 1.000000
1.000000 1.000000 1.000000
1.000000 1.000000 1.000000
1.000000 1.000000 1.000000
