ep_main/data/luts/01_reinhard.cube
TITLE "01_reinhard"
LUT_3D_SIZE 5
0.012606 0.012606 0.012606
0.137084 0.012606 0.012606
0.520417 0.012606 0.012606
1.000000 0.012606 0.012606
1.000000 0.012606 0.012606
0.012606 0.137084 0.012606
0.137084 0.137084 0.012606
0.520417 0.137084 0.012606
1.000000 0.137084 0.012606
1.000000 0.137084 0.012606
0.012606 0.520417 0.012606
0.137084 0.520417 0.012606
0.520417 0.520417 0.012606
1.000000 0.520417 0.012606
1.000000 0.520417 0.012606
0.012606 1.000000 0.012606
0.137084 1.000000 0.012606
0.520417 1.000000 0.012606
1.000000 1.000000 0.012606
1.000000 1.000000 0.012606
0.012606 1.000000 0.012606
0.137084 1.000000 0.012606
0.520417 1.000000 0.012606
1.000000 1.000000 0.012606
1.000000 1.000000 0.012606
0.012606 0.012606 0.137084
0.137084 0.012606 0.137084
0.520417 0.012606 0.137084
1.000000 0.012606 0.137084
1.000000 0.012606 0.137084
0.012606 0.137084 0.137084
0.137084 0.137084 0.137084
0.520417 0.137084 0.137084
1.000000 0.137084 0.137084
1.000000 0.137084 0.137084
0.012606 0.520417 0.137084
0.137084 0.520417 0.137084
0.520417 0.520417 0.137084
1.000000 0.520417 0.137084
1.000000 0.520417 0.137084
0.012606 1.000000 0.137084
0.137084 1.000000 0.137084
0.520417 1.000000 0.137084
1.000000 1.000000 0.137084
1.000000 1.000000 0.137084
0.012606 1.000000 0.137084
0.137084 1.000000 0.137084
0.520417 1.000000 0.137084
1.000000 1.000000 0.137084
1.000000 1.000000 0.137084
0.012606 0.012606 0.520417
0.137084 0.012606 0.520417
0.520417 0.012606 0.520417
1.000000 0.012606 0.520417
1.000000 0.012606 0.520417
0.012606 0.137084 0.520417
0.137084 0.137084 0.520417
0.520417 0.137084 0.520417
1.000000 0.137084 0.520417
1.000000 0.137084 0.520417
0.012606 0.520417 0.520417
0.137084 0.520417 0.520417
0.520417 0.520417 0.520417
1.000000 0.520417 0.520417
1.000000 0.520417 0.520417
0.012606 1.000000 0.520417
0.137084 1.000000 0.520417
0.520417 1.000000 0.520417
1.000000 1.000000 0.520417
1.000000 1.000000 0.520417
0.012606 1.000000 0.520417
0.137084 1.000000 0.520417
0.520417 1.000000 0.520417
1.000000 1.000000 0.520417
1.000000 1.000000 0.520417
0.012606 0.012606 1.000000
0.137084 0.012606 1.000000
0.520417 0.012606 1.000000
1.000000 0.012606 1.000000
1.000000 0.012606 1.000000
0.012606 0.137084 1.000000
0.137084 0.137084 1.000000
0.520417 0.137084 1.000000
1.000000 0.137084 1.000000
1.000000 0.137084 1.000000
0.012606 0.520417 1.000000
0.137084 0.520417 1.000000
0.520417 0.520417 1.000000
1.000000 0.520417 1.000000
1.000000 0.520417 1.000000
0.012606 1.000000 1.000000
0.137084 1.000000 1.000000
0.520417 1.000000 1.000000
1.000000 1.000000 1.000000
1.000000 1.000000 1.000000
0.012606 1.000000 1.000000
0.137084 1.000000 1.000000
0.520417 1.000000 1.000000
1.000000 1.000000 1.000000
1.000000 1.000000 1.000000
0.012606 0.012606 1.000000
0.137084 0.012606 1.000000
0.520417 0.012606 1.000000
1.000000 0.012606 1.000000
1.000000 0.012606 1.000000
0.012606 0.137084 1.000000
0.137084 0.137084 1.000000
0.520417 0.137084 1.000000
1.000000 0.137084 1.000000
1.000000 0.137084 1.000000
0.012606 0.520417 1.000000
0.137084 0.520417 1.000000
0.520417 0.520417 1.000000
1.000000 0.520417 1.000000
1.000000 0.520417 1.000000
0.012606 1.000000 1.000000
0.137084 1.000000 1.000000
0.520417 1.000000 1.000000
1.000000 1.000000 1.000000
1.000000 1.000000 1.000000
0.012606 1.000000 1.000000
0.137084 1.000000 1.000000
0.520417 1.000000 1.000000
1.000000 1.000000 1.000000
1.000000 1.000000 1.000000
