ep_main/data/luts/01_reinhard.cube
TITLE "01_reinhard"
LUT_3D_SIZE 33
0.012606 0.012606 0.012606
0.018014 0.012606 0.012606
0.025739 0.012606 0.012606
0.036767 0.012606 0.012606
0.051406 0.012606 0.012606
0.068409 0.012606 0.012606
0.088087 0.012606 0.012606
0.110834 0.012606 0.012606
0.137084 0.012606 0.012606
0.167306 0.012606 0.012606
0.201983 0.012606 0.012606
0.241585 0.012606 0.012606
0.286519 0.012606 0.012606
0.337049 0.012606 0.012606
0.393192 0.012606 0.012606
0.454595 0.012606 0.012606
0.520417 0.012606 0.012606
0.589284 0.012606 0.012606
0.659389 0.012606 0.012606
0.728797 0.012606 0.012606
0.795921 0.012606 0.012606
0.860055 0.012606 0.012606
0.921759 0.012606 0.012606
0.982987 0.012606 0.012606
1.000000 0.012606 0.012606
1.000000 0.012606 0.012606
1.000000 0.012606 0.012606
1.000000 0.012606 0.012606
1.000000 0.012606 0.012606
1.000000 0.012606 0.012606
1.000000 0.012606 0.012606
1.000000 0.012606 0.012606
1.000000 0.012606 0.012606
0.012606 0.018014 0.012606
0.018014 0.018014 0.012606
0.025739 0.018014 0.012606
0.036767 0.018014 0.012606
0.051406 0.018014 0.012606
0.068409 0.018014 0.012606
0.088087 0.018014 0.012606
0.110834 0.018014 0.012606
0.137084 0.018014 0.012606
0.167306 0.018014 0.012606
0.201983 0.018014 0.012606
0.241585 0.018014 0.012606
0.286519 0.018014 0.012606
0.337049 0.018014 0.012606
0.393192 0.018014 0.012606
0.454595 0.018014 0.012606
0.520417 0.018014 0.012606
0.589284 0.018014 0.012606
0.659389 0.018014 0.012606
0.728797 0.018014 0.012606
0.795921 0.018014 0.012606
0.860055 0.018014 0.012606
0.921759 0.018014 0.012606
0.982987 0.018014 0.012606
1.000000 0.018014 0.012606
1.000000 0.018014 0.012606
1.000000 0.018014 0.012606
1.000000 0.018014 0.012606
1.000000 0.018014 0.012606
1.000000 0.018014 0.012606
1.000000 0.018014 0.012606
1.000000 0.018014 0.012606
1.000000 0.018014 0.012606
0.012606 0.025739 0.012606
0.018014 0.025739 0.012606
0.025739 0.025739 0.012606
0.036767 0.025739 0.012606
0.051406 0.025739 0.012606
0.068409 0.025739 0.012606
0.088087 0.025739 0.012606
0.110834 0.025739 0.012606
0.137084 0.025739 0.012606
0.167306 0.025739 0.012606
0.201983 0.025739 0.012606
0.241585 0.025739 0.012606
0.286519 0.025739 0.012606
0.337049 0.025739 0.012606
0.393192 0.025739 0.012606
0.454595 0.025739 0.012606
0.520417 0.025739 0.012606
0.589284 0.025739 0.012606
0.659389 0.025739 0.012606
0.728797 0.025739 0.012606
0.795921 0.025739 0.012606
0.860055 0.025739 0.012606
0.921759 0.025739 0.012606
0.982987 0.025739 0.012606
1.000000 0.025739 0.012606
1.000000 0.025739 0.012606
1.000000 0.025739 0.012606
1.000000 0.025739 0.012606
1.000000 0.025739 0.012606
1.000000 0.025739 0.012606
1.000000 0.025739 0.012606
1.000000 0.025739 0.012606
1.000000 0.025739 0.012606
0.012606 0.036767 0.012606
0.018014 0.036767 0.012606
0.025739 0.036767 0.012606
0.036767 0.036767 0.012606
0.051406 0.036767 0.012606
0.068409 0.036767 0.012606
0.088087 0.036767 0.012606
0.110834 0.036767 0.012606
0.137084 0.036767 0.012606
0.167306 0.036767 0.012606
0.201983 0.036767 0.012606
0.241585 0.036767 0.012606
0.286519 0.036767 0.012606
0.337049 0.036767 0.012606
0.393192 0.036767 0.012606
0.454595 0.036767 0.012606
0.520417 0.036767 0.012606
0.589284 0.036767 0.012606
0.659389 0.036767 0.012606
0.728797 0.036767 0.012606
0.795921 0.036767 0.012606
0.860055 0.036767 0.012606
0.921759 0.036767 0.012606
0.982987 0.036767 0.012606
1.000000 0.036767 0.012606
1.000000 0.036767 0.012606
1.000000 0.036767 0.012606
1.000000 0.036767 0.012606
1.000000 0.036767 0.012606
1.000000 0.036767 0.012606
1.000000 0.036767 0.012606
1.000000 0.036767 0.012606
1.000000 0.036767 0.012606
0.012606 0.051406 0.012606
0.018014 0.051406 0.012606
0.025739 0.051406 0.012606
0.036767 0.051406 0.012606
0.051406 0.051406 0.012606
0.068409 0.051406 0.012606
0.088087 0.051406 0.012606
0.110834 0.051406 0.012606
0.137084 0.051406 0.012606
0.167306 0.051406 0.012606
0.201983 0.051406 0.012606
0.241585 0.051406 0.012606
0.286519 0.051406 0.012606
0.337049 0.051406 0.012606
0.393192 0.051406 0.012606
0.454595 0.051406 0.012606
0.520417 0.051406 0.012606
0.589284 0.051406 0.012606
0.659389 0.051406 0.012606
0.728797 0.051406 0.012606
0.795921 0.051406 0.012606
0.860055 0.051406 0.012606
0.921759 0.051406 0.012606
0.982987 0.051406 0.012606
1.000000 0.051406 0.012606
1.000000 0.051406 0.012606
1.000000 0.051406 0.012606
1.000000 0.051406 0.012606
1.000000 0.051406 0.012606
1.000000 0.051406 0.012606
1.000000 0.051406 0.012606
1.000000 0.051406 0.012606
1.000000 0.051406 0.012606
0.012606 0.068409 0.012606
0.018014 0.068409 0.012606
0.025739 0.068409 0.012606
0.036767 0.068409 0.012606
0.051406 0.068409 0.012606
0.068409 0.068409 0.012606
0.088087 0.068409 0.012606
0.110834 0.068409 0.012606
0.137084 0.068409 0.012606
0.167306 0.068409 0.012606
0.201983 0.068409 0.012606
0.241585 0.068409 0.012606
0.286519 0.068409 0.012606
0.337049 0.068409 0.012606
0.393192 0.068409 0.012606
0.454595 0.068409 0.012606
0.520417 0.068409 0.012606
0.589284 0.068409 0.012606
0.659389 0.068409 0.012606
0.728797 0.068409 0.012606
0.795921 0.068409 0.012606
0.860055 0.068409 0.012606
0.921759 0.068409 0.012606
0.982987 0.068409 0.012606
1.000000 0.068409 0.012606
1.000000 0.068409 0.012606
1.000000 0.068409 0.012606
1.000000 0.068409 0.012606
1.000000 0.068409 0.012606
1.000000 0.068409 0.012606
1.000000 0.068409 0.012606
1.000000 0.068409 0.012606
1.000000 0.068409 0.012606
0.012606 0.088087 0.012606
0.018014 0.088087 0.012606
0.025739 0.088087 0.012606
0.036767 0.088087 0.012606
0.051406 0.088087 0.012606
0.068409 0.088087 0.012606
0.088087 0.088087 0.012606
0.110834 0.088087 0.012606
0.137084 0.088087 0.012606
0.167306 0.088087 0.012606
0.201983 0.088087 0.012606
0.241585 0.088087 0.012606
0.286519 0.088087 0.012606
0.337049 0.088087 0.012606
0.393192 0.088087 0.012606
0.454595 0.088087 0.012606
0.520417 0.088087 0.012606
0.589284 0.088087 0.012606
0.659389 0.088087 0.012606
0.728797 0.088087 0.012606
0.795921 0.088087 0.012606
0.860055 0.088087 0.012606
0.921759 0.088087 0.012606
0.982987 0.088087 0.012606
1.000000 0.088087 0.012606
1.000000 0.088087 0.012606
1.000000 0.088087 0.012606
1.000000 0.088087 0.012606
1.000000 0.088087 0.012606
1.000000 0.088087 0.012606
1.000000 0.088087 0.012606
1.000000 0.088087 0.012606
1.000000 0.088087 0.012606
0.012606 0.110834 0.012606
0.018014 0.110834 0.012606
0.025739 0.110834 0.012606
0.036767 0.110834 0.012606
0.051406 0.110834 0.012606
0.068409 0.110834 0.012606
0.088087 0.110834 0.012606
0.110834 0.110834 0.012606
0.137084 0.110834 0.012606
0.167306 0.110834 0.012606
0.201983 0.110834 0.012606
0.241585 0.110834 0.012606
0.286519 0.110834 0.012606
0.337049 0.110834 0.012606
0.393192 0.110834 0.012606
0.454595 0.110834 0.012606
0.520417 0.110834 0.012606
0.589284 0.110834 0.012606
0.659389 0.110834 0.012606
0.728797 0.110834 0.012606
0.795921 0.110834 0.012606
0.860055 0.110834 0.012606
0.921759 0.110834 0.012606
0.982987 0.110834 0.012606
1.000000 0.110834 0.012606
1.000000 0.110834 0.012606
1.000000 0.110834 0.012606
1.000000 0.110834 0.012606
1.000000 0.110834 0.012606
1.000000 0.110834 0.012606
1.000000 0.110834 0.012606
1.000000 0.110834 0.012606
1.000000 0.110834 0.012606
0.012606 0.137084 0.012606
0.018014 0.137084 0.012606
0.025739 0.137084 0.012606
0.036767 0.137084 0.012606
0.051406 0.137084 0.012606
0.068409 0.137084 0.012606
0.088087 0.137084 0.012606
0.110834 0.137084 0.012606
0.137084 0.137084 0.012606
0.167306 0.137084 0.012606
0.201983 0.137084 0.012606
0.241585 0.137084 0.012606
0.286519 0.137084 0.012606
0.337049 0.137084 0.012606
0.393192 0.137084 0.012606
0.454595 0.137084 0.012606
0.520417 0.137084 0.012606
0.589284 0.137084 0.012606
0.659389 0.137084 0.012606
0.728797 0.137084 0.012606
0.795921 0.137084 0.012606
0.860055 0.137084 0.012606
0.921759 0.137084 0.012606
0.982987 0.137084 0.012606
1.000000 0.137084 0.012606
1.000000 0.137084 0.012606
1.000000 0.137084 0.012606
1.000000 0.137084 0.012606
1.000000 0.137084 0.012606
1.000000 0.137084 0.012606
1.000000 0.137084 0.012606
1.000000 0.137084 0.012606
1.000000 0.137084 0.012606
0.012606 0.167306 0.012606
0.018014 0.167306 0.012606
0.025739 0.167306 0.012606
0.036767 0.167306 0.012606
0.051406 0.167306 0.012606
0.068409 0.167306 0.012606
0.088087 0.167306 0.012606
0.110834 0.167306 0.012606
0.137084 0.167306 0.012606
0.167306 0.167306 0.012606
0.201983 0.167306 0.012606
0.241585 0.167306 0.012606
0.286519 0.167306 0.012606
0.337049 0.167306 0.012606
0.393192 0.167306 0.012606
0.454595 0.167306 0.012606
0.520417 0.167306 0.012606
0.589284 0.167306 0.012606
0.659389 0.167306 0.012606
0.728797 0.167306 0.012606
0.795921 0.167306 0.012606
0.860055 0.167306 0.012606
0.921759 0.167306 0.012606
0.982987 0.167306 0.012606
1.000000 0.167306 0.012606
1.000000 0.167306 0.012606
1.000000 0.167306 0.012606
1.000000 0.167306 0.012606
1.000000 0.167306 0.012606
1.000000 0.167306 0.012606
1.000000 0.167306 0.012606
1.000000 0.167306 0.012606
1.000000 0.167306 0.012606
0.012606 0.201983 0.012606
0.018014 0.201983 0.012606
0.025739 0.201983 0.012606
0.036767 0.201983 0.012606
0.051406 0.201983 0.012606
0.068409 0.201983 0.012606
0.088087 0.201983 0.012606
0.110834 0.201983 0.012606
0.137084 0.201983 0.012606
0.167306 0.201983 0.012606
0.201983 0.201983 0.012606
0.241585 0.201983 0.012606
0.286519 0.201983 0.012606
0.337049 0.201983 0.012606
0.393192 0.201983 0.012606
0.454595 0.201983 0.012606
0.520417 0.201983 0.012606
0.589284 0.201983 0.012606
0.659389 0.201983 0.012606
0.728797 0.201983 0.012606
0.795921 0.201983 0.012606
0.860055 0.201983 0.012606
0.921759 0.201983 0.012606
0.982987 0.201983 0.012606
1.000000 0.201983 0.012606
1.000000 0.201983 0.012606
1.000000 0.201983 0.012606
1.000000 0.201983 0.012606
1.000000 0.201983 0.012606
1.000000 0.201983 0.012606
1.000000 0.201983 0.012606
1.000000 0.201983 0.012606
1.000000 0.201983 0.012606
0.012606 0.241585 0.012606
0.018014 0.241585 0.012606
0.025739 0.241585 0.012606
0.036767 0.241585 0.012606
0.051406 0.241585 0.012606
0.068409 0.241585 0.012606
0.088087 0.241585 0.012606
0.110834 0.241585 0.012606
0.137084 0.241585 0.012606
0.167306 0.241585 0.012606
0.201983 0.241585 0.012606
0.241585 0.241585 0.012606
0.286519 0.241585 0.012606
0.337049 0.241585 0.012606
0.393192 0.241585 0.012606
0.454595 0.241585 0.012606
0.520417 0.241585 0.012606
0.589284 0.241585 0.012606
0.659389 0.241585 0.012606
0.728797 0.241585 0.012606
0.795921 0.241585 0.012606
0.860055 0.241585 0.012606
0.921759 0.241585 0.012606
0.982987 0.241585 0.012606
1.000000 0.241585 0.012606
1.000000 0.241585 0.012606
1.000000 0.241585 0.012606
1.000000 0.241585 0.012606
1.000000 0.241585 0.012606
1.000000 0.241585 0.012606
1.000000 0.241585 0.012606
1.000000 0.241585 0.012606
1.000000 0.241585 0.012606
0.012606 0.286519 0.012606
0.018014 0.286519 0.012606
0.025739 0.286519 0.012606
0.036767 0.286519 0.012606
0.051406 0.286519 0.012606
0.068409 0.286519 0.012606
0.088087 0.286519 0.012606
0.110834 0.286519 0.012606
0.137084 0.286519 0.012606
0.167306 0.286519 0.012606
0.201983 0.286519 0.012606
0.241585 0.286519 0.012606
0.286519 0.286519 0.012606
0.337049 0.286519 0.012606
0.393192 0.286519 0.012606
0.454595 0.286519 0.012606
0.520417 0.286519 0.012606
0.589284 0.286519 0.012606
0.659389 0.286519 0.012606
0.728797 0.286519 0.012606
0.795921 0.286519 0.012606
0.860055 0.286519 0.012606
0.921759 0.286519 0.012606
0.982987 0.286519 0.012606
1.000000 0.286519 0.012606
1.000000 0.286519 0.012606
1.000000 0.286519 0.012606
1.000000 0.286519 0.012606
1.000000 0.286519 0.012606
1.000000 0.286519 0.012606
1.000000 0.286519 0.012606
1.000000 0.286519 0.012606
1.000000 0.286519 0.012606
0.012606 0.337049 0.012606
0.018014 0.337049 0.012606
0.025739 0.337049 0.012606
0.036767 0.337049 0.012606
0.051406 0.337049 0.012606
0.068409 0.337049 0.012606
0.088087 0.337049 0.012606
0.110834 0.337049 0.012606
0.137084 0.337049 0.012606
0.167306 0.337049 0.012606
0.201983 0.337049 0.012606
0.241585 0.337049 0.012606
0.286519 0.337049 0.012606
0.337049 0.337049 0.012606
0.393192 0.337049 0.012606
0.454595 0.337049 0.012606
0.520417 0.337049 0.012606
0.589284 0.337049 0.012606
0.659389 0.337049 0.012606
0.728797 0.337049 0.012606
0.795921 0.337049 0.012606
0.860055 0.337049 0.012606
0.921759 0.337049 0.012606
0.982987 0.337049 0.012606
1.000000 0.337049 0.012606
1.000000 0.337049 0.012606
1.000000 0.337049 0.012606
1.000000 0.337049 0.012606
1.000000 0.337049 0.012606
1.000000 0.337049 0.012606
1.000000 0.337049 0.012606
1.000000 0.337049 0.012606
1.000000 0.337049 0.012606
0.012606 0.393192 0.012606
0.018014 0.393192 0.012606
0.025739 0.393192 0.012606
0.036767 0.393192 0.012606
0.051406 0.393192 0.012606
0.068409 0.393192 0.012606
0.088087 0.393192 0.012606
0.110834 0.393192 0.012606
0.137084 0.393192 0.012606
0.167306 0.393192 0.012606
0.201983 0.393192 0.012606
0.241585 0.393192 0.012606
0.286519 0.393192 0.012606
0.337049 0.393192 0.012606
0.393192 0.393192 0.012606
0.454595 0.393192 0.012606
0.520417 0.393192 0.012606
0.589284 0.393192 0.012606
0.659389 0.393192 0.012606
0.728797 0.393192 0.012606
0.795921 0.393192 0.012606
0.860055 0.393192 0.012606
0.921759 0.393192 0.012606
0.982987 0.393192 0.012606
1.000000 0.393192 0.012606
1.000000 0.393192 0.012606
1.000000 0.393192 0.012606
1.000000 0.393192 0.012606
1.000000 0.393192 0.012606
1.000000 0.393192 0.012606
1.000000 0.393192 0.012606
1.000000 0.393192 0.012606
1.000000 0.393192 0.012606
0.012606 0.454595 0.012606
0.018014 0.454595 0.012606
0.025739 0.454595 0.012606
0.036767 0.454595 0.012606
0.051406 0.454595 0.012606
0.068409 0.454595 0.012606
0.088087 0.454595 0.012606
0.110834 0.454595 0.012606
0.137084 0.454595 0.012606
0.167306 0.454595 0.012606
0.201983 0.454595 0.012606
0.241585 0.454595 0.012606
0.286519 0.454595 0.012606
0.337049 0.454595 0.012606
0.393192 0.454595 0.012606
0.454595 0.454595 0.012606
0.520417 0.454595 0.012606
0.589284 0.454595 0.012606
0.659389 0.454595 0.012606
0.728797 0.454595 0.012606
0.795921 0.454595 0.012606
0.860055 0.454595 0.012606
0.921759 0.454595 0.012606
0.982987 0.454595 0.012606
1.000000 0.454595 0.012606
1.000000 0.454595 0.012606
1.000000 0.454595 0.012606
1.000000 0.454595 0.012606
1.000000 0.454595 0.012606
1.000000 0.454595 0.012606
1.000000 0.454595 0.012606
1.000000 0.454595 0.012606
1.000000 0.454595 0.012606
0.012606 0.520417 0.012606
0.018014 0.520417 0.012606
0.025739 0.520417 0.012606
0.036767 0.520417 0.012606
0.051406 0.520417 0.012606
0.068409 0.520417 0.012606
0.088087 0.520417 0.012606
0.110834 0.520417 0.012606
0.137084 0.520417 0.012606
0.167306 0.520417 0.012606
0.201983 0.520417 0.012606
0.241585 0.520417 0.012606
0.286519 0.520417 0.012606
0.337049 0.520417 0.012606
0.393192 0.520417 0.012606
0.454595 0.520417 0.012606
0.520417 0.520417 0.012606
0.589284 0.520417 0.012606
0.659389 0.520417 0.012606
0.728797 0.520417 0.012606
0.795921 0.520417 0.012606
0.860055 0.520417 0.012606
0.921759 0.520417 0.012606
0.982987 0.520417 0.012606
1.000000 0.520417 0.012606
1.000000 0.520417 0.012606
1.000000 0.520417 0.012606
1.000000 0.520417 0.012606
1.000000 0.520417 0.012606
1.000000 0.520417 0.012606
1.000000 0.520417 0.012606
1.000000 0.520417 0.012606
1.000000 0.520417 0.012606
0.012606 0.589284 0.012606
0.018014 0.589284 0.012606
0.025739 0.589284 0.012606
0.036767 0.589284 0.012606
0.051406 0.589284 0.012606
0.068409 0.589284 0.012606
0.088087 0.589284 0.012606
0.110834 0.589284 0.012606
0.137084 0.589284 0.012606
0.167306 0.589284 0.012606
0.201983 0.589284 0.012606
0.241585 0.589284 0.012606
0.286519 0.589284 0.012606
0.337049 0.589284 0.012606
0.393192 0.589284 0.012606
0.454595 0.589284 0.012606
0.520417 0.589284 0.012606
0.589284 0.589284 0.012606
0.659389 0.589284 0.012606
0.728797 0.589284 0.012606
0.795921 0.589284 0.012606
0.860055 0.589284 0.012606
0.921759 0.589284 0.012606
0.982987 0.589284 0.012606
1.000000 0.589284 0.012606
1.000000 0.589284 0.012606
1.000000 0.589284 0.012606
1.000000 0.589284 0.012606
1.000000 0.589284 0.012606
1.000000 0.589284 0.012606
1.000000 0.589284 0.012606
1.000000 0.589284 0.012606
1.000000 0.589284 0.012606
0.012606 0.659389 0.012606
0.018014 0.659389 0.012606
0.025739 0.659389 0.012606
0.036767 0.659389 0.012606
0.051406 0.659389 0.012606
0.068409 0.659389 0.012606
0.088087 0.659389 0.012606
0.110834 0.659389 0.012606
0.137084 0.659389 0.012606
0.167306 0.659389 0.012606
0.201983 0.659389 0.012606
0.241585 0.659389 0.012606
0.286519 0.659389 0.012606
0.337049 0.659389 0.012606
0.393192 0.659389 0.012606
0.454595 0.659389 0.012606
0.520417 0.659389 0.012606
0.589284 0.659389 0.012606
0.659389 0.659389 0.012606
0.728797 0.659389 0.012606
0.795921 0.659389 0.012606
0.860055 0.659389 0.012606
0.921759 0.659389 0.012606
0.982987 0.659389 0.012606
1.000000 0.659389 0.012606
1.000000 0.659389 0.012606
1.000000 0.659389 0.012606
1.000000 0.659389 0.012606
1.000000 0.659389 0.012606
1.000000 0.659389 0.012606
1.000000 0.659389 0.012606
1.000000 0.659389 0.012606
1.000000 0.659389 0.012606
0.012606 0.728797 0.012606
0.018014 0.728797 0.012606
0.025739 0.728797 0.012606
0.036767 0.728797 0.012606
0.051406 0.728797 0.012606
0.068409 0.728797 0.012606
0.088087 0.728797 0.012606
0.110834 0.728797 0.012606
0.137084 0.728797 0.012606
0.167306 0.728797 0.012606
0.201983 0.728797 0.012606
0.241585 0.728797 0.012606
0.286519 0.728797 0.012606
0.337049 0.728797 0.012606
0.393192 0.728797 0.012606
0.454595 0.728797 0.012606
0.520417 0.728797 0.012606
0.589284 0.728797 0.012606
0.659389 0.728797 0.012606
0.728797 0.728797 0.012606
0.795921 0.728797 0.012606
0.860055 0.728797 0.012606
0.921759 0.728797 0.012606
0.982987 0.728797 0.012606
1.000000 0.728797 0.012606
1.000000 0.728797 0.012606
1.000000 0.728797 0.012606
1.000000 0.728797 0.012606
1.000000 0.728797 0.012606
1.000000 0.728797 0.012606
1.000000 0.728797 0.012606
1.000000 0.728797 0.012606
1.000000 0.728797 0.012606
0.012606 0.795921 0.012606
0.018014 0.795921 0.012606
0.025739 0.795921 0.012606
0.036767 0.795921 0.012606
0.051406 0.795921 0.012606
0.068409 0.795921 0.012606
0.088087 0.795921 0.012606
0.110834 0.795921 0.012606
0.137084 0.795921 0.012606
0.167306 0.795921 0.012606
0.201983 0.795921 0.012606
0.241585 0.795921 0.012606
0.286519 0.795921 0.012606
0.337049 0.795921 0.012606
0.393192 0.795921 0.012606
0.454595 0.795921 0.012606
0.520417 0.795921 0.012606
0.589284 0.795921 0.012606
0.659389 0.795921 0.012606
0.728797 0.795921 0.012606
0.795921 0.795921 0.012606
0.860055 0.795921 0.012606
0.921759 0.795921 0.012606
0.982987 0.795921 0.012606
1.000000 0.795921 0.012606
1.000000 0.795921 0.012606
1.000000 0.795921 0.012606
1.000000 0.795921 0.012606
1.000000 0.795921 0.012606
1.000000 0.795921 0.012606
1.000000 0.795921 0.012606
1.000000 0.795921 0.012606
1.000000 0.795921 0.012606
0.012606 0.860055 0.012606
0.018014 0.860055 0.012606
0.025739 0.860055 0.012606
0.036767 0.860055 0.012606
0.051406 0.860055 0.012606
0.068409 0.860055 0.012606
0.088087 0.860055 0.012606
0.110834 0.860055 0.012606
0.137084 0.860055 0.012606
0.167306 0.860055 0.012606
0.201983 0.860055 0.012606
0.241585 0.860055 0.012606
0.286519 0.860055 0.012606
0.337049 0.860055 0.012606
0.393192 0.860055 0.012606
0.454595 0.860055 0.012606
0.520417 0.860055 0.012606
0.589284 0.860055 0.012606
0.659389 0.860055 0.012606
0.728797 0.860055 0.012606
0.795921 0.860055 0.012606
0.860055 0.860055 0.012606
0.921759 0.860055 0.012606
0.982987 0.860055 0.012606
1.000000 0.860055 0.012606
1.000000 0.860055 0.012606
1.000000 0.860055 0.012606
1.000000 0.860055 0.012606
1.000000 0.860055 0.012606
1.000000 0.860055 0.012606
1.000000 0.860055 0.012606
1.000000 0.860055 0.012606
1.000000 0.860055 0.012606
0.012606 0.921759 0.012606
0.018014 0.921759 0.012606
0.025739 0.921759 0.012606
0.036767 0.921759 0.012606
0.051406 0.921759 0.012606
0.068409 0.921759 0.012606
0.088087 0.921759 0.012606
0.110834 0.921759 0.012606
0.137084 0.921759 0.012606
0.167306 0.921759 0.012606
0.201983 0.921759 0.012606
0.241585 0.921759 0.012606
0.286519 0.921759 0.012606
0.337049 0.921759 0.012606
0.393192 0.921759 0.012606
0.454595 0.921759 0.012606
0.520417 0.921759 0.012606
0.589284 0.921759 0.012606
0.659389 0.921759 0.012606
0.728797 0.921759 0.012606
0.795921 0.921759 0.012606
0.860055 0.921759 0.012606
0.921759 0.921759 0.012606
0.982987 0.921759 0.012606
1.000000 0.921759 0.012606
1.000000 0.921759 0.012606
1.000000 0.921759 0.012606
1.000000 0.921759 0.012606
1.000000 0.921759 0.012606
1.000000 0.921759 0.012606
1.000000 0.921759 0.012606
1.000000 0.921759 0.012606
1.000000 0.921759 0.012606
0.012606 0.982987 0.012606
0.018014 0.982987 0.012606
0.025739 0.982987 0.012606
0.036767 0.982987 0.012606
0.051406 0.982987 0.012606
0.068409 0.982987 0.012606
0.088087 0.982987 0.012606
0.110834 0.982987 0.012606
0.137084 0.982987 0.012606
0.167306 0.982987 0.012606
0.201983 0.982987 0.012606
0.241585 0.982987 0.012606
0.286519 0.982987 0.012606
0.337049 0.982987 0.012606
0.393192 0.982987 0.012606
0.454595 0.982987 0.012606
0.520417 0.982987 0.012606
0.589284 0.982987 0.012606
0.659389 0.982987 0.012606
0.728797 0.982987 0.012606
0.795921 0.982987 0.012606
0.860055 0.982987 0.012606
0.921759 0.982987 0.012606
0.982987 0.982987 0.012606
1.000000 0.982987 0.012606
1.000000 0.982987 0.012606
1.000000 0.982987 0.012606
1.000000 0.982987 0.012606
1.000000 0.982987 0.012606
1.000000 0.982987 0.012606
1.000000 0.982987 0.012606
1.000000 0.982987 0.012606
1.000000 0.982987 0.012606
0.012606 1.000000 0.012606
0.018014 1.000000 0.012606
0.025739 1.000000 0.012606
0.036767 1.000000 0.012606
0.051406 1.000000 0.012606
0.068409 1.000000 0.012606
0.088087 1.000000 0.012606
0.110834 1.000000 0.012606
0.137084 1.000000 0.012606
0.167306 1.000000 0.012606
0.201983 1.000000 0.012606
0.241585 1.000000 0.012606
0.286519 1.000000 0.012606
0.337049 1.000000 0.012606
0.393192 1.000000 0.012606
0.454595 1.000000 0.012606
0.520417 1.000000 0.012606
0.589284 1.000000 0.012606
0.659389 1.000000 0.012606
0.728797 1.000000 0.012606
0.795921 1.000000 0.012606
0.860055 1.000000 0.012606
0.921759 1.000000 0.012606
0.982987 1.000000 0.012606
1.000000 1.000000 0.012606
1.000000 1.000000 0.012606
1.000000 1.000000 0.012606
1.000000 1.000000 0.012606
1.000000 1.000000 0.012606
1.000000 1.000000 0.012606
1.000000 1.000000 0.012606
1.000000 1.000000 0.012606
1.000000 1.000000 0.012606
0.012606 1.000000 0.012606
0.018014 1.000000 0.012606
0.025739 1.000000 0.012606
0.036767 1.000000 0.012606
0.051406 1.000000 0.012606
0.068409 1.000000 0.012606
0.088087 1.000000 0.012606
0.110834 1.000000 0.012606
0.137084 1.000000 0.012606
0.167306 1.000000 0.012606
0.201983 1.000000 0.012606
0.241585 1.000000 0.012606
0.286519 1.000000 0.012606
0.337049 1.000000 0.012606
0.393192 1.000000 0.012606
0.454595 1.000000 0.012606
0.520417 1.000000 0.012606
0.589284 1.000000 0.012606
0.659389 1.000000 0.012606
0.728797 1.000000 0.012606
0.795921 1.000000 0.012606
0.860055 1.000000 0.012606
0.921759 1.000000 0.012606
0.982987 1.000000 0.012606
1.000000 1.000000 0.012606
1.000000 1.000000 0.012606
1.000000 1.000000 0.012606
1.000000 1.000000 0.012606
1.000000 1.000000 0.012606
1.000000 1.000000 0.012606
1.000000 1.000000 0.012606
1.000000 1.000000 0.012606
1.000000 1.000000 0.012606
0.012606 1.000000 0.012606
0.018014 1.000000 0.012606
0.025739 1.000000 0.012606
0.036767 1.000000 0.012606
0.051406 1.000000 0.012606
0.068409 1.000000 0.012606
0.088087 1.000000 0.012606
0.110834 1.000000 0.012606
0.137084 1.000000 0.012606
0.167306 1.000000 0.012606
0.201983 1.000000 0.012606
0.241585 1.000000 0.012606
0.286519 1.000000 0.012606
0.337049 1.000000 0.012606
0.393192 1.000000 0.012606
0.454595 1.000000 0.012606
0.520417 1.000000 0.012606
0.589284 1.000000 0.012606
0.659389 1.000000 0.012606
0.728797 1.000000 0.012606
0.795921 1.000000 0.012606
0.860055 1.000000 0.012606
0.921759 1.000000 0.012606
0.982987 1.000000 0.012606
1.000000 1.000000 0.012606
1.000000 1.000000 0.012606
1.000000 1.000000 0.012606
1.000000 1.000000 0.012606
1.000000 1.000000 0.012606
