ep_main/data/luts/02_hable.cube
TITLE "02_hable"
LUT_3D_SIZE 33
0.009668 0.009668 0.009668
0.013822 0.009668 0.009668
0.019761 0.009668 0.009668
0.028252 0.009668 0.009668
0.040393 0.009668 0.009668
0.055714 0.009668 0.009668
0.073490 0.009668 0.009668
0.094109 0.009668 0.009668
0.118007 0.009668 0.009668
0.145670 0.009668 0.009668
0.177621 0.009668 0.009668
0.214399 0.009668 0.009668
0.256522 0.009668 0.009668
0.304430 0.009668 0.009668
0.358401 0.009668 0.009668
0.418443 0.009668 0.009668
0.484145 0.009668 0.009668
0.554522 0.009668 0.009668
0.627903 0.009668 0.009668
0.701938 0.009668 0.009668
0.773815 0.009668 0.009668
0.840686 0.009668 0.009668
0.900186 0.009668 0.009668
0.950857 0.009668 0.009668
0.992292 0.009668 0.009668
1.000000 0.009668 0.009668
1.000000 0.009668 0.009668
1.000000 0.009668 0.009668
1.000000 0.009668 0.009668
1.000000 0.009668 0.009668
1.000000 0.009668 0.009668
1.000000 0.009668 0.009668
1.000000 0.009668 0.009668
0.009668 0.013822 0.009668
0.013822 0.013822 0.009668
0.019761 0.013822 0.009668
0.028252 0.013822 0.009668
0.040393 0.013822 0.009668
0.055714 0.013822 0.009668
0.073490 0.013822 0.009668
0.094109 0.013822 0.009668
0.118007 0.013822 0.009668
0.145670 0.013822 0.009668
0.177621 0.013822 0.009668
0.214399 0.013822 0.009668
0.256522 0.013822 0.009668
0.304430 0.013822 0.009668
0.358401 0.013822 0.009668
0.418443 0.013822 0.009668
0.484145 0.013822 0.009668
0.554522 0.013822 0.009668
0.627903 0.013822 0.009668
0.701938 0.013822 0.009668
0.773815 0.013822 0.009668
0.840686 0.013822 0.009668
0.900186 0.013822 0.009668
0.950857 0.013822 0.009668
0.992292 0.013822 0.009668
1.000000 0.013822 0.009668
1.000000 0.013822 0.009668
1.000000 0.013822 0.009668
1.000000 0.013822 0.009668
1.000000 0.013822 0.009668
1.000000 0.013822 0.009668
1.000000 0.013822 0.009668
1.000000 0.013822 0.009668
0.009668 0.019761 0.009668
0.013822 0.019761 0.009668
0.019761 0.019761 0.009668
0.028252 0.019761 0.009668
0.040393 0.019761 0.009668
0.055714 0.019761 0.009668
0.073490 0.019761 0.009668
0.094109 0.019761 0.009668
0.118007 0.019761 0.009668
0.145670 0.019761 0.009668
0.177621 0.019761 0.009668
0.214399 0.019761 0.009668
0.256522 0.019761 0.009668
0.304430 0.019761 0.009668
0.358401 0.019761 0.009668
0.418443 0.019761 0.009668
0.484145 0.019761 0.009668
0.554522 0.019761 0.009668
0.627903 0.019761 0.009668
0.701938 0.019761 0.009668
0.773815 0.019761 0.009668
0.840686 0.019761 0.009668
0.900186 0.019761 0.009668
0.950857 0.019761 0.009668
0.992292 0.019761 0.009668
1.000000 0.019761 0.009668
1.000000 0.019761 0.009668
1.000000 0.019761 0.009668
1.000000 0.019761 0.009668
1.000000 0.019761 0.009668
1.000000 0.019761 0.009668
1.000000 0.019761 0.009668
1.000000 0.019761 0.009668
0.009668 0.028252 0.009668
0.013822 0.028252 0.009668
0.019761 0.028252 0.009668
0.028252 0.028252 0.009668
0.040393 0.028252 0.009668
0.055714 0.028252 0.009668
0.073490 0.028252 0.009668
0.094109 0.028252 0.009668
0.118007 0.028252 0.009668
0.145670 0.028252 0.009668
0.177621 0.028252 0.009668
0.214399 0.028252 0.009668
0.256522 0.028252 0.009668
0.304430 0.028252 0.009668
0.358401 0.028252 0.009668
0.418443 0.028252 0.009668
0.484145 0.028252 0.009668
0.554522 0.028252 0.009668
0.627903 0.028252 0.009668
0.701938 0.028252 0.009668
0.773815 0.028252 0.009668
0.840686 0.028252 0.009668
0.900186 0.028252 0.009668
0.950857 0.028252 0.009668
0.992292 0.028252 0.009668
1.000000 0.028252 0.009668
1.000000 0.028252 0.009668
1.000000 0.028252 0.009668
1.000000 0.028252 0.009668
1.000000 0.028252 0.009668
1.000000 0.028252 0.009668
1.000000 0.028252 0.009668
1.000000 0.028252 0.009668
0.009668 0.040393 0.009668
0.013822 0.040393 0.009668
0.019761 0.040393 0.009668
0.028252 0.040393 0.009668
0.040393 0.040393 0.009668
0.055714 0.040393 0.009668
0.073490 0.040393 0.009668
0.094109 0.040393 0.009668
0.118007 0.040393 0.009668
0.145670 0.040393 0.009668
0.177621 0.040393 0.009668
0.214399 0.040393 0.009668
0.256522 0.040393 0.009668
0.304430 0.040393 0.009668
0.358401 0.040393 0.009668
0.418443 0.040393 0.009668
0.484145 0.040393 0.009668
0.554522 0.040393 0.009668
0.627903 0.040393 0.009668
0.701938 0.040393 0.009668
0.773815 0.040393 0.009668
0.840686 0.040393 0.009668
0.900186 0.040393 0.009668
0.950857 0.040393 0.009668
0.992292 0.040393 0.009668
1.000000 0.040393 0.009668
1.000000 0.040393 0.009668
1.000000 0.040393 0.009668
1.000000 0.040393 0.009668
1.000000 0.040393 0.009668
1.000000 0.040393 0.009668
1.000000 0.040393 0.009668
1.000000 0.040393 0.009668
0.009668 0.055714 0.009668
0.013822 0.055714 0.009668
0.019761 0.055714 0.009668
0.028252 0.055714 0.009668
0.040393 0.055714 0.009668
0.055714 0.055714 0.009668
0.073490 0.055714 0.009668
0.094109 0.055714 0.009668
0.118007 0.055714 0.009668
0.145670 0.055714 0.009668
0.177621 0.055714 0.009668
0.214399 0.055714 0.009668
0.256522 0.055714 0.009668
0.304430 0.055714 0.009668
0.358401 0.055714 0.009668
0.418443 0.055714 0.009668
0.484145 0.055714 0.009668
0.554522 0.055714 0.009668
0.627903 0.055714 0.009668
0.701938 0.055714 0.009668
0.773815 0.055714 0.009668
0.840686 0.055714 0.009668
0.900186 0.055714 0.009668
0.950857 0.055714 0.009668
0.992292 0.055714 0.009668
1.000000 0.055714 0.009668
1.000000 0.055714 0.009668
1.000000 0.055714 0.009668
1.000000 0.055714 0.009668
1.000000 0.055714 0.009668
1.000000 0.055714 0.009668
1.000000 0.055714 0.009668
1.000000 0.055714 0.009668
0.009668 0.073490 0.009668
0.013822 0.073490 0.009668
0.019761 0.073490 0.009668
0.028252 0.073490 0.009668
0.040393 0.073490 0.009668
0.055714 0.073490 0.009668
0.073490 0.073490 0.009668
0.094109 0.073490 0.009668
0.118007 0.073490 0.009668
0.145670 0.073490 0.009668
0.177621 0.073490 0.009668
0.214399 0.073490 0.009668
0.256522 0.073490 0.009668
0.304430 0.073490 0.009668
0.358401 0.073490 0.009668
0.418443 0.073490 0.009668
0.484145 0.073490 0.009668
0.554522 0.073490 0.009668
0.627903 0.073490 0.009668
0.701938 0.073490 0.009668
0.773815 0.073490 0.009668
0.840686 0.073490 0.009668
0.900186 0.073490 0.009668
0.950857 0.073490 0.009668
0.992292 0.073490 0.009668
1.000000 0.073490 0.009668
1.000000 0.073490 0.009668
1.000000 0.073490 0.009668
1.000000 0.073490 0.009668
1.000000 0.073490 0.009668
1.000000 0.073490 0.009668
1.000000 0.073490 0.009668
1.000000 0.073490 0.009668
0.009668 0.094109 0.009668
0.013822 0.094109 0.009668
0.019761 0.094109 0.009668
0.028252 0.094109 0.009668
0.040393 0.094109 0.009668
0.055714 0.094109 0.009668
0.073490 0.094109 0.009668
0.094109 0.094109 0.009668
0.118007 0.094109 0.009668
0.145670 0.094109 0.009668
0.177621 0.094109 0.009668
0.214399 0.094109 0.009668
0.256522 0.094109 0.009668
0.304430 0.094109 0.009668
0.358401 0.094109 0.009668
0.418443 0.094109 0.009668
0.484145 0.094109 0.009668
0.554522 0.094109 0.009668
0.627903 0.094109 0.009668
0.701938 0.094109 0.009668
0.773815 0.094109 0.009668
0.840686 0.094109 0.009668
0.900186 0.094109 0.009668
0.950857 0.094109 0.009668
0.992292 0.094109 0.009668
1.000000 0.094109 0.009668
1.000000 0.094109 0.009668
1.000000 0.094109 0.009668
1.000000 0.094109 0.009668
1.000000 0.094109 0.009668
1.000000 0.094109 0.009668
1.000000 0.094109 0.009668
1.000000 0.094109 0.009668
0.009668 0.118007 0.009668
0.013822 0.118007 0.009668
0.019761 0.118007 0.009668
0.028252 0.118007 0.009668
0.040393 0.118007 0.009668
0.055714 0.118007 0.009668
0.073490 0.118007 0.009668
0.094109 0.118007 0.009668
0.118007 0.118007 0.009668
0.145670 0.118007 0.009668
0.177621 0.118007 0.009668
0.214399 0.118007 0.009668
0.256522 0.118007 0.009668
0.304430 0.118007 0.009668
0.358401 0.118007 0.009668
0.418443 0.118007 0.009668
0.484145 0.118007 0.009668
0.554522 0.118007 0.009668
0.627903 0.118007 0.009668
0.701938 0.118007 0.009668
0.773815 0.118007 0.009668
0.840686 0.118007 0.009668
0.900186 0.118007 0.009668
0.950857 0.118007 0.009668
0.992292 0.118007 0.009668
1.000000 0.118007 0.009668
1.000000 0.118007 0.009668
1.000000 0.118007 0.009668
1.000000 0.118007 0.009668
1.000000 0.118007 0.009668
1.000000 0.118007 0.009668
1.000000 0.118007 0.009668
1.000000 0.118007 0.009668
0.009668 0.145670 0.009668
0.013822 0.145670 0.009668
0.019761 0.145670 0.009668
0.028252 0.145670 0.009668
0.040393 0.145670 0.009668
0.055714 0.145670 0.009668
0.073490 0.145670 0.009668
0.094109 0.145670 0.009668
0.118007 0.145670 0.009668
0.145670 0.145670 0.009668
0.177621 0.145670 0.009668
0.214399 0.145670 0.009668
0.256522 0.145670 0.009668
0.304430 0.145670 0.009668
0.358401 0.145670 0.009668
0.418443 0.145670 0.009668
0.484145 0.145670 0.009668
0.554522 0.145670 0.009668
0.627903 0.145670 0.009668
0.701938 0.145670 0.009668
0.773815 0.145670 0.009668
0.840686 0.145670 0.009668
0.900186 0.145670 0.009668
0.950857 0.145670 0.009668
0.992292 0.145670 0.009668
1.000000 0.145670 0.009668
1.000000 0.145670 0.009668
1.000000 0.145670 0.009668
1.000000 0.145670 0.009668
1.000000 0.145670 0.009668
1.000000 0.145670 0.009668
1.000000 0.145670 0.009668
1.000000 0.145670 0.009668
0.009668 0.177621 0.009668
0.013822 0.177621 0.009668
0.019761 0.177621 0.009668
0.028252 0.177621 0.009668
0.040393 0.177621 0.009668
0.055714 0.177621 0.009668
0.073490 0.177621 0.009668
0.094109 0.177621 0.009668
0.118007 0.177621 0.009668
0.145670 0.177621 0.009668
0.177621 0.177621 0.009668
0.214399 0.177621 0.009668
0.256522 0.177621 0.009668
0.304430 0.177621 0.009668
0.358401 0.177621 0.009668
0.418443 0.177621 0.009668
0.484145 0.177621 0.009668
0.554522 0.177621 0.009668
0.627903 0.177621 0.009668
0.701938 0.177621 0.009668
0.773815 0.177621 0.009668
0.840686 0.177621 0.009668
0.900186 0.177621 0.009668
0.950857 0.177621 0.009668
0.992292 0.177621 0.009668
1.000000 0.177621 0.009668
1.000000 0.177621 0.009668
1.000000 0.177621 0.009668
1.000000 0.177621 0.009668
1.000000 0.177621 0.009668
1.000000 0.177621 0.009668
1.000000 0.177621 0.009668
1.000000 0.177621 0.009668
0.009668 0.214399 0.009668
0.013822 0.214399 0.009668
0.019761 0.214399 0.009668
0.028252 0.214399 0.009668
0.040393 0.214399 0.009668
0.055714 0.214399 0.009668
0.073490 0.214399 0.009668
0.094109 0.214399 0.009668
0.118007 0.214399 0.009668
0.145670 0.214399 0.009668
0.177621 0.214399 0.009668
0.214399 0.214399 0.009668
0.256522 0.214399 0.009668
0.304430 0.214399 0.009668
0.358401 0.214399 0.009668
0.418443 0.214399 0.009668
0.484145 0.214399 0.009668
0.554522 0.214399 0.009668
0.627903 0.214399 0.009668
0.701938 0.214399 0.009668
0.773815 0.214399 0.009668
0.840686 0.214399 0.009668
0.900186 0.214399 0.009668
0.950857 0.214399 0.009668
0.992292 0.214399 0.009668
1.000000 0.214399 0.009668
1.000000 0.214399 0.009668
1.000000 0.214399 0.009668
1.000000 0.214399 0.009668
1.000000 0.214399 0.009668
1.000000 0.214399 0.009668
1.000000 0.214399 0.009668
1.000000 0.214399 0.009668
0.009668 0.256522 0.009668
0.013822 0.256522 0.009668
0.019761 0.256522 0.009668
0.028252 0.256522 0.009668
0.040393 0.256522 0.009668
0.055714 0.256522 0.009668
0.073490 0.256522 0.009668
0.094109 0.256522 0.009668
0.118007 0.256522 0.009668
0.145670 0.256522 0.009668
0.177621 0.256522 0.009668
0.214399 0.256522 0.009668
0.256522 0.256522 0.009668
0.304430 0.256522 0.009668
0.358401 0.256522 0.009668
0.418443 0.256522 0.009668
0.484145 0.256522 0.009668
0.554522 0.256522 0.009668
0.627903 0.256522 0.009668
0.701938 0.256522 0.009668
0.773815 0.256522 0.009668
0.840686 0.256522 0.009668
0.900186 0.256522 0.009668
0.950857 0.256522 0.009668
0.992292 0.256522 0.009668
1.000000 0.256522 0.009668
1.000000 0.256522 0.009668
1.000000 0.256522 0.009668
1.000000 0.256522 0.009668
1.000000 0.256522 0.009668
1.000000 0.256522 0.009668
1.000000 0.256522 0.009668
1.000000 0.256522 0.009668
0.009668 0.304430 0.009668
0.013822 0.304430 0.009668
0.019761 0.304430 0.009668
0.028252 0.304430 0.009668
0.040393 0.304430 0.009668
0.055714 0.304430 0.009668
0.073490 0.304430 0.009668
0.094109 0.304430 0.009668
0.118007 0.304430 0.009668
0.145670 0.304430 0.009668
0.177621 0.304430 0.009668
0.214399 0.304430 0.009668
0.256522 0.304430 0.009668
0.304430 0.304430 0.009668
0.358401 0.304430 0.009668
0.418443 0.304430 0.009668
0.484145 0.304430 0.009668
0.554522 0.304430 0.009668
0.627903 0.304430 0.009668
0.701938 0.304430 0.009668
0.773815 0.304430 0.009668
0.840686 0.304430 0.009668
0.900186 0.304430 0.009668
0.950857 0.304430 0.009668
0.992292 0.304430 0.009668
1.000000 0.304430 0.009668
1.000000 0.304430 0.009668
1.000000 0.304430 0.009668
1.000000 0.304430 0.009668
1.000000 0.304430 0.009668
1.000000 0.304430 0.009668
1.000000 0.304430 0.009668
1.000000 0.304430 0.009668
0.009668 0.358401 0.009668
0.013822 0.358401 0.009668
0.019761 0.358401 0.009668
0.028252 0.358401 0.009668
0.040393 0.358401 0.009668
0.055714 0.358401 0.009668
0.073490 0.358401 0.009668
0.094109 0.358401 0.009668
0.118007 0.358401 0.009668
0.145670 0.358401 0.009668
0.177621 0.358401 0.009668
0.214399 0.358401 0.009668
0.256522 0.358401 0.009668
0.304430 0.358401 0.009668
0.358401 0.358401 0.009668
0.418443 0.358401 0.009668
0.484145 0.358401 0.009668
0.554522 0.358401 0.009668
0.627903 0.358401 0.009668
0.701938 0.358401 0.009668
0.773815 0.358401 0.009668
0.840686 0.358401 0.009668
0.900186 0.358401 0.009668
0.950857 0.358401 0.009668
0.992292 0.358401 0.009668
1.000000 0.358401 0.009668
1.000000 0.358401 0.009668
1.000000 0.358401 0.009668
1.000000 0.358401 0.009668
1.000000 0.358401 0.009668
1.000000 0.358401 0.009668
1.000000 0.358401 0.009668
1.000000 0.358401 0.009668
0.009668 0.418443 0.009668
0.013822 0.418443 0.009668
0.019761 0.418443 0.009668
0.028252 0.418443 0.009668
0.040393 0.418443 0.009668
0.055714 0.418443 0.009668
0.073490 0.418443 0.009668
0.094109 0.418443 0.009668
0.118007 0.418443 0.009668
0.145670 0.418443 0.009668
0.177621 0.418443 0.009668
0.214399 0.418443 0.009668
0.256522 0.418443 0.009668
0.304430 0.418443 0.009668
0.358401 0.418443 0.009668
0.418443 0.418443 0.009668
0.484145 0.418443 0.009668
0.554522 0.418443 0.009668
0.627903 0.418443 0.009668
0.701938 0.418443 0.009668
0.773815 0.418443 0.009668
0.840686 0.418443 0.009668
0.900186 0.418443 0.009668
0.950857 0.418443 0.009668
0.992292 0.418443 0.009668
1.000000 0.418443 0.009668
1.000000 0.418443 0.009668
1.000000 0.418443 0.009668
1.000000 0.418443 0.009668
1.000000 0.418443 0.009668
1.000000 0.418443 0.009668
1.000000 0.418443 0.009668
1.000000 0.418443 0.009668
0.009668 0.484145 0.009668
0.013822 0.484145 0.009668
0.019761 0.484145 0.009668
0.028252 0.484145 0.009668
0.040393 0.484145 0.009668
0.055714 0.484145 0.009668
0.073490 0.484145 0.009668
0.094109 0.484145 0.009668
0.118007 0.484145 0.009668
0.145670 0.484145 0.009668
0.177621 0.484145 0.009668
0.214399 0.484145 0.009668
0.256522 0.484145 0.009668
0.304430 0.484145 0.009668
0.358401 0.484145 0.009668
0.418443 0.484145 0.009668
0.484145 0.484145 0.009668
0.554522 0.484145 0.009668
0.627903 0.484145 0.009668
0.701938 0.484145 0.009668
0.773815 0.484145 0.009668
0.840686 0.484145 0.009668
0.900186 0.484145 0.009668
0.950857 0.484145 0.009668
0.992292 0.484145 0.009668
1.000000 0.484145 0.009668
1.000000 0.484145 0.009668
1.000000 0.484145 0.009668
1.000000 0.484145 0.009668
1.000000 0.484145 0.009668
1.000000 0.484145 0.009668
1.000000 0.484145 0.009668
1.000000 0.484145 0.009668
0.009668 0.554522 0.009668
0.013822 0.554522 0.009668
0.019761 0.554522 0.009668
0.028252 0.554522 0.009668
0.040393 0.554522 0.009668
0.055714 0.554522 0.009668
0.073490 0.554522 0.009668
0.094109 0.554522 0.009668
0.118007 0.554522 0.009668
0.145670 0.554522 0.009668
0.177621 0.554522 0.009668
0.214399 0.554522 0.009668
0.256522 0.554522 0.009668
0.304430 0.554522 0.009668
0.358401 0.554522 0.009668
0.418443 0.554522 0.009668
0.484145 0.554522 0.009668
0.554522 0.554522 0.009668
0.627903 0.554522 0.009668
0.701938 0.554522 0.009668
0.773815 0.554522 0.009668
0.840686 0.554522 0.009668
0.900186 0.554522 0.009668
0.950857 0.554522 0.009668
0.992292 0.554522 0.009668
1.000000 0.554522 0.009668
1.000000 0.554522 0.009668
1.000000 0.554522 0.009668
1.000000 0.554522 0.009668
1.000000 0.554522 0.009668
1.000000 0.554522 0.009668
1.000000 0.554522 0.009668
1.000000 0.554522 0.009668
0.009668 0.627903 0.009668
0.013822 0.627903 0.009668
0.019761 0.627903 0.009668
0.028252 0.627903 0.009668
0.040393 0.627903 0.009668
0.055714 0.627903 0.009668
0.073490 0.627903 0.009668
0.094109 0.627903 0.009668
0.118007 0.627903 0.009668
0.145670 0.627903 0.009668
0.177621 0.627903 0.009668
0.214399 0.627903 0.009668
0.256522 0.627903 0.009668
0.304430 0.627903 0.009668
0.358401 0.627903 0.009668
0.418443 0.627903 0.009668
0.484145 0.627903 0.009668
0.554522 0.627903 0.009668
0.627903 0.627903 0.009668
0.701938 0.627903 0.009668
0.773815 0.627903 0.009668
0.840686 0.627903 0.009668
0.900186 0.627903 0.009668
0.950857 0.627903 0.009668
0.992292 0.627903 0.009668
1.000000 0.627903 0.009668
1.000000 0.627903 0.009668
1.000000 0.627903 0.009668
1.000000 0.627903 0.009668
1.000000 0.627903 0.009668
1.000000 0.627903 0.009668
1.000000 0.627903 0.009668
1.000000 0.627903 0.009668
0.009668 0.701938 0.009668
0.013822 0.701938 0.009668
0.019761 0.701938 0.009668
0.028252 0.701938 0.009668
0.040393 0.701938 0.009668
0.055714 0.701938 0.009668
0.073490 0.701938 0.009668
0.094109 0.701938 0.009668
0.118007 0.701938 0.009668
0.145670 0.701938 0.009668
0.177621 0.701938 0.009668
0.214399 0.701938 0.009668
0.256522 0.701938 0.009668
0.304430 0.701938 0.009668
0.358401 0.701938 0.009668
0.418443 0.701938 0.009668
0.484145 0.701938 0.009668
0.554522 0.701938 0.009668
0.627903 0.701938 0.009668
0.701938 0.701938 0.009668
0.773815 0.701938 0.009668
0.840686 0.701938 0.009668
0.900186 0.701938 0.009668
0.950857 0.701938 0.009668
0.992292 0.701938 0.009668
1.000000 0.701938 0.009668
1.000000 0.701938 0.009668
1.000000 0.701938 0.009668
1.000000 0.701938 0.009668
1.000000 0.701938 0.009668
1.000000 0.701938 0.009668
1.000000 0.701938 0.009668
1.000000 0.701938 0.009668
0.009668 0.773815 0.009668
0.013822 0.773815 0.009668
0.019761 0.773815 0.009668
0.028252 0.773815 0.009668
0.040393 0.773815 0.009668
0.055714 0.773815 0.009668
0.073490 0.773815 0.009668
0.094109 0.773815 0.009668
0.118007 0.773815 0.009668
0.145670 0.773815 0.009668
0.177621 0.773815 0.009668
0.214399 0.773815 0.009668
0.256522 0.773815 0.009668
0.304430 0.773815 0.009668
0.358401 0.773815 0.009668
0.418443 0.773815 0.009668
0.484145 0.773815 0.009668
0.554522 0.773815 0.009668
0.627903 0.773815 0.009668
0.701938 0.773815 0.009668
0.773815 0.773815 0.009668
0.840686 0.773815 0.009668
0.900186 0.773815 0.009668
0.950857 0.773815 0.009668
0.992292 0.773815 0.009668
1.000000 0.773815 0.009668
1.000000 0.773815 0.009668
1.000000 0.773815 0.009668
1.000000 0.773815 0.009668
1.000000 0.773815 0.009668
1.000000 0.773815 0.009668
1.000000 0.773815 0.009668
1.000000 0.773815 0.009668
0.009668 0.840686 0.009668
0.013822 0.840686 0.009668
0.019761 0.840686 0.009668
0.028252 0.840686 0.009668
0.040393 0.840686 0.009668
0.055714 0.840686 0.009668
0.073490 0.840686 0.009668
0.094109 0.840686 0.009668
0.118007 0.840686 0.009668
0.145670 0.840686 0.009668
0.177621 0.840686 0.009668
0.214399 0.840686 0.009668
0.256522 0.840686 0.009668
0.304430 0.840686 0.009668
0.358401 0.840686 0.009668
0.418443 0.840686 0.009668
0.484145 0.840686 0.009668
0.554522 0.840686 0.009668
0.627903 0.840686 0.009668
0.701938 0.840686 0.009668
0.773815 0.840686 0.009668
0.840686 0.840686 0.009668
0.900186 0.840686 0.009668
0.950857 0.840686 0.009668
0.992292 0.840686 0.009668
1.000000 0.840686 0.009668
1.000000 0.840686 0.009668
1.000000 0.840686 0.009668
1.000000 0.840686 0.009668
1.000000 0.840686 0.009668
1.000000 0.840686 0.009668
1.000000 0.840686 0.009668
1.000000 0.840686 0.009668
0.009668 0.900186 0.009668
0.013822 0.900186 0.009668
0.019761 0.900186 0.009668
0.028252 0.900186 0.009668
0.040393 0.900186 0.009668
0.055714 0.900186 0.009668
0.073490 0.900186 0.009668
0.094109 0.900186 0.009668
0.118007 0.900186 0.009668
0.145670 0.900186 0.009668
0.177621 0.900186 0.009668
0.214399 0.900186 0.009668
0.256522 0.900186 0.009668
0.304430 0.900186 0.009668
0.358401 0.900186 0.009668
0.418443 0.900186 0.009668
0.484145 0.900186 0.009668
0.554522 0.900186 0.009668
0.627903 0.900186 0.009668
0.701938 0.900186 0.009668
0.773815 0.900186 0.009668
0.840686 0.900186 0.009668
0.900186 0.900186 0.009668
0.950857 0.900186 0.009668
0.992292 0.900186 0.009668
1.000000 0.900186 0.009668
1.000000 0.900186 0.009668
1.000000 0.900186 0.009668
1.000000 0.900186 0.009668
1.000000 0.900186 0.009668
1.000000 0.900186 0.009668
1.000000 0.900186 0.009668
1.000000 0.900186 0.009668
0.009668 0.950857 0.009668
0.013822 0.950857 0.009668
0.019761 0.950857 0.009668
0.028252 0.950857 0.009668
0.040393 0.950857 0.009668
0.055714 0.950857 0.009668
0.073490 0.950857 0.009668
0.094109 0.950857 0.009668
0.118007 0.950857 0.009668
0.145670 0.950857 0.009668
0.177621 0.950857 0.009668
0.214399 0.950857 0.009668
0.256522 0.950857 0.009668
0.304430 0.950857 0.009668
0.358401 0.950857 0.009668
0.418443 0.950857 0.009668
0.484145 0.950857 0.009668
0.554522 0.950857 0.009668
0.627903 0.950857 0.009668
0.701938 0.950857 0.009668
0.773815 0.950857 0.009668
0.840686 0.950857 0.009668
0.900186 0.950857 0.009668
0.950857 0.950857 0.009668
0.992292 0.950857 0.009668
1.000000 0.950857 0.009668
1.000000 0.950857 0.009668
1.000000 0.950857 0.009668
1.000000 0.950857 0.009668
1.000000 0.950857 0.009668
1.000000 0.950857 0.009668
1.000000 0.950857 0.009668
1.000000 0.950857 0.009668
0.009668 0.992292 0.009668
0.013822 0.992292 0.009668
0.019761 0.992292 0.009668
0.028252 0.992292 0.009668
0.040393 0.992292 0.009668
0.055714 0.992292 0.009668
0.073490 0.992292 0.009668
0.094109 0.992292 0.009668
0.118007 0.992292 0.009668
0.145670 0.992292 0.009668
0.177621 0.992292 0.009668
0.214399 0.992292 0.009668
0.256522 0.992292 0.009668
0.304430 0.992292 0.009668
0.358401 0.992292 0.009668
0.418443 0.992292 0.009668
0.484145 0.992292 0.009668
0.554522 0.992292 0.009668
0.627903 0.992292 0.009668
0.701938 0.992292 0.009668
0.773815 0.992292 0.009668
0.840686 0.992292 0.009668
0.900186 0.992292 0.009668
0.950857 0.992292 0.009668
0.992292 0.992292 0.009668
1.000000 0.992292 0.009668
1.000000 0.992292 0.009668
1.000000 0.992292 0.009668
1.000000 0.992292 0.009668
1.000000 0.992292 0.009668
1.000000 0.992292 0.009668
1.000000 0.992292 0.009668
1.000000 0.992292 0.009668
0.009668 1.000000 0.009668
0.013822 1.000000 0.009668
0.019761 1.000000 0.009668
0.028252 1.000000 0.009668
0.040393 1.000000 0.009668
0.055714 1.000000 0.009668
0.073490 1.000000 0.009668
0.094109 1.000000 0.009668
0.118007 1.000000 0.009668
0.145670 1.000000 0.009668
0.177621 1.000000 0.009668
0.214399 1.000000 0.009668
0.256522 1.000000 0.009668
0.304430 1.000000 0.009668
0.358401 1.000000 0.009668
0.418443 1.000000 0.009668
0.484145 1.000000 0.009668
0.554522 1.000000 0.009668
0.627903 1.000000 0.009668
0.701938 1.000000 0.009668
0.773815 1.000000 0.009668
0.840686 1.000000 0.009668
0.900186 1.000000 0.009668
0.950857 1.000000 0.009668
0.992292 1.000000 0.009668
1.000000 1.000000 0.009668
1.000000 1.000000 0.009668
1.000000 1.000000 0.009668
1.000000 1.000000 0.009668
1.000000 1.000000 0.009668
1.000000 1.000000 0.009668
1.000000 1.000000 0.009668
1.000000 1.000000 0.009668
0.009668 1.000000 0.009668
0.013822 1.000000 0.009668
0.019761 1.000000 0.009668
0.028252 1.000000 0.009668
0.040393 1.000000 0.009668
0.055714 1.000000 0.009668
0.073490 1.000000 0.009668
0.094109 1.000000 0.009668
0.118007 1.000000 0.009668
0.145670 1.000000 0.009668
0.177621 1.000000 0.009668
0.214399 1.000000 0.009668
0.256522 1.000000 0.009668
0.304430 1.000000 0.009668
0.358401 1.000000 0.009668
0.418443 1.000000 0.009668
0.484145 1.000000 0.009668
0.554522 1.000000 0.009668
0.627903 1.000000 0.009668
0.701938 1.000000 0.009668
0.773815 1.000000 0.009668
0.840686 1.000000 0.009668
0.900186 1.000000 0.009668
0.950857 1.000000 0.009668
0.992292 1.000000 0.009668
1.000000 1.000000 0.009668
1.000000 1.000000 0.009668
1.000000 1.000000 0.009668
1.000000 1.000000 0.009668
