ep_main/data/luts/02_hable.cube
TITLE "02_hable"
LUT_3D_SIZE 5
0.009668 0.009668 0.009668
0.118007 0.009668 0.009668
0.484145 0.009668 0.009668
0.992292 0.009668 0.009668
1.000000 0.009668 0.009668
0.009668 0.118007 0.009668
0.118007 0.118007 0.009668
0.484145 0.118007 0.009668
0.992292 0.118007 0.009668
1.000000 0.118007 0.009668
0.009668 0.484145 0.009668
0.118007 0.484145 0.009668
0.484145 0.484145 0.009668
0.992292 0.484145 0.009668
1.000000 0.484145 0.009668
0.009668 0.992292 0.009668
0.118007 0.992292 0.009668
0.484145 0.992292 0.009668
0.992292 0.992292 0.009668
1.000000 0.992292 0.009668
0.009668 1.000000 0.009668
0.118007 1.000000 0.009668
0.484145 1.000000 0.009668
0.992292 1.000000 0.009668
1.000000 1.000000 0.009668
0.009668 0.009668 0.118007
0.118007 0.009668 0.118007
0.484145 0.009668 0.118007
0.992292 0.009668 0.118007
1.000000 0.009668 0.118007
0.009668 0.118007 0.118007
0.118007 0.118007 0.118007
0.484145 0.118007 0.118007
0.992292 0.118007 0.118007
1.000000 0.118007 0.118007
0.009668 0.484145 0.118007
0.118007 0.484145 0.118007
0.484145 0.484145 0.118007
0.992292 0.484145 0.118007
1.000000 0.484145 0.118007
0.009668 0.992292 0.118007
0.118007 0.992292 0.118007
0.484145 0.992292 0.118007
0.992292 0.992292 0.118007
1.000000 0.992292 0.118007
0.009668 1.000000 0.118007
0.118007 1.000000 0.118007
0.484145 1.000000 0.118007
0.992292 1.000000 0.118007
1.000000 1.000000 0.118007
0.009668 0.009668 0.484145
0.118007 0.009668 0.484145
0.484145 0.009668 0.484145
0.992292 0.009668 0.484145
1.000000 0.009668 0.484145
0.009668 0.118007 0.484145
0.118007 0.118007 0.484145
0.484145 0.118007 0.484145
0.992292 0.118007 0.484145
1.000000 0.118007 0.484145
0.009668 0.484145 0.484145
0.118007 0.484145 0.484145
0.484145 0.484145 0.484145
0.992292 0.484145 0.484145
1.000000 0.484145 0.484145
0.009668 0.992292 0.484145
0.118007 0.992292 0.484145
0.484145 0.992292 0.484145
0.992292 0.992292 0.484145
1.000000 0.992292 0.484145
0.009668 1.000000 0.484145
0.118007 1.000000 0.484145
0.484145 1.000000 0.484145
0.992292 1.000000 0.484145
1.000000 1.000000 0.484145
0.009668 0.009668 0.992292
0.118007 0.009668 0.992292
0.484145 0.009668 0.992292
0.992292 0.009668 0.992292
1.000000 0.009668 0.992292
0.009668 0.118007 0.992292
0.118007 0.118007 0.992292
0.484145 0.118007 0.992292
0.992292 0.118007 0.992292
1.000000 0.118007 0.992292
0.009668 0.484145 0.992292
0.118007 0.484145 0.992292
0.484145 0.484145 0.992292
0.992292 0.484145 0.992292
1.000000 0.484145 0.992292
0.009668 0.992292 0.992292
0.118007 0.992292 0.992292
0.484145 0.992292 0.992292
0.992292 0.992292 0.992292
1.000000 0.992292 0.992292
0.009668 1.000000 0.992292
0.118007 1.000000 0.992292
0.484145 1.000000 0.992292
0.992292 1.000000 0.992292
1.000000 1.000000 0.992292
0.009668 0.009668 1.000000
0.118007 0.009668 1.000000
0.484145 0.009668 1.000000
0.992292 0.009668 1.000000
1.000000 0.009668 1.000000
0.009668 0.118007 1.000000
0.118007 0.118007 1.000000
0.484145 0.118007 1.000000
0.992292 0.118007 1.000000
1.000000 0.118007 1.000000
0.009668 0.484145 1.000000
0.118007 0.484145 1.000000
0.484145 0.484145 1.000000
0.992292 0.484145 1.000000
1.000000 0.484145 1.000000
0.009668 0.992292 1.000000
0.118007 0.992292 1.000000
0.484145 0.992292 1.000000
0.992292 0.992292 1.000000
1.000000 0.992292 1.000000
0.009668 1.000000 1.000000
0.118007 1.000000 1.000000
0.484145 1.000000 1.000000
0.992292 1.000000 1.000000
1.000000 1.000000 1.000000
