ep_main/data/luts/03_agx.cube
TITLE "03_agx"
LUT_3D_SIZE 9
0.015335 0.015337 0.015337
0.046539 0.015414 0.015414
0.150458 0.016617 0.016619
0.361465 0.031168 0.031190
0.641734 0.099925 0.100012
0.892036 0.264905 0.265080
1.000000 0.511813 0.512041
1.000000 0.762620 0.762819
1.000000 0.927703 0.927809
0.015449 0.046514 0.015450
0.046484 0.046486 0.015475
0.149440 0.047488 0.016685
0.359505 0.060061 0.031401
0.640074 0.119838 0.100160
0.891261 0.273596 0.265127
1.000000 0.514346 0.512052
1.000000 0.763118 0.762821
1.000000 0.927760 0.927809
0.017803 0.149031 0.017805
0.048396 0.148497 0.017881
0.147485 0.147492 0.019467
0.353780 0.151820 0.034495
0.634460 0.187636 0.101924
0.888301 0.306696 0.265568
1.000000 0.524600 0.512125
1.000000 0.765177 0.762831
1.000000 0.927998 0.927810
0.044548 0.353450 0.044556
0.070600 0.352558 0.044700
0.155441 0.349892 0.046280
0.345976 0.346005 0.058819
0.621281 0.352551 0.116800
0.879079 0.408503 0.270033
1.000000 0.562513 0.512800
1.000000 0.773435 0.762901
1.000000 0.928977 0.927815
0.146469 0.621663 0.146502
0.161202 0.621049 0.146576
0.214327 0.618860 0.147231
0.358556 0.613175 0.152981
0.605457 0.605530 0.186562
0.860152 0.610731 0.300728
1.000000 0.668884 0.519283
1.000000 0.802874 0.763571
1.000000 0.932851 0.927854
0.349961 0.861303 0.350041
0.355312 0.861062 0.350064
0.376428 0.860111 0.350213
0.448268 0.856865 0.351503
0.616978 0.849183 0.361795
0.839239 0.839369 0.413716
0.986673 0.839856 0.559006
1.000000 0.876181 0.769797
1.000000 0.945971 0.928245
0.613394 0.988201 0.613536
0.614718 0.988138 0.613541
0.620148 0.987883 0.613568
0.641216 0.986887 0.613749
0.708768 0.983635 0.615335
0.843504 0.976673 0.627285
0.968100 0.968280 0.680837
1.000000 0.963436 0.803650
1.000000 0.974751 0.931589
0.841663 1.000000 0.841857
0.841875 1.000000 0.841858
0.842755 1.000000 0.841862
0.846343 1.000000 0.841882
0.859937 1.000000 0.842024
0.899957 1.000000 0.843292
0.963142 1.000000 0.852147
1.000000 1.000000 0.885778
1.000000 1.000000 0.947023
0.962321 1.000000 0.962543
0.962340 1.000000 0.962543
0.962420 1.000000 0.962543
0.962754 1.000000 0.962544
0.964108 1.000000 0.962552
0.969200 1.000000 0.962608
0.984698 1.000000 0.963071
1.000000 1.000000 0.966713
0.999977 1.000000 0.980407
0.015450 0.015451 0.046513
0.046484 0.015475 0.046485
0.149430 0.016685 0.047489
0.359486 0.031382 0.060079
0.640058 0.100077 0.119915
0.891254 0.264954 0.273765
1.000000 0.511825 0.514572
1.000000 0.762622 0.763316
1.000000 0.927703 0.927866
0.015487 0.046461 0.046461
0.046429 0.046431 0.046431
0.148416 0.047446 0.047448
0.357572 0.060015 0.060033
0.638425 0.119840 0.119915
0.890485 0.273618 0.273785
1.000000 0.514356 0.514581
1.000000 0.763120 0.763318
1.000000 0.927760 0.927866
0.017952 0.148036 0.048385
0.048369 0.147511 0.048372
0.146550 0.146558 0.049516
0.352011 0.151036 0.062006
0.632905 0.187241 0.121069
0.887543 0.306625 0.274114
1.000000 0.524600 0.514643
1.000000 0.765179 0.763328
1.000000 0.927998 0.927867
0.044820 0.351792 0.070613
0.070615 0.350923 0.070624
0.154789 0.348335 0.071645
0.344631 0.344661 0.081977
0.619975 0.351697 0.133707
0.878383 0.408230 0.278129
1.000000 0.562478 0.515274
1.000000 0.773434 0.763395
1.000000 0.928977 0.927872
0.146609 0.620519 0.161260
0.161258 0.619913 0.161291
0.214129 0.617751 0.161766
0.357936 0.612151 0.166786
0.604652 0.604725 0.197955
0.859607 0.610321 0.307332
1.000000 0.668785 0.521581
1.000000 0.802865 0.764054
1.000000 0.932851 0.927910
0.350005 0.860853 0.355407
0.355344 0.860613 0.355425
0.376420 0.859666 0.355550
0.448147 0.856434 0.356741
0.616707 0.848794 0.366645
0.838955 0.839085 0.417392
0.986524 0.839734 0.560753
1.000000 0.876159 0.770235
1.000000 0.945970 0.928299
0.613405 0.988084 0.614864
0.614728 0.988022 0.614869
0.620154 0.987767 0.614894
0.641210 0.986772 0.615068
0.708729 0.983525 0.616622
0.843429 0.976576 0.628447
0.968034 0.968214 0.681645
1.000000 0.963412 0.803955
1.000000 0.974748 0.931637
0.841665 1.000000 0.842070
0.841877 1.000000 0.842071
0.842757 1.000000 0.842075
0.846344 1.000000 0.842094
0.859935 1.000000 0.842234
0.899949 1.000000 0.843495
0.963129 1.000000 0.852325
1.000000 1.000000 0.885887
1.000000 1.000000 0.947053
0.962321 1.000000 0.962562
0.962340 1.000000 0.962562
0.962421 1.000000 0.962562
0.962754 1.000000 0.962564
0.964108 1.000000 0.962572
0.969200 1.000000 0.962628
0.984697 1.000000 0.963089
1.000000 1.000000 0.966729
0.999976 1.000000 0.980417
0.017831 0.017831 0.149005
0.048416 0.017908 0.148471
0.147458 0.019496 0.147467
0.353708 0.034509 0.151808
0.634392 0.101863 0.187678
0.888266 0.265404 0.306839
1.000000 0.511900 0.524815
1.000000 0.762633 0.765373
1.000000 0.927704 0.928103
0.017981 0.048404 0.148020
0.048390 0.048391 0.147495
0.146533 0.049535 0.146543
0.351959 0.062009 0.151033
0.632853 0.121009 0.187287
0.887516 0.273955 0.306767
1.000000 0.514420 0.524813
1.000000 0.763130 0.765374
1.000000 0.927761 0.928103
0.021090 0.146294 0.146297
0.050549 0.145826 0.145828
0.145084 0.145093 0.145094
0.346930 0.149956 0.149963
0.627640 0.186741 0.186789
0.884647 0.306571 0.306710
1.000000 0.524622 0.524833
1.000000 0.765186 0.765381
1.000000 0.927999 0.928104
0.047799 0.346983 0.154712
0.072545 0.346190 0.154391
0.153979 0.343843 0.153994
0.340720 0.340753 0.158616
0.615489 0.349084 0.193084
0.875712 0.407318 0.309158
1.000000 0.562360 0.525289
1.000000 0.773430 0.765437
1.000000 0.928978 0.928109
0.147850 0.616492 0.214180
0.162158 0.615913 0.214083
0.213981 0.613849 0.214016
0.355987 0.608530 0.216797
0.601743 0.601819 0.240240
0.857495 0.608769 0.333026
1.000000 0.668397 0.530902
1.000000 0.802828 0.766049
1.000000 0.932850 0.928145
0.350286 0.859084 0.376533
0.355581 0.858848 0.376530
0.376487 0.857917 0.376568
0.447740 0.854740 0.377392
0.615662 0.847261 0.385842
0.837822 0.837953 0.432109
0.985917 0.839236 0.567882
1.000000 0.876065 0.772047
1.000000 0.945964 0.928527
0.613456 0.987607 0.620307
0.614776 0.987545 0.620311
0.620187 0.987291 0.620329
0.641191 0.986302 0.620471
0.708572 0.983073 0.621895
0.843122 0.976176 0.633218
0.967761 0.967941 0.684976
1.000000 0.963315 0.805221
1.000000 0.974736 0.931837
0.841672 1.000000 0.842953
0.841884 1.000000 0.842954
0.842763 1.000000 0.842957
0.846347 1.000000 0.842975
0.859928 1.000000 0.843108
0.899916 1.000000 0.844341
0.963075 1.000000 0.853064
1.000000 1.000000 0.886342
1.000000 1.000000 0.947178
0.962322 1.000000 0.962642
0.962341 1.000000 0.962642
0.962421 1.000000 0.962643
0.962754 1.000000 0.962644
0.964108 1.000000 0.962652
0.969199 1.000000 0.962707
0.984695 1.000000 0.963166
1.000000 1.000000 0.966796
0.999972 1.000000 0.980462
0.044829 0.044815 0.353313
0.070821 0.044959 0.352423
0.155504 0.046536 0.349765
0.345856 0.059037 0.345896
0.621103 0.116882 0.352497
0.878962 0.269925 0.408565
1.000000 0.512590 0.562687
1.000000 0.762705 0.773619
1.000000 0.927710 0.929081
0.045099 0.070816 0.351676
0.070837 0.070828 0.350809
0.154861 0.071848 0.348228
0.344529 0.082152 0.344569
0.619813 0.133771 0.351654
0.878273 0.278021 0.408294
1.000000 0.515065 0.562652
1.000000 0.763200 0.773617
1.000000 0.927767 0.929081
0.048043 0.154785 0.346926
0.072745 0.154467 0.346134
0.154066 0.154073 0.343789
0.340668 0.158689 0.340707
0.615378 0.193102 0.349069
0.875630 0.309054 0.407390
1.000000 0.525089 0.562533
1.000000 0.765244 0.773614
1.000000 0.928004 0.929081
0.069991 0.340919 0.340927
0.091022 0.340312 0.340320
0.162519 0.338494 0.338500
0.336293 0.336330 0.336333
0.604915 0.346047 0.346061
0.867369 0.406162 0.406239
1.000000 0.562240 0.562409
1.000000 0.773444 0.773625
1.000000 0.928981 0.929084
0.158369 0.606507 0.356127
0.171396 0.606006 0.355835
0.219181 0.604207 0.354904
0.353776 0.599564 0.353826
0.594243 0.594325 0.362452
0.850695 0.604283 0.416833
1.000000 0.667123 0.565682
1.000000 0.802700 0.774055
1.000000 0.932846 0.929114
0.352719 0.853156 0.447878
0.357830 0.852934 0.447818
0.378047 0.852057 0.447619
0.447348 0.849064 0.447433
0.612505 0.842083 0.451752
0.833865 0.833999 0.484544
0.983608 0.837382 0.595031
1.000000 0.875697 0.779335
1.000000 0.945941 0.929466
0.613799 0.985759 0.641365
0.615104 0.985698 0.641362
0.620456 0.985449 0.641353
0.641241 0.984480 0.641383
0.708047 0.981322 0.642333
0.841953 0.974622 0.651806
0.966686 0.966867 0.698147
1.000000 0.962922 0.810349
1.000000 0.974689 0.932661
0.841710 1.000000 0.846548
0.841921 1.000000 0.846549
0.842797 1.000000 0.846551
0.846368 1.000000 0.846562
0.859904 1.000000 0.846668
0.899784 1.000000 0.847788
0.962857 1.000000 0.856080
1.000000 1.000000 0.888208
1.000000 1.000000 0.947694
0.962325 1.000000 0.962977
0.962344 1.000000 0.962977
0.962424 1.000000 0.962977
0.962757 1.000000 0.962978
0.964109 1.000000 0.962985
0.969196 1.000000 0.963038
0.984684 1.000000 0.963485
1.000000 1.000000 0.967072
0.999956 1.000000 0.980647
0.147333 0.147295 0.621344
0.161984 0.147369 0.620735
0.214855 0.148021 0.618557
0.358636 0.153731 0.612899
0.605215 0.187124 0.605309
0.859891 0.300903 0.610631
1.000000 0.519155 0.668946
1.000000 0.763390 0.803016
1.000000 0.927750 0.932947
0.147471 0.161976 0.620218
0.162040 0.162008 0.619616
0.214662 0.162482 0.617466
0.358026 0.167471 0.611891
0.604422 0.198476 0.604516
0.859353 0.307496 0.610226
1.000000 0.521452 0.668849
1.000000 0.763873 0.803007
1.000000 0.927807 0.932946
0.148691 0.214669 0.616252
0.162926 0.214574 0.615676
0.214520 0.214510 0.613622
0.356113 0.217280 0.608323
0.601556 0.240625 0.601649
0.857266 0.333150 0.608692
1.000000 0.530775 0.668464
1.000000 0.765870 0.802970
1.000000 0.928042 0.932945
0.159041 0.356256 0.606399
0.172019 0.355967 0.605900
0.219647 0.355043 0.604107
0.353941 0.353976 0.599473
0.594157 0.362585 0.594250
0.850546 0.416866 0.604257
1.000000 0.565560 0.667200
1.000000 0.773885 0.802842
1.000000 0.929012 0.932942
0.214051 0.595517 0.595534
0.223539 0.595184 0.595201
0.259552 0.593953 0.593968
0.369511 0.590589 0.590599
0.587004 0.587093 0.587098
0.836690 0.599521 0.599543
0.992031 0.665515 0.665601
1.000000 0.802548 0.802686
1.000000 0.932849 0.932944
0.371236 0.839938 0.612956
0.375687 0.839754 0.612832
0.393406 0.839021 0.612349
0.455374 0.836491 0.610863
0.609106 0.830569 0.609213
0.824523 0.824664 0.619704
0.976627 0.832278 0.677464
1.000000 0.874510 0.805623
1.000000 0.945861 0.933182
0.616781 0.979861 0.708253
0.618026 0.979804 0.708234
0.623138 0.979573 0.708158
0.643038 0.978673 0.707901
0.707480 0.975737 0.707627
0.838540 0.969618 0.712131
0.963070 0.963253 0.742969
1.000000 0.961489 0.829326
1.000000 0.974504 0.935937
0.841979 1.000000 0.860119
0.842187 1.000000 0.860118
0.843050 1.000000 0.860114
0.846569 1.000000 0.860103
0.859918 1.000000 0.860112
0.899345 1.000000 0.860828
0.962041 1.000000 0.867567
1.000000 1.000000 0.895449
1.000000 1.000000 0.949768
0.962339 1.000000 0.964334
0.962359 1.000000 0.964334
0.962438 1.000000 0.964334
0.962770 1.000000 0.964335
0.964117 1.000000 0.964339
0.969186 1.000000 0.964380
0.984642 1.000000 0.964779
1.000000 1.000000 0.968199
0.999891 1.000000 0.981414
0.351414 0.351372 0.860847
0.356720 0.351396 0.860609
0.377667 0.351544 0.859665
0.449029 0.352823 0.856443
0.617033 0.363017 0.848810
0.838927 0.414561 0.839086
0.986416 0.559233 0.839739
1.000000 0.769695 0.876221
1.000000 0.928150 0.946042
0.351457 0.356696 0.860406
0.356752 0.356714 0.860168
0.377660 0.356840 0.859228
0.448911 0.358021 0.856020
0.616767 0.367833 0.848427
0.838647 0.418217 0.838806
0.986269 0.560976 0.839618
1.000000 0.770133 0.876198
1.000000 0.928205 0.946041
0.351733 0.377667 0.858668
0.356984 0.377664 0.858435
0.377727 0.377703 0.857511
0.448515 0.378523 0.854356
0.615743 0.386902 0.846920
0.837533 0.432860 0.837692
0.985670 0.568089 0.839126
1.000000 0.771945 0.876106
1.000000 0.928433 0.946035
0.354115 0.448585 0.852839
0.359187 0.448527 0.852618
0.379258 0.448331 0.851747
0.448135 0.448152 0.848773
0.612646 0.452448 0.841825
0.833638 0.485069 0.833796
0.983390 0.595184 0.837295
1.000000 0.779235 0.875741
1.000000 0.929372 0.946012
0.372293 0.613103 0.839808
0.376720 0.612980 0.839624
0.394347 0.612502 0.838894
0.456038 0.611029 0.836374
0.609309 0.609395 0.830468
0.824427 0.619861 0.824583
0.976493 0.677502 0.832249
1.000000 0.805529 0.874564
1.000000 0.933094 0.945932
0.453756 0.826774 0.826797
0.456604 0.826664 0.826686
0.468111 0.826220 0.826242
0.510452 0.824619 0.824639
0.628055 0.820544 0.820559
0.816621 0.816769 0.816779
0.964214 0.827286 0.827308
1.000000 0.873039 0.873100
1.000000 0.945758 0.945827
0.637994 0.968161 0.839194
0.639033 0.968116 0.839160
0.643305 0.967931 0.839022
0.660074 0.967204 0.838491
0.715801 0.964803 0.836905
0.835049 0.959794 0.835219
0.955404 0.955593 0.843535
1.000000 0.957818 0.881506
1.000000 0.973934 0.947230
0.844352 1.000000 0.899580
0.844548 1.000000 0.899576
0.845359 1.000000 0.899560
0.848670 1.000000 0.899496
0.861268 1.000000 0.899282
0.898835 1.000000 0.899033
0.959797 1.000000 0.901902
1.000000 1.000000 0.918454
1.000000 1.000000 0.957232
0.962446 1.000000 0.969416
0.962465 1.000000 0.969416
0.962543 1.000000 0.969416
0.962869 1.000000 0.969414
0.964195 1.000000 0.969409
0.969191 1.000000 0.969412
0.984511 1.000000 0.969653
1.000000 1.000000 0.972508
0.999626 0.999841 0.984490
0.615010 0.615012 0.987765
0.616319 0.615018 0.987703
0.621689 0.615045 0.987451
0.642540 0.615225 0.986465
0.709506 0.616793 0.983243
0.843501 0.628604 0.976337
0.967835 0.681679 0.968043
1.000000 0.803841 0.963352
1.000000 0.931537 0.974774
0.615020 0.616327 0.987651
0.616328 0.616332 0.987589
0.621695 0.616358 0.987337
0.642533 0.616530 0.986352
0.709468 0.618066 0.983135
0.843427 0.629756 0.976242
0.967770 0.682482 0.967978
1.000000 0.804145 0.963329
1.000000 0.931585 0.974771
0.615070 0.621715 0.987183
0.616375 0.621718 0.987122
0.621728 0.621737 0.986871
0.642515 0.621878 0.985892
0.709315 0.623287 0.982692
0.843127 0.634483 0.975850
0.967502 0.685790 0.967710
1.000000 0.805407 0.963233
1.000000 0.931784 0.974759
0.615405 0.642572 0.985372
0.616696 0.642569 0.985312
0.621991 0.642561 0.985065
0.642565 0.642592 0.984106
0.708805 0.643535 0.980975
0.841983 0.652910 0.974325
0.966445 0.698876 0.966653
1.000000 0.810520 0.962845
1.000000 0.932609 0.974712
0.618316 0.708941 0.979581
0.619549 0.708923 0.979525
0.624610 0.708848 0.979296
0.644324 0.708596 0.978403
0.708255 0.708331 0.975490
0.838638 0.712804 0.969407
0.962890 0.743447 0.963097
1.000000 0.829448 0.961430
1.000000 0.935886 0.974529
0.639102 0.839296 0.968059
0.640134 0.839263 0.968014
0.644376 0.839126 0.967830
0.661032 0.838601 0.967108
0.716436 0.837030 0.964719
0.835213 0.835360 0.959726
0.955337 0.843652 0.955543
1.000000 0.881531 0.957803
1.000000 0.947182 0.973964
0.719650 0.957889 0.957912
0.720229 0.957865 0.957888
0.722624 0.957766 0.957788
0.732208 0.957370 0.957392
0.766181 0.955984 0.956004
0.849872 0.952763 0.952778
0.950064 0.950258 0.950270
1.000000 0.954729 0.954746
1.000000 0.973310 0.973344
0.859774 1.000000 0.960455
0.859927 1.000000 0.960450
0.860564 1.000000 0.960426
0.863171 1.000000 0.960331
0.873194 1.000000 0.959972
0.904081 1.000000 0.958954
0.957782 1.000000 0.957994
1.000000 1.000000 0.961353
1.000000 1.000000 0.976983
0.963299 1.000000 0.984767
0.963317 1.000000 0.984767
0.963390 1.000000 0.984766
0.963694 1.000000 0.984761
0.964935 1.000000 0.984741
0.969641 1.000000 0.984679
0.984411 1.000000 0.984634
0.999458 0.999674 0.986442
0.998627 0.998844 0.996097
0.842799 0.842890 1.000000
0.843008 0.842891 1.000000
0.843875 0.842895 1.000000
0.847411 0.842915 1.000000
0.860818 0.843055 1.000000
0.900374 0.844304 1.000000
0.963091 0.853032 1.000000
1.000000 0.886277 1.000000
1.000000 0.947100 1.000000
0.842801 0.843100 1.000000
0.843010 0.843101 1.000000
0.843877 0.843104 1.000000
0.847412 0.843124 1.000000
0.860816 0.843263 1.000000
0.900366 0.844505 1.000000
0.963078 0.853207 1.000000
1.000000 0.886385 1.000000
1.000000 0.947129 1.000000
0.842808 0.843971 1.000000
0.843017 0.843971 1.000000
0.843883 0.843975 1.000000
0.847415 0.843993 1.000000
0.860809 0.844125 1.000000
0.900334 0.845340 1.000000
0.963026 0.853937 1.000000
1.000000 0.886836 1.000000
1.000000 0.947254 1.000000
0.842845 0.847518 1.000000
0.843053 0.847518 1.000000
0.843916 0.847520 1.000000
0.847436 0.847532 1.000000
0.860786 0.847637 1.000000
0.900206 0.848741 1.000000
0.962813 0.856917 1.000000
1.000000 0.888684 1.000000
1.000000 0.947768 1.000000
0.843106 0.860917 1.000000
0.843311 0.860916 1.000000
0.844162 0.860912 1.000000
0.847631 0.860902 1.000000
0.860801 0.860913 1.000000
0.899779 0.861620 1.000000
0.962016 0.868272 1.000000
1.000000 0.895862 1.000000
1.000000 0.949835 1.000000
0.845415 0.899968 1.000000
0.845608 0.899964 1.000000
0.846408 0.899948 1.000000
0.849676 0.899886 1.000000
0.862117 0.899676 1.000000
0.899284 0.899435 1.000000
0.959823 0.902278 1.000000
1.000000 0.918695 1.000000
1.000000 0.957275 1.000000
0.860487 0.960476 1.000000
0.860639 0.960471 1.000000
0.861269 0.960448 1.000000
0.863852 0.960354 1.000000
0.873784 0.959999 1.000000
0.904430 0.958992 1.000000
0.957848 0.958043 1.000000
1.000000 0.961392 1.000000
1.000000 0.976989 1.000000
0.907742 1.000000 1.000000
0.907811 1.000000 1.000000
0.908102 1.000000 1.000000
0.909301 1.000000 1.000000
0.914028 1.000000 1.000000
0.929895 1.000000 1.000000
0.963772 1.000000 1.000000
0.998409 0.998625 0.998639
0.998409 0.998625 0.998639
0.969729 0.999893 0.999908
0.969743 0.999892 0.999907
0.969800 0.999889 0.999905
0.970040 0.999879 0.999894
0.971021 0.999835 0.999851
0.974843 0.999667 0.999681
0.987900 0.999089 0.999104
0.998409 0.998625 0.998639
0.998409 0.998625 0.998639
0.962773 0.962945 1.000000
0.962792 0.962945 1.000000
0.962871 0.962945 1.000000
0.963198 0.962947 1.000000
0.964531 0.962954 1.000000
0.969550 0.963010 1.000000
0.984906 0.963462 1.000000
1.000000 0.967056 1.000000
0.999941 0.980622 1.000000
0.962773 0.962964 1.000000
0.962792 0.962964 1.000000
0.962871 0.962964 1.000000
0.963198 0.962966 1.000000
0.964531 0.962973 1.000000
0.969549 0.963029 1.000000
0.984905 0.963480 1.000000
1.000000 0.967072 1.000000
0.999940 0.980633 1.000000
0.962773 0.963043 1.000000
0.962792 0.963043 1.000000
0.962871 0.963043 1.000000
0.963199 0.963045 1.000000
0.964531 0.963052 1.000000
0.969549 0.963107 1.000000
0.984903 0.963556 1.000000
1.000000 0.967138 1.000000
0.999936 0.980677 1.000000
0.962776 0.963372 1.000000
0.962795 0.963372 1.000000
0.962874 0.963372 1.000000
0.963201 0.963374 1.000000
0.964532 0.963381 1.000000
0.969546 0.963432 1.000000
0.984892 0.963869 1.000000
1.000000 0.967410 1.000000
0.999920 0.980861 1.000000
0.962791 0.964709 1.000000
0.962809 0.964709 1.000000
0.962888 0.964709 1.000000
0.963214 0.964710 1.000000
0.964540 0.964714 1.000000
0.969536 0.964755 1.000000
0.984852 0.965146 1.000000
1.000000 0.968524 1.000000
0.999855 0.981624 1.000000
0.962893 0.969724 1.000000
0.962912 0.969724 1.000000
0.962989 0.969723 1.000000
0.963310 0.969722 1.000000
0.964615 0.969718 1.000000
0.969541 0.969721 1.000000
0.984727 0.969958 1.000000
1.000000 0.972787 1.000000
0.999595 0.984686 0.999825
0.963717 0.984952 1.000000
0.963735 0.984951 1.000000
0.963807 0.984950 1.000000
0.964107 0.984945 1.000000
0.965330 0.984926 1.000000
0.969978 0.984867 1.000000
0.984633 0.984825 1.000000
0.999429 0.986635 0.999659
0.998609 0.996269 0.998839
0.970015 0.999880 0.999895
0.970029 0.999879 0.999895
0.970086 0.999877 0.999892
0.970323 0.999866 0.999882
0.971296 0.999823 0.999838
0.975090 0.999656 0.999671
0.988092 0.999081 0.999095
0.998409 0.998625 0.998639
0.998409 0.998625 0.998639
0.991651 0.998924 0.998938
0.991660 0.998923 0.998937
0.991697 0.998922 0.998936
0.991852 0.998915 0.998929
0.992498 0.998886 0.998900
0.995169 0.998768 0.998782
0.998409 0.998625 0.998639
0.998409 0.998625 0.998639
0.998409 0.998625 0.998639
