ep_main/data/luts/03_agx.cube
TITLE "03_agx"
LUT_3D_SIZE 33
0.015335 0.015337 0.015337
0.019688 0.015345 0.015345
0.025700 0.015364 0.015364
0.034306 0.015386 0.015386
0.046539 0.015414 0.015414
0.063431 0.015469 0.015469
0.085917 0.015605 0.015605
0.114754 0.015927 0.015928
0.150458 0.016617 0.016619
0.193252 0.017966 0.017970
0.243036 0.020411 0.020418
0.299367 0.024556 0.024569
0.361465 0.031168 0.031190
0.428230 0.041130 0.041163
0.498286 0.055360 0.055408
0.570037 0.074721 0.074787
0.641734 0.099925 0.100012
0.711547 0.131467 0.131576
0.777653 0.169573 0.169705
0.838326 0.214175 0.214330
0.892036 0.264905 0.265080
0.937560 0.321096 0.321290
0.974101 0.381807 0.382017
1.000000 0.445847 0.446069
1.000000 0.511813 0.512041
1.000000 0.578136 0.578365
1.000000 0.643139 0.643364
1.000000 0.705101 0.705316
1.000000 0.762620 0.762819
1.000000 0.814746 0.814925
1.000000 0.859943 0.860099
1.000000 0.897616 0.897747
1.000000 0.927703 0.927809
0.015351 0.019684 0.015352
0.019678 0.019679 0.015360
0.025689 0.019679 0.015377
0.034298 0.019678 0.015397
0.046527 0.019680 0.015423
0.063402 0.019708 0.015476
0.085859 0.019823 0.015611
0.114658 0.020134 0.015933
0.150318 0.020826 0.016625
0.193068 0.022187 0.017977
0.242810 0.024636 0.020428
0.299109 0.028748 0.024582
0.361185 0.035257 0.031204
0.427942 0.045023 0.041178
0.498005 0.058961 0.055423
0.569776 0.077948 0.074800
0.641500 0.102727 0.100024
0.711346 0.133827 0.131586
0.777486 0.171504 0.169713
0.838191 0.215714 0.214336
0.891930 0.266099 0.265085
0.937478 0.322002 0.321294
0.974041 0.382479 0.382020
1.000000 0.446334 0.446071
1.000000 0.512157 0.512043
1.000000 0.578374 0.578366
1.000000 0.643300 0.643365
1.000000 0.705207 0.705316
1.000000 0.762687 0.762819
1.000000 0.814787 0.814925
1.000000 0.859968 0.860099
1.000000 0.897630 0.897747
1.000000 0.927711 0.927809
0.015383 0.025694 0.015384
0.019678 0.025689 0.015390
0.025686 0.025688 0.015404
0.034297 0.025685 0.015419
0.046517 0.025687 0.015439
0.063364 0.025718 0.015487
0.085777 0.025839 0.015618
0.114519 0.026159 0.015939
0.150117 0.026861 0.016631
0.192804 0.028223 0.017989
0.242490 0.030645 0.020445
0.298744 0.034674 0.024605
0.360792 0.041009 0.031232
0.427539 0.050485 0.041207
0.497612 0.064010 0.055451
0.569409 0.082479 0.074826
0.641171 0.106671 0.100045
0.711061 0.137157 0.131603
0.777248 0.174237 0.169726
0.837999 0.217895 0.214346
0.891778 0.267797 0.265093
0.937362 0.323291 0.321300
0.973954 0.383435 0.382024
1.000000 0.447027 0.446074
1.000000 0.512649 0.512045
1.000000 0.578714 0.578368
1.000000 0.643529 0.643366
1.000000 0.705358 0.705317
1.000000 0.762784 0.762820
1.000000 0.814847 0.814926
1.000000 0.860003 0.860100
1.000000 0.897650 0.897747
1.000000 0.927722 0.927809
0.015414 0.034300 0.015416
0.019675 0.034298 0.015420
0.025683 0.034298 0.015429
0.034296 0.034297 0.015439
0.046499 0.034300 0.015453
0.063307 0.034334 0.015497
0.085656 0.034455 0.015625
0.114319 0.034771 0.015946
0.149830 0.035457 0.016644
0.192432 0.036777 0.018011
0.242043 0.039110 0.020481
0.298237 0.042972 0.024652
0.360247 0.049028 0.031288
0.426982 0.058083 0.041266
0.497067 0.071036 0.055507
0.568898 0.088797 0.074875
0.640711 0.112187 0.100085
0.710663 0.141832 0.131635
0.776914 0.178085 0.169750
0.837727 0.220977 0.214364
0.891564 0.270202 0.265106
0.937198 0.325121 0.321309
0.973830 0.384795 0.382031
1.000000 0.448015 0.446078
1.000000 0.513349 0.512048
1.000000 0.579199 0.578370
1.000000 0.643857 0.643367
1.000000 0.705573 0.705318
1.000000 0.762921 0.762820
1.000000 0.814932 0.814926
1.000000 0.860054 0.860100
1.000000 0.897679 0.897747
1.000000 0.927738 0.927809
0.015449 0.046514 0.015450
0.019679 0.046509 0.015453
0.025689 0.046503 0.015459
0.034303 0.046494 0.015464
0.046484 0.046486 0.015475
0.063235 0.046502 0.015516
0.085496 0.046597 0.015647
0.114049 0.046871 0.015975
0.149440 0.047488 0.016685
0.191925 0.048694 0.018071
0.241433 0.050846 0.020562
0.297547 0.054425 0.024753
0.359505 0.060061 0.031401
0.426221 0.068527 0.041382
0.496319 0.080705 0.055615
0.568194 0.097521 0.074968
0.640074 0.119838 0.100160
0.710107 0.148348 0.131693
0.776446 0.183475 0.169793
0.837345 0.225312 0.214395
0.891261 0.273596 0.265127
0.936964 0.327713 0.321324
0.973655 0.386726 0.382041
1.000000 0.449419 0.446085
1.000000 0.514346 0.512052
1.000000 0.579891 0.578373
1.000000 0.644325 0.643369
1.000000 0.705881 0.705319
1.000000 0.763118 0.762821
1.000000 0.815053 0.814926
1.000000 0.860126 0.860100
1.000000 0.897720 0.897747
1.000000 0.927760 0.927809
0.015532 0.063319 0.015533
0.019741 0.063304 0.015536
0.025757 0.063283 0.015539
0.034371 0.063252 0.015542
0.046517 0.063214 0.015553
0.063186 0.063188 0.015598
0.085322 0.063222 0.015738
0.113721 0.063406 0.016081
0.148946 0.063888 0.016814
0.191269 0.064896 0.018228
0.240634 0.066758 0.020750
0.296635 0.069921 0.024968
0.358518 0.074974 0.031631
0.425201 0.082654 0.041609
0.495311 0.093822 0.055823
0.567237 0.109410 0.075145
0.639201 0.130327 0.100302
0.709340 0.157340 0.131800
0.775795 0.190962 0.169871
0.836811 0.231370 0.214449
0.890836 0.278363 0.265165
0.936635 0.331367 0.321349
0.973407 0.389456 0.382058
1.000000 0.451410 0.446097
1.000000 0.515764 0.512060
1.000000 0.580875 0.578378
1.000000 0.644991 0.643372
1.000000 0.706320 0.705321
1.000000 0.763398 0.762822
1.000000 0.815227 0.814927
1.000000 0.860230 0.860101
1.000000 0.897779 0.897747
1.000000 0.927792 0.927809
0.015778 0.085589 0.015780
0.019982 0.085558 0.015783
0.026009 0.085513 0.015786
0.034613 0.085447 0.015790
0.046702 0.085363 0.015807
0.063252 0.085272 0.015863
0.085211 0.085214 0.016019
0.113393 0.085265 0.016387
0.148382 0.085555 0.017152
0.190476 0.086288 0.018604
0.239637 0.087758 0.021165
0.295474 0.090376 0.025411
0.357243 0.094685 0.032083
0.423870 0.101379 0.042044
0.493980 0.111288 0.056216
0.565961 0.125345 0.075477
0.638024 0.144497 0.100566
0.708295 0.169592 0.131998
0.774901 0.201249 0.170013
0.836071 0.239758 0.214548
0.890242 0.285010 0.265231
0.936173 0.336490 0.321394
0.973058 0.393303 0.382087
1.000000 0.454225 0.446115
1.000000 0.517773 0.512072
1.000000 0.582273 0.578385
1.000000 0.645938 0.643377
1.000000 0.706945 0.705324
1.000000 0.763798 0.762824
1.000000 0.815474 0.814928
1.000000 0.860377 0.860101
1.000000 0.897863 0.897748
1.000000 0.927838 0.927809
0.016411 0.114013 0.016413
0.020624 0.113960 0.016417
0.026658 0.113884 0.016423
0.035235 0.113778 0.016433
0.047229 0.113637 0.016460
0.063603 0.113467 0.016533
0.085310 0.113297 0.016714
0.113183 0.113187 0.017115
0.147839 0.113246 0.017920
0.189606 0.113649 0.019414
0.238471 0.114655 0.022011
0.294065 0.116629 0.026278
0.355659 0.120064 0.032941
0.422184 0.125602 0.042855
0.492269 0.134031 0.056940
0.564296 0.146267 0.076088
0.636468 0.163285 0.101051
0.706896 0.186010 0.132363
0.773688 0.215184 0.170275
0.835056 0.251236 0.214728
0.889422 0.294187 0.265351
0.935530 0.343619 0.321471
0.972568 0.398689 0.382137
1.000000 0.458186 0.446147
1.000000 0.520611 0.512092
1.000000 0.584254 0.578398
1.000000 0.647284 0.643385
1.000000 0.707834 0.705329
1.000000 0.764368 0.762827
1.000000 0.815827 0.814930
1.000000 0.860587 0.860102
1.000000 0.897983 0.897748
1.000000 0.927904 0.927810
0.017803 0.149031 0.017805
0.022026 0.148955 0.017811
0.028048 0.148848 0.017821
0.036557 0.148698 0.017840
0.048396 0.148497 0.017881
0.064512 0.148245 0.017976
0.085859 0.147957 0.018186
0.113299 0.147678 0.018623
0.147485 0.147492 0.019467
0.188785 0.147543 0.020998
0.237223 0.148050 0.023618
0.292459 0.149331 0.027881
0.353780 0.151820 0.034495
0.420129 0.156094 0.044306
0.490137 0.162886 0.058233
0.562183 0.173073 0.077180
0.634460 0.187636 0.101924
0.705061 0.207563 0.133024
0.772074 0.233720 0.170751
0.833688 0.266699 0.215056
0.888301 0.306696 0.265568
0.934642 0.353435 0.321611
0.971886 0.406168 0.382225
0.999786 0.463725 0.446201
1.000000 0.524600 0.512125
1.000000 0.587050 0.578418
1.000000 0.649190 0.643397
1.000000 0.709095 0.705336
1.000000 0.765177 0.762831
1.000000 0.816329 0.814933
1.000000 0.860887 0.860104
1.000000 0.898155 0.897749
1.000000 0.927998 0.927810
0.020507 0.190799 0.020509
0.024713 0.190701 0.020518
0.030675 0.190564 0.020533
0.039048 0.190374 0.020561
0.050642 0.190119 0.020616
0.066381 0.189791 0.020733
0.087224 0.189393 0.020970
0.114059 0.188953 0.021437
0.147589 0.188532 0.022310
0.188231 0.188241 0.023857
0.236059 0.188260 0.026469
0.290769 0.188852 0.030679
0.351674 0.190389 0.037179
0.417732 0.193375 0.046797
0.487579 0.198469 0.060454
0.559588 0.206485 0.079069
0.631941 0.218378 0.103450
0.702715 0.235168 0.134194
0.769973 0.257829 0.171602
0.831876 0.287126 0.215646
0.886795 0.323463 0.265961
0.933433 0.366765 0.321863
0.970948 0.416438 0.382382
0.999081 0.471401 0.446298
1.000000 0.530170 0.512183
1.000000 0.590976 0.578453
1.000000 0.651878 0.643417
1.000000 0.710881 0.705348
1.000000 0.766326 0.762838
1.000000 0.817042 0.814936
1.000000 0.861313 0.860106
1.000000 0.898399 0.897750
1.000000 0.928131 0.927811
0.025262 0.239159 0.025265
0.029390 0.239044 0.025276
0.035210 0.238883 0.025295
0.043343 0.238662 0.025330
0.054561 0.238363 0.025397
0.069765 0.237973 0.025529
0.089914 0.237484 0.025784
0.115924 0.236908 0.026265
0.148551 0.236282 0.027141
0.188280 0.235688 0.028667
0.235248 0.235264 0.031217
0.289201 0.235220 0.035302
0.349489 0.235865 0.041589
0.415087 0.237623 0.050891
0.484638 0.241064 0.064121
0.556514 0.246918 0.082217
0.628883 0.256076 0.106029
0.699802 0.269547 0.136202
0.767309 0.288370 0.173089
0.829532 0.313466 0.216693
0.884811 0.345464 0.266666
0.931815 0.384542 0.322319
0.969674 0.430332 0.382666
0.998112 0.481912 0.446470
1.000000 0.537873 0.512286
1.000000 0.596448 0.578513
1.000000 0.655648 0.643452
1.000000 0.713397 0.705368
1.000000 0.767951 0.762850
1.000000 0.818054 0.814943
1.000000 0.861919 0.860109
1.000000 0.898746 0.897752
1.000000 0.928322 0.927812
0.032955 0.293636 0.032960
0.036916 0.293510 0.032972
0.042482 0.293336 0.032993
0.050236 0.293094 0.033032
0.060914 0.292768 0.033105
0.075385 0.292335 0.033241
0.094602 0.291782 0.033498
0.119510 0.291104 0.033970
0.150926 0.290320 0.034813
0.189413 0.289480 0.036268
0.235191 0.288685 0.038684
0.288076 0.288097 0.042548
0.347466 0.287959 0.048498
0.412366 0.288618 0.057320
0.481430 0.290549 0.069924
0.553024 0.294378 0.087262
0.625303 0.300901 0.110229
0.696302 0.311065 0.139537
0.764031 0.325918 0.175608
0.826584 0.346483 0.218504
0.882262 0.373597 0.267906
0.929695 0.407718 0.323131
0.967976 0.448770 0.383177
0.996801 0.496078 0.446781
1.000000 0.548391 0.512469
1.000000 0.604000 0.578619
1.000000 0.660893 0.643512
1.000000 0.716921 0.705402
1.000000 0.770237 0.762868
1.000000 0.819484 0.814953
1.000000 0.862777 0.860115
1.000000 0.899239 0.897755
1.000000 0.928593 0.927813
0.044548 0.353450 0.044556
0.048243 0.353322 0.044569
0.053429 0.353143 0.044590
0.060651 0.352895 0.044629
0.070600 0.352558 0.044700
0.084112 0.352107 0.044831
0.102126 0.351521 0.045072
0.125609 0.350782 0.045508
0.155441 0.349892 0.046280
0.192280 0.348877 0.047608
0.236448 0.347801 0.049813
0.287857 0.346782 0.053349
0.345976 0.346005 0.058819
0.409852 0.345742 0.066980
0.478157 0.346374 0.078723
0.549253 0.348418 0.095016
0.621281 0.352551 0.116800
0.692247 0.359617 0.144866
0.760130 0.370606 0.179730
0.822989 0.386574 0.221539
0.879079 0.408503 0.270033
0.926988 0.437110 0.324551
0.965763 0.472653 0.384085
0.995061 0.514783 0.447339
1.000000 0.562513 0.512800
1.000000 0.614282 0.578810
1.000000 0.668115 0.643620
1.000000 0.721815 0.705461
1.000000 0.773435 0.762901
1.000000 0.821493 0.814970
1.000000 0.863988 0.860124
1.000000 0.899937 0.897759
1.000000 0.928977 0.927815
0.060981 0.417544 0.060993
0.064321 0.417420 0.061005
0.069014 0.417247 0.061025
0.075558 0.417006 0.061061
0.084598 0.416676 0.061125
0.096924 0.416230 0.061241
0.113452 0.415641 0.061452
0.135163 0.414885 0.061832
0.162996 0.413945 0.062502
0.197712 0.412827 0.063655
0.239761 0.411566 0.065580
0.289180 0.410240 0.068691
0.345542 0.408982 0.073546
0.407959 0.407997 0.080864
0.475134 0.407581 0.091508
0.545432 0.408143 0.106449
0.616973 0.410235 0.126671
0.687734 0.414571 0.153051
0.755655 0.422029 0.186220
0.818749 0.433618 0.226446
0.875229 0.450376 0.273565
0.923631 0.473211 0.326972
0.962954 0.502692 0.385667
0.992804 0.538851 0.448327
1.000000 0.581060 0.513393
1.000000 0.628028 0.579154
1.000000 0.677915 0.643813
1.000000 0.728536 0.705567
1.000000 0.777867 0.762958
1.000000 0.824299 0.815000
1.000000 0.865689 0.860139
1.000000 0.900921 0.897767
1.000000 0.929521 0.927819
0.083074 0.484623 0.083091
0.085999 0.484509 0.083102
0.090116 0.484349 0.083120
0.095875 0.484125 0.083151
0.103862 0.483817 0.083205
0.114811 0.483397 0.083302
0.129602 0.482834 0.083476
0.149210 0.482098 0.083787
0.174622 0.481163 0.084336
0.206705 0.480014 0.085287
0.246055 0.478661 0.086889
0.292871 0.477150 0.089507
0.346867 0.475569 0.093647
0.407262 0.474066 0.099973
0.472814 0.472862 0.109310
0.541903 0.472272 0.122611
0.612632 0.472724 0.140891
0.682940 0.474795 0.165111
0.750717 0.479221 0.196032
0.813928 0.486895 0.234075
0.870729 0.498821 0.279218
0.919605 0.515991 0.330960
0.959497 0.539207 0.388344
0.989958 0.568867 0.450040
1.000000 0.604761 0.514441
1.000000 0.645982 0.579768
1.000000 0.690959 0.644161
1.000000 0.737624 0.705757
1.000000 0.783937 0.763059
1.000000 0.828180 0.815053
1.000000 0.868059 0.860166
1.000000 0.902301 0.897780
1.000000 0.930288 0.927825
0.111448 0.553202 0.111472
0.113932 0.553101 0.111482
0.117436 0.552959 0.111497
0.122354 0.552761 0.111522
0.129206 0.552485 0.111566
0.138660 0.552105 0.111642
0.151535 0.551591 0.111778
0.168778 0.550908 0.112020
0.191401 0.550022 0.112447
0.220360 0.548905 0.113191
0.256408 0.547547 0.114459
0.299935 0.545964 0.116561
0.350849 0.544207 0.119939
0.408524 0.542378 0.125190
0.471818 0.540636 0.133078
0.539152 0.539212 0.144520
0.608624 0.538432 0.160535
0.678132 0.538739 0.182150
0.745509 0.540717 0.210257
0.808653 0.545110 0.245455
0.865656 0.552807 0.287912
0.914939 0.564777 0.337287
0.955384 0.581939 0.392725
0.986482 0.604965 0.452925
1.000000 0.634054 0.516251
1.000000 0.668755 0.580852
1.000000 0.707893 0.644782
1.000000 0.749660 0.706100
1.000000 0.792110 0.763242
1.000000 0.833476 0.815147
1.000000 0.871329 0.860213
1.000000 0.904221 0.897803
1.000000 0.931361 0.927836
0.146469 0.621663 0.146502
0.148517 0.621578 0.146509
0.151413 0.621457 0.146522
0.155492 0.621287 0.146542
0.161202 0.621049 0.146576
0.169129 0.620720 0.146634
0.180015 0.620270 0.146736
0.194748 0.619662 0.146915
0.214327 0.618860 0.147231
0.239768 0.617826 0.147786
0.271962 0.616534 0.148741
0.311510 0.614977 0.150349
0.358556 0.613175 0.152981
0.412696 0.611190 0.157153
0.472951 0.609132 0.163549
0.537832 0.607165 0.173022
0.605457 0.605530 0.186562
0.673695 0.604555 0.205227
0.740312 0.604683 0.230020
0.803128 0.606498 0.261722
0.860152 0.610731 0.300728
0.909726 0.618243 0.346921
0.950661 0.629945 0.399619
0.982382 0.646653 0.457615
1.000000 0.668884 0.519283
1.000000 0.696630 0.582717
1.000000 0.729199 0.645875
1.000000 0.765181 0.706712
1.000000 0.802874 0.763571
1.000000 0.840574 0.815317
1.000000 0.875774 0.860297
1.000000 0.906861 0.897843
1.000000 0.932851 0.927854
0.188212 0.688324 0.188254
0.189854 0.688254 0.188261
0.192183 0.688154 0.188270
0.195473 0.688014 0.188286
0.200097 0.687816 0.188311
0.206556 0.687541 0.188354
0.215493 0.687160 0.188428
0.227712 0.686641 0.188556
0.244155 0.685944 0.188781
0.265848 0.685029 0.189176
0.293782 0.683857 0.189862
0.328748 0.682404 0.191036
0.371158 0.680665 0.192992
0.420887 0.678669 0.196159
0.477201 0.676484 0.201126
0.538775 0.674224 0.208650
0.603802 0.672061 0.219659
0.670146 0.670233 0.235195
0.735517 0.669064 0.256324
0.797640 0.668989 0.283988
0.854426 0.670572 0.318818
0.904116 0.674516 0.360973
0.945431 0.681630 0.410023
0.977718 0.692740 0.464941
1.000000 0.708537 0.524182
1.000000 0.729363 0.585826
1.000000 0.755000 0.647749
1.000000 0.784531 0.707785
1.000000 0.816649 0.764159
1.000000 0.849865 0.815623
1.000000 0.881701 0.860450
1.000000 0.910435 0.897916
1.000000 0.934895 0.927887
0.236446 0.751508 0.236500
0.237731 0.751452 0.236505
0.239555 0.751373 0.236513
0.242138 0.751260 0.236524
0.245784 0.751101 0.236543
0.250901 0.750878 0.236574
0.258031 0.750568 0.236626
0.267867 0.750140 0.236715
0.281260 0.749558 0.236870
0.299186 0.748780 0.237140
0.322670 0.747763 0.237614
0.352650 0.746470 0.238432
0.389784 0.744876 0.239820
0.434268 0.742984 0.242117
0.485689 0.740826 0.245802
0.542983 0.738477 0.251526
0.604500 0.736056 0.260110
0.668161 0.733734 0.272535
0.731640 0.731741 0.289871
0.792578 0.730389 0.313160
0.848765 0.730092 0.343245
0.898321 0.731381 0.380577
0.939852 0.734910 0.425046
0.972605 0.741414 0.475902
0.996615 0.751612 0.531779
1.000000 0.766049 0.590819
1.000000 0.784880 0.650858
1.000000 0.807684 0.709620
1.000000 0.833647 0.765186
1.000000 0.861651 0.816169
1.000000 0.889404 0.860724
1.000000 0.915177 0.898047
1.000000 0.937654 0.927946
0.290638 0.809633 0.290704
0.291618 0.809590 0.290708
0.293012 0.809528 0.290714
0.294991 0.809440 0.290723
0.297792 0.809316 0.290736
0.301740 0.809141 0.290758
0.307273 0.808896 0.290794
0.314965 0.808554 0.290855
0.325546 0.808085 0.290958
0.339895 0.807449 0.291138
0.359001 0.806602 0.291453
0.383864 0.805501 0.292001
0.415335 0.804107 0.292944
0.453914 0.802402 0.294535
0.499558 0.800391 0.297148
0.551559 0.798114 0.301310
0.608540 0.795649 0.307719
0.668565 0.793116 0.317245
0.729342 0.790680 0.330899
0.788444 0.788559 0.349749
0.843545 0.787044 0.374782
0.892620 0.786513 0.406710
0.934133 0.787453 0.445773
0.967202 0.790449 0.491576
0.991755 0.796143 0.543048
1.000000 0.805127 0.598503
1.000000 0.817783 0.655819
1.000000 0.834081 0.712646
1.000000 0.853710 0.766933
1.000000 0.876026 0.817119
1.000000 0.899082 0.861213
1.000000 0.921293 0.898283
1.000000 0.941297 0.928053
0.349961 0.861303 0.350041
0.350691 0.861270 0.350044
0.351732 0.861223 0.350048
0.353212 0.861157 0.350054
0.355312 0.861062 0.350064
0.358281 0.860928 0.350080
0.362462 0.860740 0.350104
0.368311 0.860476 0.350145
0.376428 0.860111 0.350213
0.387560 0.859609 0.350330
0.402598 0.858930 0.350533
0.422519 0.858030 0.350887
0.448268 0.856865 0.351503
0.480585 0.855399 0.352558
0.519787 0.853617 0.354329
0.565583 0.851530 0.357221
0.616978 0.849183 0.361795
0.672310 0.846657 0.368784
0.729414 0.844068 0.379085
0.785865 0.841573 0.393717
0.839239 0.839369 0.413716
0.887363 0.837716 0.439980
0.928534 0.836950 0.473062
0.961707 0.837496 0.512964
0.986673 0.839856 0.559006
1.000000 0.844561 0.609804
1.000000 0.852061 0.663394
1.000000 0.862569 0.717442
1.000000 0.876181 0.769797
1.000000 0.892733 0.818727
1.000000 0.910736 0.862060
1.000000 0.928904 0.898701
1.000000 0.945971 0.928245
0.413320 0.905412 0.413415
0.413853 0.905388 0.413417
0.414612 0.905354 0.413420
0.415693 0.905304 0.413425
0.417230 0.905234 0.413432
0.419409 0.905135 0.413442
0.422488 0.904994 0.413459
0.426819 0.904796 0.413486
0.432869 0.904520 0.413530
0.441247 0.904137 0.413605
0.452704 0.903612 0.413733
0.468121 0.902905 0.413956
0.488437 0.901970 0.414343
0.514520 0.900766 0.415016
0.546972 0.899261 0.416165
0.585911 0.897443 0.418086
0.630800 0.895329 0.421204
0.680376 0.892967 0.426103
0.732741 0.890441 0.433537
0.785577 0.887860 0.444407
0.836426 0.885364 0.459710
0.882985 0.883128 0.480422
0.923373 0.881372 0.507321
0.956358 0.880378 0.540775
0.981553 0.880499 0.580539
0.999590 0.882141 0.625645
1.000000 0.885710 0.674431
1.000000 0.891507 0.724703
1.000000 0.899889 0.774300
1.000000 0.911079 0.821346
1.000000 0.924062 0.863485
1.000000 0.937960 0.899422
1.000000 0.951755 0.928582
0.479385 0.941264 0.479495
0.479765 0.941247 0.479497
0.480306 0.941222 0.479499
0.481078 0.941186 0.479502
0.482176 0.941135 0.479507
0.483737 0.941063 0.479514
0.485949 0.940961 0.479526
0.489072 0.940817 0.479543
0.493460 0.940614 0.479572
0.499581 0.940331 0.479619
0.508038 0.939939 0.479699
0.519570 0.939403 0.479835
0.535025 0.938683 0.480073
0.555281 0.937736 0.480487
0.581104 0.936522 0.481203
0.612940 0.935013 0.482424
0.650704 0.933203 0.484454
0.693620 0.931114 0.487733
0.740198 0.928798 0.492855
0.788372 0.926336 0.500571
0.835761 0.923829 0.511766
0.879994 0.921398 0.527387
0.919029 0.919186 0.548320
0.951428 0.917367 0.575196
0.976600 0.916162 0.608177
0.994988 0.915843 0.646768
1.000000 0.916711 0.689733
1.000000 0.919042 0.735173
1.000000 0.923306 0.781051
1.000000 0.929969 0.825424
1.000000 0.938408 0.865783
1.000000 0.948176 0.900623
1.000000 0.958606 0.929159
0.546632 0.968692 0.546758
0.546897 0.968680 0.546759
0.547274 0.968662 0.546761
0.547812 0.968637 0.546763
0.548578 0.968602 0.546766
0.549669 0.968551 0.546771
0.551219 0.968478 0.546779
0.553414 0.968376 0.546790
0.556510 0.968231 0.546809
0.560856 0.968028 0.546838
0.566908 0.967745 0.546887
0.575250 0.967353 0.546969
0.586590 0.966820 0.547112
0.601725 0.966106 0.547359
0.621449 0.965169 0.547790
0.646403 0.963975 0.548534
0.676869 0.962501 0.549798
0.712559 0.960746 0.551892
0.752488 0.958738 0.555258
0.794994 0.956530 0.560483
0.837925 0.954199 0.568298
0.878953 0.951834 0.579544
0.915931 0.949533 0.595096
0.947232 0.947401 0.615717
0.972036 0.945565 0.641871
0.990567 0.944178 0.673503
1.000000 0.943424 0.709873
1.000000 0.943498 0.749511
1.000000 0.944876 0.790670
1.000000 0.948120 0.831466
1.000000 0.952874 0.869320
1.000000 0.959047 0.902538
1.000000 0.966350 0.930106
0.613394 0.988201 0.613536
0.613574 0.988192 0.613536
0.613830 0.988180 0.613537
0.614196 0.988163 0.613539
0.614718 0.988138 0.613541
0.615462 0.988104 0.613544
0.616520 0.988054 0.613549
0.618022 0.987983 0.613557
0.620148 0.987883 0.613568
0.623145 0.987742 0.613587
0.627345 0.987543 0.613616
0.633185 0.987267 0.613666
0.641216 0.986887 0.613749
0.652097 0.986369 0.613893
0.666552 0.985678 0.614144
0.685275 0.984777 0.614581
0.708768 0.983635 0.615335
0.737143 0.982236 0.616612
0.769927 0.980584 0.618720
0.805968 0.978711 0.622089
0.843504 0.976673 0.627285
0.880405 0.974539 0.634999
0.914527 0.972381 0.646007
0.944105 0.970273 0.661079
0.968100 0.968280 0.680837
0.986495 0.966476 0.705556
1.000000 0.964946 0.734965
1.000000 0.963787 0.768100
1.000000 0.963436 0.803650
1.000000 0.964436 0.839949
1.000000 0.966575 0.874481
1.000000 0.970003 0.905436
1.000000 0.974751 0.931589
0.677922 1.000000 0.678078
0.678041 1.000000 0.678079
0.678211 1.000000 0.678080
0.678454 1.000000 0.678081
0.678800 1.000000 0.678082
0.679293 1.000000 0.678084
0.679996 1.000000 0.678087
0.680996 1.000000 0.678092
0.682414 1.000000 0.678099
0.684421 1.000000 0.678111
0.687247 1.000000 0.678128
0.691203 1.000000 0.678157
0.696693 1.000000 0.678206
0.704222 0.999857 0.678288
0.714385 0.999370 0.678431
0.727819 0.998722 0.678679
0.745101 0.997881 0.679111
0.766589 0.996822 0.679855
0.792231 0.995536 0.681112
0.821399 0.994034 0.683178
0.852833 0.992350 0.686462
0.884766 0.990539 0.691491
0.915213 0.988662 0.698898
0.942371 0.986773 0.709366
0.965029 0.984916 0.723543
0.982929 0.983118 0.741887
0.997053 0.981398 0.764479
1.000000 0.979776 0.790836
1.000000 0.978640 0.820178
1.000000 0.978450 0.851188
1.000000 0.979056 0.881589
1.000000 0.980734 0.909576
1.000000 0.983735 0.933778
0.738455 1.000000 0.738625
0.738531 1.000000 0.738625
0.738641 1.000000 0.738625
0.738797 1.000000 0.738626
0.739020 1.000000 0.738627
0.739338 1.000000 0.738628
0.739791 1.000000 0.738630
0.740437 1.000000 0.738633
0.741355 1.000000 0.738638
0.742658 1.000000 0.738645
0.744498 1.000000 0.738655
0.747088 1.000000 0.738672
0.750707 1.000000 0.738700
0.755719 1.000000 0.738746
0.762573 1.000000 0.738825
0.771788 1.000000 0.738961
0.783899 1.000000 0.739200
0.799359 1.000000 0.739616
0.818384 1.000000 0.740330
0.840780 1.000000 0.741533
0.865806 1.000000 0.743501
0.892175 1.000000 0.746608
0.918227 1.000000 0.751331
0.942271 0.998829 0.758222
0.963017 0.997261 0.767856
0.980003 0.995705 0.780735
0.993956 0.994151 0.797143
1.000000 0.992568 0.816965
1.000000 0.991325 0.839941
