ep_main/data/luts/03_agx.cube
TITLE "03_agx"
LUT_3D_SIZE 5
0.015335 0.015337 0.015337
0.150458 0.016617 0.016619
0.641734 0.099925 0.100012
1.000000 0.511813 0.512041
1.000000 0.927703 0.927809
0.017803 0.149031 0.017805
0.147485 0.147492 0.019467
0.634460 0.187636 0.101924
1.000000 0.524600 0.512125
1.000000 0.927998 0.927810
0.146469 0.621663 0.146502
0.214327 0.618860 0.147231
0.605457 0.605530 0.186562
1.000000 0.668884 0.519283
1.000000 0.932851 0.927854
0.613394 0.988201 0.613536
0.620148 0.987883 0.613568
0.708768 0.983635 0.615335
0.968100 0.968280 0.680837
1.000000 0.974751 0.931589
0.962321 1.000000 0.962543
0.962420 1.000000 0.962543
0.964108 1.000000 0.962552
0.984698 1.000000 0.963071
0.999977 1.000000 0.980407
0.017831 0.017831 0.149005
0.147458 0.019496 0.147467
0.634392 0.101863 0.187678
1.000000 0.511900 0.524815
1.000000 0.927704 0.928103
0.021090 0.146294 0.146297
0.145084 0.145093 0.145094
0.627640 0.186741 0.186789
1.000000 0.524622 0.524833
1.000000 0.927999 0.928104
0.147850 0.616492 0.214180
0.213981 0.613849 0.214016
0.601743 0.601819 0.240240
1.000000 0.668397 0.530902
1.000000 0.932850 0.928145
0.613456 0.987607 0.620307
0.620187 0.987291 0.620329
0.708572 0.983073 0.621895
0.967761 0.967941 0.684976
1.000000 0.974736 0.931837
0.962322 1.000000 0.962642
0.962421 1.000000 0.962643
0.964108 1.000000 0.962652
0.984695 1.000000 0.963166
0.999972 1.000000 0.980462
0.147333 0.147295 0.621344
0.214855 0.148021 0.618557
0.605215 0.187124 0.605309
1.000000 0.519155 0.668946
1.000000 0.927750 0.932947
0.148691 0.214669 0.616252
0.214520 0.214510 0.613622
0.601556 0.240625 0.601649
1.000000 0.530775 0.668464
1.000000 0.928042 0.932945
0.214051 0.595517 0.595534
0.259552 0.593953 0.593968
0.587004 0.587093 0.587098
0.992031 0.665515 0.665601
1.000000 0.932849 0.932944
0.616781 0.979861 0.708253
0.623138 0.979573 0.708158
0.707480 0.975737 0.707627
0.963070 0.963253 0.742969
1.000000 0.974504 0.935937
0.962339 1.000000 0.964334
0.962438 1.000000 0.964334
0.964117 1.000000 0.964339
0.984642 1.000000 0.964779
0.999891 1.000000 0.981414
0.615010 0.615012 0.987765
0.621689 0.615045 0.987451
0.709506 0.616793 0.983243
0.967835 0.681679 0.968043
1.000000 0.931537 0.974774
0.615070 0.621715 0.987183
0.621728 0.621737 0.986871
0.709315 0.623287 0.982692
0.967502 0.685790 0.967710
1.000000 0.931784 0.974759
0.618316 0.708941 0.979581
0.624610 0.708848 0.979296
0.708255 0.708331 0.975490
0.962890 0.743447 0.963097
1.000000 0.935886 0.974529
0.719650 0.957889 0.957912
0.722624 0.957766 0.957788
0.766181 0.955984 0.956004
0.950064 0.950258 0.950270
1.000000 0.973310 0.973344
0.963299 1.000000 0.984767
0.963390 1.000000 0.984766
0.964935 1.000000 0.984741
0.984411 1.000000 0.984634
0.998627 0.998844 0.996097
0.962773 0.962945 1.000000
0.962871 0.962945 1.000000
0.964531 0.962954 1.000000
0.984906 0.963462 1.000000
0.999941 0.980622 1.000000
0.962773 0.963043 1.000000
0.962871 0.963043 1.000000
0.964531 0.963052 1.000000
0.984903 0.963556 1.000000
0.999936 0.980677 1.000000
0.962791 0.964709 1.000000
0.962888 0.964709 1.000000
0.964540 0.964714 1.000000
0.984852 0.965146 1.000000
0.999855 0.981624 1.000000
0.963717 0.984952 1.000000
0.963807 0.984950 1.000000
0.965330 0.984926 1.000000
0.984633 0.984825 1.000000
0.998609 0.996269 0.998839
0.991651 0.998924 0.998938
0.991697 0.998922 0.998936
0.992498 0.998886 0.998900
0.998409 0.998625 0.998639
0.998409 0.998625 0.998639
